;FLAVOR:Marlin
;TIME:1391
;Filament used: 0.960367m
;Layer height: 0.2
;MINX:130.075
;MINY:140.086
;MINZ:0.12
;MAXX:167.777
;MAXY:159.931
;MAXZ:28.72
;Generated with Cura_SteamEngine 4.2.1
M140 S60
M105
M190 S60
M104 S200
M105
M109 S200
M82 ;absolute extrusion mode
; -- START GCODE --
G21                     ;set units to millimetres
G90                     ;set to absolute positioning
M106 S0                 ;set fan speed to zero (turned off)
G28                     ;home all axis
M420 S1                 ;turn on mesh bed levelling if enabled in firmware
G92 E0                  ;zero the extruded length
G1 Z1 F1000             ;move up slightly
G1 X60.0 Z0 E9.0 F1000.0;intro line
G1 X100.0 E21.5 F1000.0 ;continue line
G92 E0                  ;zero the extruded length again
; -- end of START GCODE --
M141 S28
G92 E0
G92 E0
G1 F2700 E-8
;LAYER_COUNT:144
;LAYER:0
M107
G0 F3600 X131.718 Y143.202 Z0.12
;TYPE:SKIRT
G1 F2700 E0
G1 F1200 X132.037 Y142.91 E0.00863
G1 X132.5 Y142.54 E0.02046
G1 X133.009 Y142.236 E0.03229
G1 X133.604 Y141.986 E0.04517
G1 X133.996 Y141.854 E0.05342
G1 X134.569 Y141.703 E0.06525
G1 X135.005 Y141.642 E0.07403
G1 X135.327 Y141.613 E0.08049
G1 X135.456 Y141.603 E0.08307
G1 X148.774 Y140.796 E0.34933
G1 X148.84 Y140.793 E0.35065
G1 X149.476 Y140.764 E0.36335
G1 X149.597 Y140.76 E0.36577
G1 X150.043 Y140.752 E0.37467
G1 X150.298 Y140.755 E0.37976
G1 X150.848 Y140.777 E0.39075
G1 X151.11 Y140.795 E0.39599
G1 X151.58 Y140.842 E0.40541
G1 X151.739 Y140.861 E0.40861
G1 X152.002 Y140.897 E0.41391
G1 X152.186 Y140.926 E0.41762
G1 X152.602 Y141.001 E0.42606
G1 X152.769 Y141.034 E0.42946
G1 X153.059 Y141.098 E0.43538
G1 X153.206 Y141.133 E0.4384
G1 X153.424 Y141.189 E0.44289
G1 X153.52 Y141.215 E0.44487
G1 X153.769 Y141.285 E0.45004
G1 X153.873 Y141.316 E0.4522
G1 X154.123 Y141.393 E0.45742
G1 X154.286 Y141.446 E0.46084
G1 X154.511 Y141.525 E0.4656
G1 X154.686 Y141.591 E0.46933
G1 X155.229 Y141.808 E0.481
G1 X155.402 Y141.882 E0.48476
G1 X155.673 Y142.004 E0.49069
G1 X155.835 Y142.081 E0.49427
G1 X156.127 Y142.227 E0.50078
G1 X156.276 Y142.305 E0.50414
G1 X156.604 Y142.485 E0.51161
G1 X156.722 Y142.552 E0.51431
G1 X156.917 Y142.667 E0.51883
G1 X157.072 Y142.763 E0.52247
G1 X157.446 Y143.005 E0.53136
G1 X157.602 Y143.111 E0.53512
G1 X157.874 Y143.304 E0.54178
G1 X157.978 Y143.38 E0.54435
G1 X158.145 Y143.506 E0.54852
G1 X158.238 Y143.578 E0.55087
G1 X158.465 Y143.759 E0.55667
G1 X158.652 Y143.917 E0.56155
G1 X159.1 Y144.317 E0.57354
G1 X159.206 Y144.414 E0.5764
G1 X159.399 Y144.598 E0.58173
G1 X159.57 Y144.771 E0.58658
G1 X159.771 Y144.985 E0.59244
G1 X159.856 Y145.078 E0.59495
G1 X160.13 Y145.387 E0.60319
G1 X160.264 Y145.545 E0.60733
G1 X160.571 Y145.926 E0.61709
G1 X160.679 Y146.066 E0.62062
G1 X160.811 Y146.244 E0.62504
G1 X160.919 Y146.396 E0.62876
G1 X161.201 Y146.812 E0.63879
G1 X161.354 Y147.054 E0.64451
G1 X161.469 Y147.25 E0.64904
G1 X161.534 Y147.364 E0.65166
G1 X161.661 Y147.596 E0.65694
G1 X161.91 Y148.134 E0.66877
G1 X162.084 Y148.701 E0.68061
G1 X162.182 Y149.299 E0.6927
G1 X162.224 Y149.748 E0.7017
G1 X162.239 Y150.341 E0.71354
G1 X162.175 Y150.93 E0.72536
G1 X162.031 Y151.506 E0.73721
G1 X161.86 Y151.954 E0.74678
G1 X161.712 Y152.285 E0.75401
G1 X161.438 Y152.802 E0.76569
G1 X161.184 Y153.213 E0.77533
G1 X161.025 Y153.453 E0.78108
G1 X160.78 Y153.797 E0.7895
G1 X160.652 Y153.967 E0.79375
G1 X160.325 Y154.382 E0.8043
G1 X160.126 Y154.618 E0.81046
G1 X159.659 Y155.132 E0.82431
G1 X159.534 Y155.264 E0.82794
G1 X159.382 Y155.418 E0.83226
G1 X159.246 Y155.549 E0.83603
G1 X158.947 Y155.827 E0.84418
G1 X158.786 Y155.97 E0.84847
G1 X158.532 Y156.184 E0.8551
G1 X158.411 Y156.282 E0.85821
G1 X158.055 Y156.561 E0.86724
G1 X157.877 Y156.694 E0.87167
G1 X157.514 Y156.95 E0.88053
G1 X157.301 Y157.091 E0.88563
G1 X156.833 Y157.382 E0.89663
G1 X156.586 Y157.525 E0.90232
G1 X156.072 Y157.8 E0.91396
G1 X155.936 Y157.869 E0.917
G1 X155.704 Y157.983 E0.92216
G1 X155.493 Y158.08 E0.92679
G1 X155.238 Y158.189 E0.93233
G1 X155.129 Y158.234 E0.93468
G1 X154.692 Y158.407 E0.94406
G1 X154.423 Y158.503 E0.94976
G1 X153.859 Y158.685 E0.96159
G1 X153.666 Y158.743 E0.96561
G1 X153.325 Y158.836 E0.97266
G1 X153.164 Y158.877 E0.97598
G1 X152.949 Y158.927 E0.98038
G1 X152.802 Y158.958 E0.98338
G1 X152.401 Y159.037 E0.99154
G1 X152.167 Y159.077 E0.99628
G1 X151.637 Y159.152 E1.00696
G1 X151.415 Y159.177 E1.01142
G1 X151.037 Y159.211 E1.01899
G1 X150.767 Y159.227 E1.02439
G1 X150.059 Y159.247 E1.03852
G1 X149.769 Y159.246 E1.04431
G1 X148.841 Y159.211 E1.06284
G1 X148.74 Y159.206 E1.06486
G1 X135.983 Y158.43 E1.31991
G1 X135.919 Y158.426 E1.32119
G1 X135.242 Y158.375 E1.33474
G1 X134.877 Y158.332 E1.34207
G1 X134.621 Y158.291 E1.34725
G1 X133.93 Y158.122 E1.36144
G1 X133.644 Y158.027 E1.36746
G1 X133.095 Y157.802 E1.3793
G1 X132.653 Y157.553 E1.38942
G1 X132.432 Y157.411 E1.39466
G1 X131.955 Y157.057 E1.40652
G1 X131.531 Y156.643 E1.41834
G1 X131.238 Y156.278 E1.42768
G1 X131.115 Y156.107 E1.43189
G1 X131.056 Y156.023 E1.43394
G1 X130.965 Y155.89 E1.43715
G1 X130.664 Y155.379 E1.44899
G1 X130.434 Y154.832 E1.46083
G1 X130.34 Y154.521 E1.46731
G1 X130.237 Y154.128 E1.47542
G1 X130.125 Y153.545 E1.48727
G1 X130.094 Y153.102 E1.49613
G1 X130.077 Y152.274 E1.51266
G1 X130.076 Y152.196 E1.51421
G1 X130.075 Y151.835 E1.52142
G1 X130.075 Y151.822 E1.52168
G1 X130.076 Y147.77 E1.60254
G1 X130.076 Y147.706 E1.60382
G1 X130.086 Y147.027 E1.61737
G1 X130.146 Y146.367 E1.63059
G1 X130.21 Y145.984 E1.63834
G1 X130.347 Y145.407 E1.65018
G1 X130.666 Y144.641 E1.66674
G1 X130.805 Y144.38 E1.67264
G1 X131.119 Y143.876 E1.68449
G1 X131.497 Y143.42 E1.69631
G1 X131.718 Y143.202 E1.7025
G0 F3600 X131.988 Y143.497
G1 F1200 X132.307 Y143.205 E1.71113
G1 X132.75 Y142.854 E1.72241
G1 X133.238 Y142.569 E1.73369
G1 X133.731 Y142.365 E1.74434
G1 X134.123 Y142.233 E1.75259
G1 X134.671 Y142.091 E1.76389
G1 X135.041 Y142.04 E1.77134
G1 X135.363 Y142.011 E1.77779
G1 X135.48 Y142.002 E1.78013
G1 X148.798 Y141.195 E2.0464
G1 X148.858 Y141.192 E2.0476
G1 X149.494 Y141.163 E2.0603
G1 X149.604 Y141.16 E2.0625
G1 X150.05 Y141.152 E2.0714
G1 X150.282 Y141.154 E2.07603
G1 X150.832 Y141.176 E2.08701
G1 X151.07 Y141.193 E2.09178
G1 X151.54 Y141.24 E2.1012
G1 X151.684 Y141.257 E2.1041
G1 X151.947 Y141.293 E2.10939
G1 X152.115 Y141.319 E2.11279
G1 X152.531 Y141.394 E2.12122
G1 X152.683 Y141.425 E2.12432
G1 X152.973 Y141.489 E2.13024
G1 X153.106 Y141.521 E2.13297
G1 X153.324 Y141.577 E2.13746
G1 X153.412 Y141.6 E2.13928
G1 X153.661 Y141.67 E2.14444
G1 X153.755 Y141.698 E2.1464
G1 X154.005 Y141.775 E2.15162
G1 X154.153 Y141.824 E2.15473
G1 X154.378 Y141.903 E2.15949
G1 X154.537 Y141.963 E2.16288
G1 X155.08 Y142.18 E2.17455
G1 X155.238 Y142.247 E2.17797
G1 X155.509 Y142.369 E2.18391
G1 X155.656 Y142.438 E2.18715
G1 X155.948 Y142.584 E2.19366
G1 X156.083 Y142.655 E2.1967
G1 X156.411 Y142.835 E2.20417
G1 X156.519 Y142.897 E2.20666
G1 X156.714 Y143.012 E2.21117
G1 X156.855 Y143.099 E2.21448
G1 X157.229 Y143.341 E2.22337
G1 X157.371 Y143.437 E2.22679
G1 X157.643 Y143.63 E2.23345
G1 X157.737 Y143.699 E2.23577
G1 X157.904 Y143.825 E2.23995
G1 X157.989 Y143.89 E2.24208
G1 X158.216 Y144.071 E2.24788
G1 X158.386 Y144.215 E2.25232
G1 X158.834 Y144.615 E2.26431
G1 X158.93 Y144.704 E2.26692
G1 X159.123 Y144.888 E2.27224
G1 X159.279 Y145.045 E2.27666
G1 X159.48 Y145.259 E2.28252
G1 X159.557 Y145.343 E2.28479
G1 X159.831 Y145.652 E2.29303
G1 X159.953 Y145.796 E2.2968
G1 X160.26 Y146.177 E2.30657
G1 X160.358 Y146.304 E2.30977
G1 X160.49 Y146.482 E2.31419
G1 X160.588 Y146.621 E2.31758
G1 X160.87 Y147.037 E2.32761
G1 X161.009 Y147.257 E2.33281
G1 X161.124 Y147.453 E2.33734
G1 X161.183 Y147.556 E2.33971
G1 X161.31 Y147.788 E2.34499
G1 X161.545 Y148.302 E2.35627
G1 X161.706 Y148.844 E2.36755
G1 X161.784 Y149.336 E2.37749
G1 X161.826 Y149.785 E2.38649
G1 X161.838 Y150.351 E2.39779
G1 X161.771 Y150.912 E2.40906
G1 X161.626 Y151.458 E2.42034
G1 X161.495 Y151.791 E2.42748
G1 X161.347 Y152.122 E2.43471
G1 X161.098 Y152.592 E2.44533
G1 X160.844 Y153.003 E2.45497
G1 X160.699 Y153.22 E2.46018
G1 X160.454 Y153.564 E2.46861
G1 X160.338 Y153.72 E2.47248
G1 X160.011 Y154.135 E2.48303
G1 X159.83 Y154.349 E2.48862
G1 X159.363 Y154.863 E2.50248
G1 X159.249 Y154.983 E2.50578
G1 X159.097 Y155.137 E2.5101
G1 X158.974 Y155.256 E2.51352
G1 X158.675 Y155.534 E2.52166
G1 X158.528 Y155.664 E2.52558
G1 X158.274 Y155.878 E2.53221
G1 X158.164 Y155.967 E2.53503
G1 X157.808 Y156.246 E2.54406
G1 X157.646 Y156.367 E2.54809
G1 X157.283 Y156.623 E2.55696
G1 X157.09 Y156.751 E2.56158
G1 X156.622 Y157.042 E2.57258
G1 X156.397 Y157.172 E2.57776
G1 X155.883 Y157.447 E2.5894
G1 X155.76 Y157.51 E2.59215
G1 X155.528 Y157.624 E2.59731
G1 X155.336 Y157.712 E2.60153
G1 X155.081 Y157.821 E2.60706
G1 X154.981 Y157.862 E2.60922
G1 X154.544 Y158.035 E2.6186
G1 X154.3 Y158.123 E2.62377
G1 X153.736 Y158.305 E2.6356
G1 X153.56 Y158.357 E2.63926
G1 X153.219 Y158.45 E2.64632
G1 X153.073 Y158.487 E2.64932
G1 X152.858 Y158.537 E2.65373
G1 X152.725 Y158.566 E2.65644
G1 X152.324 Y158.645 E2.6646
G1 X152.111 Y158.681 E2.66891
G1 X151.581 Y158.756 E2.67959
G1 X151.379 Y158.779 E2.68365
G1 X151.001 Y158.813 E2.69122
G1 X150.756 Y158.827 E2.69612
G1 X150.048 Y158.847 E2.71026
G1 X149.784 Y158.846 E2.71552
G1 X148.856 Y158.811 E2.73406
G1 X148.764 Y158.807 E2.73589
G1 X136.007 Y158.031 E2.99094
G1 X135.95 Y158.027 E2.99209
G1 X135.273 Y157.976 E3.00563
G1 X134.94 Y157.937 E3.01232
G1 X134.684 Y157.896 E3.0175
G1 X134.056 Y157.742 E3.0304
G1 X133.77 Y157.647 E3.03642
G1 X133.247 Y157.431 E3.04771
G1 X132.869 Y157.216 E3.05639
G1 X132.648 Y157.074 E3.06163
G1 X132.195 Y156.736 E3.07291
G1 X131.794 Y156.337 E3.0842
G1 X131.563 Y156.045 E3.09163
G1 X131.44 Y155.874 E3.09583
G1 X131.386 Y155.797 E3.09771
G1 X131.295 Y155.664 E3.10092
G1 X131.009 Y155.176 E3.11221
G1 X130.727 Y154.419 E3.12833
G1 X130.624 Y154.026 E3.13644
G1 X130.519 Y153.47 E3.14773
G1 X130.494 Y153.094 E3.15525
G1 X130.477 Y152.266 E3.17178
G1 X130.476 Y152.195 E3.1732
G1 X130.475 Y151.834 E3.1804
G1 X130.475 Y151.822 E3.18064
G1 X130.476 Y147.77 E3.2615
G1 X130.476 Y147.712 E3.26266
G1 X130.486 Y147.033 E3.27621
G1 X130.541 Y146.433 E3.28823
G1 X130.605 Y146.05 E3.29598
G1 X130.737 Y145.5 E3.30727
G1 X131.019 Y144.829 E3.3218
G1 X131.158 Y144.568 E3.3277
G1 X131.459 Y144.089 E3.33899
G1 X131.988 Y143.497 E3.35483
G0 F3600 X132.258 Y143.793
G1 F1200 X132.577 Y143.501 E3.36346
G1 X132.999 Y143.169 E3.37418
G1 X133.465 Y142.904 E3.38487
G1 X133.859 Y142.744 E3.39336
G1 X134.251 Y142.612 E3.40161
G1 X134.771 Y142.479 E3.41233
G1 X135.077 Y142.439 E3.41848
G1 X135.399 Y142.41 E3.42494
G1 X135.504 Y142.402 E3.42704
G1 X148.822 Y141.595 E3.6933
G1 X148.876 Y141.592 E3.69438
G1 X149.512 Y141.563 E3.70708
G1 X149.611 Y141.56 E3.70906
G1 X150.057 Y141.552 E3.71796
G1 X150.266 Y141.554 E3.72213
G1 X150.816 Y141.576 E3.73312
G1 X151.03 Y141.591 E3.7374
G1 X151.5 Y141.638 E3.74683
G1 X151.63 Y141.653 E3.74944
G1 X151.893 Y141.689 E3.75473
G1 X152.044 Y141.713 E3.75779
G1 X152.46 Y141.788 E3.76622
G1 X152.597 Y141.816 E3.76901
G1 X152.887 Y141.88 E3.77494
G1 X153.007 Y141.908 E3.7774
G1 X153.225 Y141.964 E3.78189
G1 X153.303 Y141.985 E3.7835
G1 X153.552 Y142.055 E3.78866
G1 X153.638 Y142.08 E3.79045
G1 X153.888 Y142.157 E3.79567
G1 X154.021 Y142.201 E3.79847
G1 X154.246 Y142.28 E3.80322
G1 X154.389 Y142.334 E3.80628
G1 X154.932 Y142.551 E3.81794
G1 X155.074 Y142.611 E3.82102
G1 X155.345 Y142.733 E3.82695
G1 X155.477 Y142.796 E3.82987
G1 X155.769 Y142.942 E3.83639
G1 X155.891 Y143.006 E3.83914
G1 X156.219 Y143.186 E3.8466
G1 X156.316 Y143.241 E3.84883
G1 X156.511 Y143.356 E3.85334
G1 X156.638 Y143.435 E3.85633
G1 X157.012 Y143.677 E3.86522
G1 X157.139 Y143.763 E3.86828
G1 X157.411 Y143.956 E3.87494
G1 X157.496 Y144.018 E3.87704
G1 X157.663 Y144.144 E3.88121
G1 X157.739 Y144.203 E3.88313
G1 X157.966 Y144.384 E3.88892
G1 X158.12 Y144.514 E3.89295
G1 X158.568 Y144.914 E3.90493
G1 X158.654 Y144.993 E3.90726
G1 X158.847 Y145.177 E3.91258
G1 X158.987 Y145.318 E3.91655
G1 X159.188 Y145.532 E3.92241
G1 X159.258 Y145.609 E3.92448
G1 X159.532 Y145.918 E3.93273
G1 X159.641 Y146.047 E3.9361
G1 X159.948 Y146.428 E3.94586
G1 X160.037 Y146.543 E3.94876
G1 X160.169 Y146.721 E3.95318
G1 X160.257 Y146.845 E3.95622
G1 X160.539 Y147.261 E3.96625
G1 X160.664 Y147.459 E3.97092
G1 X160.779 Y147.655 E3.97546
G1 X160.832 Y147.748 E3.97759
G1 X160.959 Y147.98 E3.98287
G1 X161.181 Y148.469 E3.99359
G1 X161.327 Y148.984 E4.00427
G1 X161.385 Y149.374 E4.01214
G1 X161.427 Y149.823 E4.02114
G1 X161.437 Y150.359 E4.03184
G1 X161.368 Y150.891 E4.04254
G1 X161.129 Y151.627 E4.05798
G1 X160.981 Y151.958 E4.06522
G1 X160.757 Y152.382 E4.07479
G1 X160.503 Y152.793 E4.08443
G1 X160.373 Y152.988 E4.08911
G1 X160.128 Y153.332 E4.09754
G1 X160.024 Y153.472 E4.10102
G1 X159.697 Y153.887 E4.11156
G1 X159.533 Y154.08 E4.11661
G1 X159.066 Y154.594 E4.13047
G1 X158.964 Y154.702 E4.13344
G1 X158.812 Y154.856 E4.13776
G1 X158.701 Y154.963 E4.14083
G1 X158.402 Y155.241 E4.14898
G1 X158.271 Y155.358 E4.15249
G1 X158.017 Y155.572 E4.15911
G1 X157.918 Y155.653 E4.16167
G1 X157.562 Y155.932 E4.17069
G1 X157.416 Y156.04 E4.17432
G1 X157.053 Y156.296 E4.18318
G1 X156.879 Y156.411 E4.18734
G1 X156.411 Y156.702 E4.19834
G1 X156.208 Y156.819 E4.20302
G1 X155.694 Y157.094 E4.21465
G1 X155.584 Y157.151 E4.21712
G1 X155.352 Y157.265 E4.22228
G1 X155.179 Y157.344 E4.22608
G1 X154.924 Y157.453 E4.23161
G1 X154.834 Y157.49 E4.23355
G1 X154.397 Y157.663 E4.24293
G1 X154.178 Y157.742 E4.24758
G1 X153.614 Y157.924 E4.2594
G1 X153.455 Y157.971 E4.26271
G1 X153.114 Y158.064 E4.26977
G1 X152.982 Y158.097 E4.27248
G1 X152.767 Y158.147 E4.27689
G1 X152.648 Y158.173 E4.27932
G1 X152.247 Y158.252 E4.28747
G1 X152.055 Y158.284 E4.29136
G1 X151.525 Y158.359 E4.30204
G1 X151.344 Y158.381 E4.30568
G1 X150.966 Y158.415 E4.31325
G1 X150.745 Y158.428 E4.31767
G1 X150.037 Y158.448 E4.33181
G1 X149.799 Y158.446 E4.33655
G1 X148.871 Y158.411 E4.35509
G1 X148.788 Y158.407 E4.35675
G1 X136.031 Y157.631 E4.6118
G1 X135.98 Y157.628 E4.61282
G1 X135.303 Y157.577 E4.62636
G1 X135.004 Y157.542 E4.63237
G1 X134.748 Y157.501 E4.63755
G1 X134.182 Y157.362 E4.64918
G1 X133.896 Y157.267 E4.65519
G1 X133.401 Y157.061 E4.66589
G1 X133.085 Y156.88 E4.67316
G1 X132.864 Y156.738 E4.6784
G1 X132.436 Y156.415 E4.6891
G1 X132.06 Y156.032 E4.69981
G1 X131.888 Y155.811 E4.7054
G1 X131.765 Y155.64 E4.7096
G1 X131.716 Y155.571 E4.71129
G1 X131.625 Y155.438 E4.71451
G1 X131.356 Y154.974 E4.72521
G1 X131.114 Y154.318 E4.73916
G1 X131.011 Y153.925 E4.74727
G1 X130.914 Y153.397 E4.75798
G1 X130.894 Y153.086 E4.7642
G1 X130.877 Y152.258 E4.78073
G1 X130.876 Y152.194 E4.78201
G1 X130.875 Y151.833 E4.78921
G1 X130.875 Y151.822 E4.78943
G1 X130.876 Y147.77 E4.87029
G1 X130.876 Y147.718 E4.87133
G1 X130.886 Y147.039 E4.88488
G1 X130.935 Y146.499 E4.8957
G1 X130.999 Y146.116 E4.90345
G1 X131.127 Y145.595 E4.91416
G1 X131.373 Y145.017 E4.9267
G1 X131.512 Y144.756 E4.9326
G1 X131.798 Y144.303 E4.94329
G1 X132.258 Y143.793 E4.95699
G0 F3600 X132.528 Y144.088
G1 F1200 X132.847 Y143.796 E4.96562
G1 X133.246 Y143.485 E4.97572
G1 X133.689 Y143.241 E4.98581
G1 X133.987 Y143.123 E4.99221
G1 X134.379 Y142.991 E5.00046
G1 X135.113 Y142.837 E5.01543
G1 X135.435 Y142.808 E5.02188
G1 X135.528 Y142.801 E5.02374
G1 X148.846 Y141.994 E5.29001
G1 X148.894 Y141.991 E5.29096
G1 X149.53 Y141.962 E5.30367
G1 X149.619 Y141.96 E5.30545
G1 X150.065 Y141.952 E5.31435
