;FLAVOR:Marlin
;TIME:1028
;Filament used: 1.03173m
;Layer height: 0.2
;MINX:136
;MINY:136
;MINZ:0.2
;MAXX:164
;MAXY:164
;MAXZ:20
;Generated with Cura_SteamEngine 4.4.1
M140 S60
M105
M190 S60
M104 S200
M105
M109 S200
M82 ;absolute extrusion mode
; -- START GCODE --
G21                     ;set units to millimetres
G90                     ;set to absolute positioning
M106 S0                 ;set fan speed to zero (turned off)
G28                     ;home all axis
M420 S1                 ;turn on mesh bed levelling if enabled in firmware
G92 E0                  ;zero the extruded length
G1 Z1 F1000             ;move up slightly
G1 X60.0 Z0 E9.0 F1000.0;intro line
G1 X100.0 E21.5 F1000.0 ;continue line
G92 E0                  ;zero the extruded length again
; -- end of START GCODE --
G92 E0
G92 E0
G1 F2700 E-8
;LAYER_COUNT:100
;LAYER:0
M107
G0 F3600 X137.004 Y137.369 Z0.2
;TYPE:SKIRT
G1 F2700 E0
G1 F1200 X137.406 Y136.972 E0.01879
G1 X137.86 Y136.635 E0.0376
G1 X138.357 Y136.366 E0.05639
G1 X138.887 Y136.169 E0.0752
G1 X139.44 Y136.05 E0.09401
G1 X139.897 Y136.011 E0.10927
G1 X140.218 Y136.002 E0.11995
G1 X140.33 Y136 E0.12368
G1 X159.35 Y136 E0.75628
G1 X160.048 Y136.01 E0.7795
G1 X160.612 Y136.058 E0.79833
G1 X161.162 Y136.185 E0.8171
G1 X161.69 Y136.389 E0.83593
G1 X162.184 Y136.664 E0.85473
G1 X162.633 Y137.007 E0.87353
G1 X163.03 Y137.409 E0.89232
G1 X163.367 Y137.864 E0.91115
G1 X163.635 Y138.361 E0.92993
G1 X163.831 Y138.891 E0.94872
G1 X163.951 Y139.444 E0.96755
G1 X163.989 Y139.898 E0.9827
G1 X163.998 Y140.218 E0.99335
G1 X164 Y140.33 E0.99707
G1 X164 Y159.314 E1.62848
G1 X163.991 Y160.041 E1.65266
G1 X163.944 Y160.604 E1.67145
G1 X163.818 Y161.155 E1.69025
G1 X163.616 Y161.683 E1.70906
G1 X163.341 Y162.177 E1.72786
G1 X162.999 Y162.627 E1.74666
G1 X162.597 Y163.025 E1.76548
G1 X162.144 Y163.362 E1.78425
G1 X161.647 Y163.632 E1.80307
G1 X161.117 Y163.829 E1.82187
G1 X160.565 Y163.95 E1.84067
G1 X160.103 Y163.989 E1.85609
G1 X159.782 Y163.998 E1.86677
G1 X159.67 Y164 E1.8705
G1 X140.655 Y164 E2.50294
G1 X139.957 Y163.991 E2.52615
G1 X139.394 Y163.943 E2.54495
G1 X138.843 Y163.817 E2.56375
G1 X138.315 Y163.615 E2.58255
G1 X137.821 Y163.34 E2.60135
G1 X137.371 Y162.998 E2.62015
G1 X136.973 Y162.596 E2.63897
G1 X136.637 Y162.142 E2.65775
G1 X136.367 Y161.645 E2.67657
G1 X136.17 Y161.115 E2.69537
G1 X136.05 Y160.563 E2.71416
G1 X136.01 Y160.099 E2.72965
G1 X136.001 Y159.766 E2.74073
G1 X136 Y159.658 E2.74432
G1 X136 Y140.62 E3.37753
G1 X136.009 Y139.955 E3.39965
G1 X136.057 Y139.392 E3.41844
G1 X136.183 Y138.841 E3.43724
G1 X136.386 Y138.313 E3.45606
G1 X136.662 Y137.819 E3.47488
G1 X137.004 Y137.369 E3.49368
G0 F3600 X137.397 Y137.531
G1 F1200 X137.794 Y137.171 E3.5115
G1 X138.241 Y136.873 E3.52937
G1 X138.726 Y136.645 E3.54719
G1 X139.24 Y136.492 E3.56503
G1 X139.908 Y136.41 E3.58742
G1 X140.229 Y136.401 E3.5981
G1 X140.33 Y136.4 E3.60146
G1 X159.345 Y136.4 E4.2339
G1 X160.043 Y136.41 E4.25712
G1 X160.577 Y136.458 E4.27495
G1 X161.098 Y136.584 E4.29278
G1 X161.595 Y136.787 E4.31063
G1 X162.056 Y137.061 E4.32847
G1 X162.471 Y137.4 E4.34629
G1 X162.831 Y137.798 E4.36414
G1 X163.128 Y138.244 E4.38196
G1 X163.356 Y138.73 E4.39982
G1 X163.508 Y139.244 E4.41765
G1 X163.59 Y139.909 E4.43993
G1 X163.599 Y140.229 E4.45058
G1 X163.6 Y140.33 E4.45394
G1 X163.6 Y159.309 E5.08518
G1 X163.591 Y160.036 E5.10936
G1 X163.544 Y160.57 E5.12719
G1 X163.419 Y161.091 E5.14501
G1 X163.217 Y161.588 E5.16286
G1 X162.944 Y162.05 E5.18071
G1 X162.606 Y162.466 E5.19853
G1 X162.209 Y162.827 E5.21638
G1 X161.763 Y163.125 E5.23422
G1 X161.278 Y163.353 E5.25205
G1 X160.764 Y163.507 E5.26989
G1 X160.092 Y163.59 E5.29241
G1 X159.771 Y163.599 E5.30309
G1 X159.67 Y163.6 E5.30645
G1 X140.661 Y163.6 E5.9387
G1 X139.963 Y163.591 E5.96191
G1 X139.428 Y163.544 E5.97978
G1 X138.907 Y163.418 E5.9976
G1 X138.41 Y163.216 E6.01545
G1 X137.949 Y162.943 E6.03327
G1 X137.533 Y162.604 E6.05112
G1 X137.172 Y162.208 E6.06894
G1 X136.874 Y161.762 E6.08678
G1 X136.646 Y161.276 E6.10463
G1 X136.493 Y160.762 E6.12247
G1 X136.41 Y160.088 E6.14506
G1 X136.401 Y159.755 E6.15614
G1 X136.4 Y159.658 E6.15936
G1 X136.4 Y140.625 E6.7924
G1 X136.409 Y139.96 E6.81452
G1 X136.457 Y139.426 E6.83236
G1 X136.583 Y138.905 E6.85018
G1 X136.785 Y138.408 E6.86803
G1 X137.058 Y137.947 E6.88585
G1 X137.397 Y137.531 E6.9037
G0 F3600 X137.454 Y138.082
G1 F1200 X137.789 Y137.704 E6.92049
G1 X138.18 Y137.383 E6.93732
G1 X138.617 Y137.128 E6.95415
G1 X139.088 Y136.944 E6.97097
G1 X139.582 Y136.838 E6.98777
G1 X139.919 Y136.81 E6.99902
G1 X140.24 Y136.801 E7.0097
G1 X140.33 Y136.8 E7.01269
G1 X159.339 Y136.8 E7.64494
G1 X160.037 Y136.81 E7.66815
G1 X160.54 Y136.857 E7.68496
G1 X161.03 Y136.983 E7.70178
G1 X161.494 Y137.185 E7.71862
G1 X161.92 Y137.457 E7.73543
G1 X162.298 Y137.792 E7.75223
G1 X162.618 Y138.183 E7.76903
G1 X162.873 Y138.62 E7.78586
G1 X163.056 Y139.091 E7.80266
G1 X163.163 Y139.585 E7.81948
G1 X163.19 Y139.92 E7.83065
G1 X163.199 Y140.24 E7.8413
G1 X163.2 Y140.33 E7.8443
G1 X163.2 Y159.304 E8.47537
G1 X163.191 Y160.031 E8.49956
G1 X163.145 Y160.534 E8.51635
G1 X163.02 Y161.024 E8.53317
G1 X162.819 Y161.488 E8.54999
G1 X162.548 Y161.915 E8.56681
G1 X162.213 Y162.294 E8.58364
G1 X161.823 Y162.615 E8.60044
G1 X161.387 Y162.871 E8.61725
G1 X160.916 Y163.054 E8.63406
G1 X160.422 Y163.162 E8.65088
G1 X160.081 Y163.19 E8.66226
G1 X159.76 Y163.199 E8.67294
G1 X159.67 Y163.2 E8.67593
G1 X140.666 Y163.2 E9.30801
G1 X139.968 Y163.191 E9.33123
G1 X139.464 Y163.144 E9.34806
G1 X138.974 Y163.019 E9.36488
G1 X138.51 Y162.818 E9.3817
G1 X138.084 Y162.547 E9.39849
G1 X137.705 Y162.212 E9.41532
G1 X137.384 Y161.821 E9.43214
G1 X137.129 Y161.385 E9.44894
G1 X136.945 Y160.914 E9.46576
G1 X136.838 Y160.42 E9.48257
G1 X136.81 Y160.077 E9.49402
G1 X136.801 Y159.744 E9.5051
G1 X136.8 Y159.658 E9.50796
G1 X136.8 Y140.631 E10.1408
G1 X136.809 Y139.966 E10.16292
G1 X136.856 Y139.462 E10.17976
G1 X136.982 Y138.973 E10.19655
G1 X137.183 Y138.509 E10.21337
G1 X137.454 Y138.082 E10.23019
G1 F2700 E2.23019
;MESH:20mmTestCube_repaired.stl
G0 F3600 X139.335 Y140.614
G0 X140.614 Y140.614
G0 X140.67 Y159.33
G0 X140.6 Y159.4
;TYPE:WALL-INNER
G1 F2700 E10.23019
G1 F1200 X140.6 Y140.6 E10.85548
G1 X159.4 Y140.6 E11.48077
G1 X159.4 Y159.4 E12.10606
G1 X140.6 Y159.4 E12.73135
G0 F3600 X140.2 Y159.8
;TYPE:WALL-OUTER
G1 F1200 X140.2 Y140.2 E13.38325
G1 X159.8 Y140.2 E14.03515
G1 X159.8 Y159.8 E14.68705
G1 X140.2 Y159.8 E15.33895
G0 F3600 X140.2 Y159.6
G0 X140.99 Y159.01
;TYPE:SKIN
G1 F1200 X140.99 Y140.99 E15.93829
G1 X159.01 Y140.99 E16.53764
G1 X159.01 Y159.01 E17.13699
G1 X140.99 Y159.01 E17.73634
G0 F3600 X141.293 Y158.829
G1 F1200 X141.169 Y158.705 E17.74217
G0 F3600 X141.169 Y158.14
G1 F1200 X141.859 Y158.829 E17.7746
G0 F3600 X142.424 Y158.829
G1 F1200 X141.169 Y157.574 E17.83363
G0 F3600 X141.169 Y157.008
G1 F1200 X142.99 Y158.829 E17.91929
G0 F3600 X143.556 Y158.829
G1 F1200 X141.169 Y156.443 E18.03154
G0 F3600 X141.169 Y155.877
G1 F1200 X144.121 Y158.829 E18.17039
G0 F3600 X144.687 Y158.829
G1 F1200 X141.169 Y155.311 E18.33587
G0 F3600 X141.169 Y154.746
G1 F1200 X145.253 Y158.829 E18.52795
G0 F3600 X145.818 Y158.829
G1 F1200 X141.169 Y154.18 E18.74662
G0 F3600 X141.169 Y153.614
G1 F1200 X146.384 Y158.829 E18.99192
G0 F3600 X146.95 Y158.829
G1 F1200 X141.169 Y153.049 E19.26381
G0 F3600 X141.169 Y152.483
G1 F1200 X147.515 Y158.829 E19.56231
G0 F3600 X148.081 Y158.829
G1 F1200 X141.169 Y151.917 E19.88743
G0 F3600 X141.169 Y151.351
G1 F1200 X148.647 Y158.829 E20.23917
G0 F3600 X149.212 Y158.829
G1 F1200 X141.169 Y150.786 E20.61749
G0 F3600 X141.169 Y150.22
G1 F1200 X149.778 Y158.829 E21.02243
G0 F3600 X150.344 Y158.829
G1 F1200 X141.169 Y149.654 E21.454
G0 F3600 X141.169 Y149.089
G1 F1200 X150.91 Y158.829 E21.91216
G0 F3600 X151.475 Y158.829
G1 F1200 X141.169 Y148.523 E22.39692
G0 F3600 X141.169 Y147.957
G1 F1200 X152.041 Y158.829 E22.90831
G0 F3600 X152.607 Y158.829
G1 F1200 X141.169 Y147.392 E23.44629
G0 F3600 X141.169 Y146.826
G1 F1200 X153.172 Y158.829 E24.01088
G0 F3600 X153.738 Y158.829
G1 F1200 X141.169 Y146.26 E24.60208
G0 F3600 X141.169 Y145.695
G1 F1200 X154.304 Y158.829 E25.21989
G0 F3600 X154.869 Y158.829
G1 F1200 X141.169 Y145.129 E25.8643
G0 F3600 X141.169 Y144.563
G1 F1200 X155.435 Y158.829 E26.53532
G0 F3600 X156.001 Y158.829
G1 F1200 X141.169 Y143.998 E27.23295
G0 F3600 X141.169 Y143.432
G1 F1200 X156.566 Y158.829 E27.95718
G0 F3600 X157.132 Y158.829
G1 F1200 X141.169 Y142.866 E28.70803
G0 F3600 X141.169 Y142.3
G1 F1200 X157.698 Y158.829 E29.48551
G0 F3600 X158.263 Y158.829
G1 F1200 X141.169 Y141.735 E30.28955
G0 F3600 X141.169 Y141.169
G1 F1200 X158.829 Y158.829 E31.12023
G0 F3600 X158.829 Y158.263
G1 F1200 X141.736 Y141.17 E31.92423
G0 F3600 X142.301 Y141.17
G1 F1200 X158.829 Y157.698 E32.70166
G0 F3600 X158.829 Y157.132
G1 F1200 X142.867 Y141.17 E33.45246
G0 F3600 X143.433 Y141.17
G1 F1200 X158.829 Y156.566 E34.17664
G0 F3600 X158.829 Y156.001
G1 F1200 X143.998 Y141.17 E34.87424
G0 F3600 X144.564 Y141.17
G1 F1200 X158.829 Y155.435 E35.54523
G0 F3600 X158.829 Y154.869
G1 F1200 X145.13 Y141.17 E36.18959
G0 F3600 X145.695 Y141.17
G1 F1200 X158.829 Y154.304 E36.80737
G0 F3600 X158.829 Y153.738
G1 F1200 X146.261 Y141.17 E37.39853
G0 F3600 X146.827 Y141.17
G1 F1200 X158.829 Y153.172 E37.96307
G0 F3600 X158.829 Y152.607
G1 F1200 X147.392 Y141.17 E38.50103
G0 F3600 X147.958 Y141.17
G1 F1200 X158.829 Y152.041 E39.01237
G0 F3600 X158.829 Y151.475
G1 F1200 X148.524 Y141.17 E39.49708
G0 F3600 X149.089 Y141.17
G1 F1200 X158.829 Y150.91 E39.95522
G0 F3600 X158.829 Y150.344
G1 F1200 X149.655 Y141.17 E40.38674
G0 F3600 X150.221 Y141.17
G1 F1200 X158.829 Y149.778 E40.79163
G0 F3600 X158.829 Y149.212
G1 F1200 X150.786 Y141.17 E41.16993
G0 F3600 X151.352 Y141.17
G1 F1200 X158.829 Y148.647 E41.52162
G0 F3600 X158.829 Y148.081
G1 F1200 X151.918 Y141.17 E41.84669
G0 F3600 X152.484 Y141.17
G1 F1200 X158.829 Y147.515 E42.14514
G0 F3600 X158.829 Y146.95
G1 F1200 X153.049 Y141.17 E42.41702
G0 F3600 X153.615 Y141.17
G1 F1200 X158.829 Y146.384 E42.66227
G0 F3600 X158.829 Y145.818
G1 F1200 X154.181 Y141.17 E42.88089
G0 F3600 X154.746 Y141.17
G1 F1200 X158.829 Y145.253 E43.07295
G0 F3600 X158.829 Y144.687
G1 F1200 X155.312 Y141.17 E43.23838
G0 F3600 X155.878 Y141.17
G1 F1200 X158.829 Y144.121 E43.37718
G0 F3600 X158.829 Y143.556
G1 F1200 X156.443 Y141.17 E43.48941
G0 F3600 X157.009 Y141.17
G1 F1200 X158.829 Y142.99 E43.57502
G0 F3600 X158.829 Y142.424
G1 F1200 X157.575 Y141.17 E43.634
G0 F3600 X158.14 Y141.17
G1 F1200 X158.829 Y141.859 E43.66641
G0 F3600 X158.829 Y141.293
G1 F1200 X158.706 Y141.17 E43.6722
;MESH:NONMESH
G0 F600 X158.706 Y141.17 Z0.4
G0 F3600 X140.67 Y159.33
G0 X140.6 Y159.4
;TIME_ELAPSED:73.095291
;LAYER:1
M140 S60
M106 S255
;TYPE:WALL-INNER
;MESH:20mmTestCube_repaired.stl
G1 F2220 X140.6 Y140.6 E44.29749
G1 X159.4 Y140.6 E44.92278
G1 X159.4 Y159.4 E45.54807
G1 X140.6 Y159.4 E46.17336
G0 F5400 X140.2 Y159.8
;TYPE:WALL-OUTER
G1 F1410 X140.2 Y140.2 E46.82526
G1 X159.8 Y140.2 E47.47716
G1 X159.8 Y159.8 E48.12906
G1 X140.2 Y159.8 E48.78095
G0 F5400 X140.2 Y159.6
G0 X140.99 Y159.01
;TYPE:SKIN
G1 F1200 X140.99 Y140.99 E49.3803
G1 X159.01 Y140.99 E49.97965
G1 X159.01 Y159.01 E50.579
G1 X140.99 Y159.01 E51.17834
G0 F5400 X141.17 Y141.672
G1 F1200 X141.673 Y141.169 E51.202
G0 F5400 X142.238 Y141.169
G1 F1200 X141.17 Y142.238 E51.25226
G0 F5400 X141.17 Y142.803
G1 F1200 X142.804 Y141.169 E51.32912
G0 F5400 X143.37 Y141.169
G1 F1200 X141.17 Y143.369 E51.4326
G0 F5400 X141.17 Y143.935
G1 F1200 X143.935 Y141.169 E51.56268
G0 F5400 X144.501 Y141.169
G1 F1200 X141.17 Y144.5 E51.71936
G0 F5400 X141.17 Y145.066
G1 F1200 X145.067 Y141.169 E51.90267
G0 F5400 X145.632 Y141.169
G1 F1200 X141.17 Y145.632 E52.11257
G0 F5400 X141.17 Y146.197
G1 F1200 X146.198 Y141.169 E52.34907
G0 F5400 X146.764 Y141.169
G1 F1200 X141.17 Y146.763 E52.61219
G0 F5400 X141.17 Y147.329
G1 F1200 X147.329 Y141.169 E52.90192
G0 F5400 X147.895 Y141.169
G1 F1200 X141.17 Y147.894 E53.21824
G0 F5400 X141.17 Y148.46
G1 F1200 X148.461 Y141.169 E53.56119
G0 F5400 X149.026 Y141.169
G1 F1200 X141.17 Y149.026 E53.93073
G0 F5400 X141.17 Y149.591
G1 F1200 X149.592 Y141.169 E54.32688
G0 F5400 X150.158 Y141.169
G1 F1200 X141.17 Y150.157 E54.74965
G0 F5400 X141.17 Y150.723
G1 F1200 X150.724 Y141.169 E55.19904
G0 F5400 X151.289 Y141.169
G1 F1200 X141.17 Y151.289 E55.67503
G0 F5400 X141.17 Y151.854
G1 F1200 X151.855 Y141.169 E56.17762
G0 F5400 X152.421 Y141.169
G1 F1200 X141.17 Y152.42 E56.70683
G0 F5400 X141.17 Y152.986
G1 F1200 X152.986 Y141.169 E57.26264
G0 F5400 X153.552 Y141.169
G1 F1200 X141.17 Y153.551 E57.84505
G0 F5400 X141.17 Y154.117
G1 F1200 X154.118 Y141.169 E58.45409
G0 F5400 X154.683 Y141.169
G1 F1200 X141.17 Y154.683 E59.08972
G0 F5400 X141.17 Y155.248
G1 F1200 X155.249 Y141.169 E59.75195
G0 F5400 X155.815 Y141.169
G1 F1200 X141.17 Y155.814 E60.44081
G0 F5400 X141.17 Y156.38
G1 F1200 X156.38 Y141.169 E61.15627
G0 F5400 X156.946 Y141.169
G1 F1200 X141.17 Y156.945 E61.89832
G0 F5400 X141.17 Y157.511
G1 F1200 X157.512 Y141.169 E62.667
G0 F5400 X158.077 Y141.169
G1 F1200 X141.17 Y158.077 E63.46227
G0 F5400 X141.17 Y158.642
G1 F1200 X158.643 Y141.169 E64.28415
G0 F5400 X158.829 Y141.549
G1 F1200 X141.549 Y158.829 E65.09695
G0 F5400 X142.115 Y158.829
G1 F1200 X158.829 Y142.115 E65.88312
G0 F5400 X158.829 Y142.68
G1 F1200 X142.68 Y158.829 E66.64272
G0 F5400 X143.246 Y158.829
G1 F1200 X158.829 Y143.246 E67.3757
G0 F5400 X158.829 Y143.812
G1 F1200 X143.812 Y158.829 E68.08205
G0 F5400 X144.377 Y158.829
G1 F1200 X158.829 Y144.377 E68.76183
G0 F5400 X158.829 Y144.943
G1 F1200 X144.943 Y158.829 E69.41499
G0 F5400 X145.509 Y158.829
G1 F1200 X158.829 Y145.509 E70.04152
G0 F5400 X158.829 Y146.074
G1 F1200 X146.074 Y158.829 E70.64148
G0 F5400 X146.64 Y158.829
G1 F1200 X158.829 Y146.64 E71.21481
G0 F5400 X158.829 Y147.206
G1 F1200 X147.206 Y158.829 E71.76152
G0 F5400 X147.771 Y158.829
G1 F1200 X158.829 Y147.771 E72.28165
G0 F5400 X158.829 Y148.337
G1 F1200 X148.337 Y158.829 E72.77516
G0 F5400 X148.903 Y158.829
G1 F1200 X158.829 Y148.903 E73.24205
G0 F5400 X158.829 Y149.468
G1 F1200 X149.468 Y158.829 E73.68237
G0 F5400 X150.034 Y158.829
G1 F1200 X158.829 Y150.034 E74.09606
G0 F5400 X158.829 Y150.6
G1 F1200 X150.6 Y158.829 E74.48312
G0 F5400 X151.165 Y158.829
G1 F1200 X158.829 Y151.165 E74.84361
G0 F5400 X158.829 Y151.731
G1 F1200 X151.731 Y158.829 E75.17748
G0 F5400 X152.297 Y158.829
G1 F1200 X158.829 Y152.297 E75.48473
G0 F5400 X158.829 Y152.863
G1 F1200 X152.863 Y158.829 E75.76535
G0 F5400 X153.428 Y158.829
G1 F1200 X158.829 Y153.428 E76.0194
G0 F5400 X158.829 Y153.994
G1 F1200 X153.994 Y158.829 E76.24682
G0 F5400 X154.56 Y158.829
G1 F1200 X158.829 Y154.56 E76.44762
G0 F5400 X158.829 Y155.125
G1 F1200 X155.125 Y158.829 E76.62185
G0 F5400 X155.691 Y158.829
G1 F1200 X158.829 Y155.691 E76.76945
G0 F5400 X158.829 Y156.257
G1 F1200 X156.257 Y158.829 E76.89043
G0 F5400 X156.822 Y158.829
G1 F1200 X158.829 Y156.822 E76.98483
G0 F5400 X158.829 Y157.388
G1 F1200 X157.388 Y158.829 E77.05261
G0 F5400 X157.954 Y158.829
G1 F1200 X158.829 Y157.954 E77.09377
G0 F5400 X158.829 Y158.519
G1 F1200 X158.519 Y158.829 E77.10835
;MESH:NONMESH
G0 F600 X158.519 Y158.829 Z0.6
G0 F5400 X140.67 Y159.33
G0 X140.6 Y159.4
;TIME_ELAPSED:122.865003
;LAYER:2
;TYPE:WALL-INNER
;MESH:20mmTestCube_repaired.stl
G1 F3240 X140.6 Y140.6 E77.73364
G1 X159.4 Y140.6 E78.35893
G1 X159.4 Y159.4 E78.98422
G1 X140.6 Y159.4 E79.60951
G0 F7200 X140.2 Y159.8
;TYPE:WALL-OUTER
