;FLAVOR:Marlin
;TIME:1028
;Filament used: 1.03173m
;Layer height: 0.2
;MINX:136
;MINY:136
;MINZ:0.2
;MAXX:164
;MAXY:164
;MAXZ:20
;Generated with Cura_SteamEngine 4.4.1
M140 S60
M105
M190 S60
M104 S200
M105
M109 S200
M82 ;absolute extrusion mode
; -- START GCODE --
G21                     ;set units to millimetres
G90                     ;set to absolute positioning
M106 S0                 ;set fan speed to zero (turned off)
G28                     ;home all axis
M420 S1                 ;turn on mesh bed levelling if enabled in firmware
G92 E0                  ;zero the extruded length

G1 Z1 F1000             ;move up slightly

G1 X60.0 Z0 E9.0 F1000.0;intro line
G1 X100.0 E21.5 F1000.0 ;continue line
G92 E0                  ;zero the extruded length again
; -- end of START GCODE --
G92 E0
G92 E0
G1 F2700 E-8
;LAYER_COUNT:100
;LAYER:0
M107

;TYPE:SKIRT
G1 F2700 E0
G92 E0

G0 X138.887 Y136.169 F5400.0 Z0.2
G1 X138.357 Y136.366 E0.01881 F1200.0
G0 X138.357 Y136.366 F5400.0 Z0.2
G1 X137.86 Y136.635 E0.0376 F1200.0
G0 X137.86 Y136.635 F5400.0 Z0.2
G1 X137.406 Y136.972 E0.05641000000000081 F1200.0
G0 X137.406 Y136.972 F5400.0 Z0.2
G1 X137.004 Y137.369 E-21.4248 F1200.0
G0 X137.004 Y137.369 F5400.0 Z0.2
G1 X136.662 Y137.819 E-21.406000000000002 F1200.0
G0 X136.662 Y137.819 F5400.0 Z0.2
G1 X136.386 Y138.313 E-21.38718 F1200.0
G0 X136.386 Y138.313 F5400.0 Z0.2
G1 X136.183 Y138.841 E-21.368360000000003 F1200.0
G0 X136.183 Y138.841 F5400.0 Z0.2
G1 X136.057 Y139.392 E-21.349560000000004 F1200.0
G0 X136.057 Y139.392 F5400.0 Z0.2
G1 X136.009 Y139.955 E-21.330770000000005 F1200.0
G0 X136.009 Y139.955 F5400.0 Z0.2
G1 X136.0 Y140.62 E-21.308650000000004 F1200.0
G0 X136.0 Y140.62 F5400.0 Z0.2
G1 X136.0 Y159.658 E-20.675440000000002 F1200.0
G0 X136.0 Y159.658 F5400.0 Z0.2
G1 X136.001 Y159.766 E-20.671850000000003 F1200.0
G0 X136.001 Y159.766 F5400.0 Z0.2
G1 X136.01 Y160.099 E-20.660770000000003 F1200.0
G0 X136.01 Y160.099 F5400.0 Z0.2
G1 X136.05 Y160.563 E-20.645280000000003 F1200.0
G0 X136.05 Y160.563 F5400.0 Z0.2
G1 X136.17 Y161.115 E-20.626490000000004 F1200.0
G0 X136.17 Y161.115 F5400.0 Z0.2
G1 X136.367 Y161.645 E-20.607690000000005 F1200.0
G0 X136.367 Y161.645 F5400.0 Z0.2
G1 X136.637 Y162.142 E-20.588870000000007 F1200.0
G0 X136.637 Y162.142 F5400.0 Z0.2
G1 X136.973 Y162.596 E-20.570090000000008 F1200.0
G0 X136.973 Y162.596 F5400.0 Z0.2
G1 X137.371 Y162.998 E-20.55127000000001 F1200.0
G0 X137.371 Y162.998 F5400.0 Z0.2
G1 X137.821 Y163.34 E-20.53247000000001 F1200.0
G0 X137.821 Y163.34 F5400.0 Z0.2
G1 X138.315 Y163.615 E-20.513670000000012 F1200.0
G0 X138.315 Y163.615 F5400.0 Z0.2
G1 X138.843 Y163.817 E-20.494870000000013 F1200.0
G0 X138.843 Y163.817 F5400.0 Z0.2
G1 X139.394 Y163.943 E-20.476070000000014 F1200.0
G0 X139.394 Y163.943 F5400.0 Z0.2
G1 X139.957 Y163.991 E-20.457270000000015 F1200.0
G0 X139.957 Y163.991 F5400.0 Z0.2
G1 X140.655 Y164.0 E-20.434060000000017 F1200.0
G0 X140.655 Y164.0 F5400.0 Z0.2
G1 X159.67 Y164.0 E-19.801620000000018 F1200.0
G0 X159.67 Y164.0 F5400.0 Z0.2
G1 X159.782 Y163.998 E-19.797890000000017 F1200.0
G0 X159.782 Y163.998 F5400.0 Z0.2
G1 X160.103 Y163.989 E-19.787210000000016 F1200.0
G0 X160.103 Y163.989 F5400.0 Z0.2
G1 X160.565 Y163.95 E-19.771790000000017 F1200.0
G0 X160.565 Y163.95 F5400.0 Z0.2
G1 X161.117 Y163.829 E-19.75299000000002 F1200.0
G0 X161.117 Y163.829 F5400.0 Z0.2
G1 X161.647 Y163.632 E-19.73419000000002 F1200.0
G0 X161.647 Y163.632 F5400.0 Z0.2
G1 X162.144 Y163.362 E-19.715370000000018 F1200.0
G0 X162.144 Y163.362 F5400.0 Z0.2
G1 X162.597 Y163.025 E-19.696600000000018 F1200.0
G0 X162.597 Y163.025 F5400.0 Z0.2
G1 X162.999 Y162.627 E-19.67778000000002 F1200.0
G0 X162.999 Y162.627 F5400.0 Z0.2
G1 X163.341 Y162.177 E-19.65898000000002 F1200.0
G0 X163.341 Y162.177 F5400.0 Z0.2
G1 X163.616 Y161.683 E-19.640180000000022 F1200.0
G0 X163.616 Y161.683 F5400.0 Z0.2
G1 X163.818 Y161.155 E-19.621370000000024 F1200.0
G0 X163.818 Y161.155 F5400.0 Z0.2
G1 X163.944 Y160.604 E-19.602570000000025 F1200.0
G0 X163.944 Y160.604 F5400.0 Z0.2
G1 X163.991 Y160.041 E-19.583780000000026 F1200.0
G0 X163.991 Y160.041 F5400.0 Z0.2
G1 X164.0 Y159.314 E-19.559600000000025 F1200.0
G0 X164.0 Y159.314 F5400.0 Z0.2
G1 X164.0 Y140.33 E-18.928190000000026 F1200.0
G0 X164.0 Y140.33 F5400.0 Z0.2
G1 X163.998 Y140.218 E-18.924470000000024 F1200.0
G0 X163.998 Y140.218 F5400.0 Z0.2
G1 X163.989 Y139.898 E-18.913820000000026 F1200.0
G0 X163.989 Y139.898 F5400.0 Z0.2
G1 X163.951 Y139.444 E-18.898670000000028 F1200.0
G0 X163.951 Y139.444 F5400.0 Z0.2
G1 X163.831 Y138.891 E-18.879840000000026 F1200.0
G0 X163.831 Y138.891 F5400.0 Z0.2
G1 X163.635 Y138.361 E-18.861050000000027 F1200.0
G0 X163.635 Y138.361 F5400.0 Z0.2
G1 X163.367 Y137.864 E-18.842270000000028 F1200.0
G0 X163.367 Y137.864 F5400.0 Z0.2
G1 X163.03 Y137.409 E-18.823440000000026 F1200.0
G0 X163.03 Y137.409 F5400.0 Z0.2
G1 X162.633 Y137.007 E-18.804650000000027 F1200.0
G0 X162.633 Y137.007 F5400.0 Z0.2
G1 X162.184 Y136.664 E-18.78585000000003 F1200.0
G0 X162.184 Y136.664 F5400.0 Z0.2
G1 X161.69 Y136.389 E-18.76705000000003 F1200.0
G0 X161.69 Y136.389 F5400.0 Z0.2
G1 X161.162 Y136.185 E-18.74822000000003 F1200.0
G0 X161.162 Y136.185 F5400.0 Z0.2
G1 X160.612 Y136.058 E-18.72945000000003 F1200.0
G0 X160.612 Y136.058 F5400.0 Z0.2
G1 X160.048 Y136.01 E-18.710620000000027 F1200.0
G0 X160.048 Y136.01 F5400.0 Z0.2
G1 X159.35 Y136.0 E-18.68740000000003 F1200.0
G0 X159.35 Y136.0 F5400.0 Z0.2
G1 X140.33 Y136.0 E-18.05480000000003 F1200.0
G0 X140.33 Y136.0 F5400.0 Z0.2
G1 X140.218 Y136.002 E-18.051070000000028 F1200.0
G0 X140.218 Y136.002 F5400.0 Z0.2
G1 X139.897 Y136.011 E-18.040390000000027 F1200.0
G0 X139.897 Y136.011 F5400.0 Z0.2
G1 X139.44 Y136.05 E-18.025130000000026 F1200.0
G0 X139.44 Y136.05 F5400.0 Z0.2
G1 X138.887 Y136.169 E-18.006320000000027 F1200.0
G0 X136.856 Y139.462 F5400.0 Z0.2
G1 X136.809 Y139.966 E-17.98948000000003 F1200.0
G0 X136.809 Y139.966 F5400.0 Z0.2
G1 X136.8 Y140.631 E-17.967360000000028 F1200.0
G0 X136.8 Y140.631 F5400.0 Z0.2
G1 X136.8 Y159.658 E-17.334520000000026 F1200.0
G0 X136.801 Y159.744 F5400.0 Z0.2
G1 X136.8 Y159.658 E-17.331660000000028 F1200.0
G0 X136.801 Y159.744 F5400.0 Z0.2
G1 X136.81 Y160.077 E-17.320580000000028 F1200.0
G0 X136.838 Y160.42 F5400.0 Z0.2
G1 X136.81 Y160.077 E-17.309130000000028 F1200.0
G0 X136.838 Y160.42 F5400.0 Z0.2
G1 X136.945 Y160.914 E-17.292320000000025 F1200.0
G0 X136.945 Y160.914 F5400.0 Z0.2
G1 X137.129 Y161.385 E-17.275500000000026 F1200.0
G0 X137.129 Y161.385 F5400.0 Z0.2
G1 X137.384 Y161.821 E-17.258700000000026 F1200.0
G0 X137.384 Y161.821 F5400.0 Z0.2
G1 X137.705 Y162.212 E-17.241880000000023 F1200.0
G0 X137.705 Y162.212 F5400.0 Z0.2
G1 X138.084 Y162.547 E-17.225050000000024 F1200.0
G0 X138.084 Y162.547 F5400.0 Z0.2
G1 X138.51 Y162.818 E-17.208260000000024 F1200.0
G0 X138.51 Y162.818 F5400.0 Z0.2
G1 X138.974 Y163.019 E-17.19144000000002 F1200.0
G0 X138.974 Y163.019 F5400.0 Z0.2
G1 X139.464 Y163.144 E-17.174620000000022 F1200.0
G0 X139.464 Y163.144 F5400.0 Z0.2
G1 X139.968 Y163.191 E-17.15779000000002 F1200.0
G0 X139.968 Y163.191 F5400.0 Z0.2
G1 X140.666 Y163.2 E-17.134570000000018 F1200.0
G0 X140.666 Y163.2 F5400.0 Z0.2
G1 X159.67 Y163.2 E-16.502490000000016 F1200.0
G0 X159.67 Y163.2 F5400.0 Z0.2
G1 X159.76 Y163.199 E-16.49950000000002 F1200.0
G0 X159.76 Y163.199 F5400.0 Z0.2
G1 X160.081 Y163.19 E-16.48882000000002 F1200.0
G0 X160.081 Y163.19 F5400.0 Z0.2
G1 X160.422 Y163.162 E-16.47744000000002 F1200.0
G0 X160.422 Y163.162 F5400.0 Z0.2
G1 X160.916 Y163.054 E-16.46062000000002 F1200.0
G0 X160.916 Y163.054 F5400.0 Z0.2
G1 X161.387 Y162.871 E-16.44381000000002 F1200.0
G0 X161.387 Y162.871 F5400.0 Z0.2
G1 X161.823 Y162.615 E-16.42700000000002 F1200.0
G0 X161.823 Y162.615 F5400.0 Z0.2
G1 X162.213 Y162.294 E-16.41020000000002 F1200.0
G0 X162.213 Y162.294 F5400.0 Z0.2
G1 X162.548 Y161.915 E-16.39337000000002 F1200.0
G0 X162.548 Y161.915 F5400.0 Z0.2
G1 X162.819 Y161.488 E-16.376550000000016 F1200.0
G0 X162.819 Y161.488 F5400.0 Z0.2
G1 X163.02 Y161.024 E-16.359730000000017 F1200.0
G0 X163.02 Y161.024 F5400.0 Z0.2
G1 X163.145 Y160.534 E-16.342910000000018 F1200.0
G0 X163.145 Y160.534 F5400.0 Z0.2
G1 X163.191 Y160.031 E-16.326120000000017 F1200.0
G0 X163.191 Y160.031 F5400.0 Z0.2
G1 X163.2 Y159.304 E-16.301930000000016 F1200.0
G0 X163.2 Y159.304 F5400.0 Z0.2
G1 X163.2 Y140.33 E-15.670860000000015 F1200.0
G0 X163.199 Y140.24 F5400.0 Z0.2
G1 X163.2 Y140.33 E-15.667860000000015 F1200.0
G0 X163.199 Y140.24 F5400.0 Z0.2
G1 X163.19 Y139.92 E-15.657210000000015 F1200.0
G0 X163.163 Y139.585 F5400.0 Z0.2
G1 X163.19 Y139.92 E-15.646040000000015 F1200.0
G0 X163.163 Y139.585 F5400.0 Z0.2
G1 X163.056 Y139.091 E-15.629220000000014 F1200.0
G0 X163.056 Y139.091 F5400.0 Z0.2
G1 X162.873 Y138.62 E-15.612420000000014 F1200.0
G0 X162.873 Y138.62 F5400.0 Z0.2
G1 X162.618 Y138.183 E-15.595590000000016 F1200.0
G0 X162.618 Y138.183 F5400.0 Z0.2
G1 X162.298 Y137.792 E-15.578790000000016 F1200.0
G0 X162.298 Y137.792 F5400.0 Z0.2
G1 X161.92 Y137.457 E-15.561990000000016 F1200.0
G0 X161.92 Y137.457 F5400.0 Z0.2
G1 X161.494 Y137.185 E-15.545180000000016 F1200.0
G0 X161.494 Y137.185 F5400.0 Z0.2
G1 X161.03 Y136.983 E-15.528340000000018 F1200.0
G0 X161.03 Y136.983 F5400.0 Z0.2
G1 X160.54 Y136.857 E-15.511520000000019 F1200.0
G0 X160.54 Y136.857 F5400.0 Z0.2
G1 X160.037 Y136.81 E-15.494710000000019 F1200.0
G0 X160.037 Y136.81 F5400.0 Z0.2
G1 X159.339 Y136.8 E-15.47150000000002 F1200.0
G0 X159.339 Y136.8 F5400.0 Z0.2
G1 X140.33 Y136.8 E-14.839250000000021 F1200.0
G0 X140.33 Y136.8 F5400.0 Z0.2
G1 X140.24 Y136.801 E-14.83626000000002 F1200.0
G0 X140.24 Y136.801 F5400.0 Z0.2
G1 X139.919 Y136.81 E-14.82558000000002 F1200.0
G0 X140.33 Y136.4 F5400.0 Z0.2
G1 X140.229 Y136.401 E-14.82222000000002 F1200.0
G0 X139.908 Y136.41 F5400.0 Z0.2
G1 X140.229 Y136.401 E-14.811540000000019 F1200.0
G0 X139.908 Y136.41 F5400.0 Z0.2
G1 X139.24 Y136.492 E-14.789150000000019 F1200.0
G0 X139.24 Y136.492 F5400.0 Z0.2
G1 X138.726 Y136.645 E-14.77131000000002 F1200.0
G0 X138.726 Y136.645 F5400.0 Z0.2
G1 X138.241 Y136.873 E-14.753490000000019 F1200.0
G0 X138.241 Y136.873 F5400.0 Z0.2
G1 X137.794 Y137.171 E-14.735620000000019 F1200.0
G0 X137.794 Y137.171 F5400.0 Z0.2
G1 X137.397 Y137.531 E-14.717800000000018 F1200.0
G0 X137.397 Y137.531 F5400.0 Z0.2
G1 X137.058 Y137.947 E-14.699950000000019 F1200.0
G0 X137.058 Y137.947 F5400.0 Z0.2
G1 X136.785 Y138.408 E-14.682130000000019 F1200.0
G0 X136.785 Y138.408 F5400.0 Z0.2
G1 X136.583 Y138.905 E-14.66428000000002 F1200.0
G0 X136.583 Y138.905 F5400.0 Z0.2
G1 X136.457 Y139.426 E-14.646460000000019 F1200.0
G0 X136.457 Y139.426 F5400.0 Z0.2
G1 X136.409 Y139.96 E-14.62862000000002 F1200.0
G0 X136.409 Y139.96 F5400.0 Z0.2
G1 X136.4 Y140.625 E-14.606500000000018 F1200.0
G0 X136.4 Y140.625 F5400.0 Z0.2
G1 X136.4 Y159.658 E-13.973460000000019 F1200.0
G0 X136.4 Y159.658 F5400.0 Z0.2
G1 X136.401 Y159.755 E-13.970240000000018 F1200.0
G0 X136.401 Y159.755 F5400.0 Z0.2
G1 X136.41 Y160.088 E-13.959160000000018 F1200.0
G0 X136.41 Y160.088 F5400.0 Z0.2
G1 X136.493 Y160.762 E-13.936570000000017 F1200.0
G0 X136.493 Y160.762 F5400.0 Z0.2
G1 X136.646 Y161.276 E-13.918730000000018 F1200.0
G0 X136.646 Y161.276 F5400.0 Z0.2
G1 X136.874 Y161.762 E-13.900880000000019 F1200.0
G0 X136.874 Y161.762 F5400.0 Z0.2
G1 X137.172 Y162.208 E-13.883040000000019 F1200.0
G0 X137.172 Y162.208 F5400.0 Z0.2
G1 X137.533 Y162.604 E-13.865220000000019 F1200.0
G0 X137.533 Y162.604 F5400.0 Z0.2
G1 X137.949 Y162.943 E-13.84737000000002 F1200.0
G0 X137.949 Y162.943 F5400.0 Z0.2
G1 X138.41 Y163.216 E-13.829550000000019 F1200.0
G0 X138.41 Y163.216 F5400.0 Z0.2
G1 X138.907 Y163.418 E-13.81170000000002 F1200.0
G0 X138.907 Y163.418 F5400.0 Z0.2
G1 X139.428 Y163.544 E-13.79388000000002 F1200.0
G0 X139.428 Y163.544 F5400.0 Z0.2
G1 X139.963 Y163.591 E-13.776010000000019 F1200.0
G0 X139.963 Y163.591 F5400.0 Z0.2
G1 X140.661 Y163.6 E-13.752800000000018 F1200.0
G0 X140.661 Y163.6 F5400.0 Z0.2
G1 X159.67 Y163.6 E-13.12055000000002 F1200.0
G0 X159.67 Y163.6 F5400.0 Z0.2
G1 X159.771 Y163.599 E-13.117190000000019 F1200.0
G0 X160.092 Y163.59 F5400.0 Z0.2
G1 X159.771 Y163.599 E-13.106510000000018 F1200.0
G0 X160.092 Y163.59 F5400.0 Z0.2
G1 X160.764 Y163.507 E-13.083990000000018 F1200.0
G0 X160.764 Y163.507 F5400.0 Z0.2
G1 X161.278 Y163.353 E-13.066150000000018 F1200.0
G0 X161.278 Y163.353 F5400.0 Z0.2
G1 X161.763 Y163.125 E-13.048320000000018 F1200.0
G0 X161.763 Y163.125 F5400.0 Z0.2
G1 X162.209 Y162.827 E-13.030480000000018 F1200.0
G0 X162.209 Y162.827 F5400.0 Z0.2
G1 X162.606 Y162.466 E-13.01263000000002 F1200.0
G0 X162.606 Y162.466 F5400.0 Z0.2
G1 X162.944 Y162.05 E-12.994810000000019 F1200.0
G0 X162.944 Y162.05 F5400.0 Z0.2
G1 X163.217 Y161.588 E-12.97696000000002 F1200.0
G0 X163.217 Y161.588 F5400.0 Z0.2
G1 X163.419 Y161.091 E-12.95911000000002 F1200.0
G0 X163.419 Y161.091 F5400.0 Z0.2
G1 X163.544 Y160.57 E-12.94129000000002 F1200.0
G0 X163.544 Y160.57 F5400.0 Z0.2
G1 X163.591 Y160.036 E-12.92346000000002 F1200.0
G0 X163.591 Y160.036 F5400.0 Z0.2
G1 X163.6 Y159.309 E-12.89928000000002 F1200.0
G0 X163.6 Y159.309 F5400.0 Z0.2
G1 X163.6 Y140.33 E-12.26804000000002 F1200.0
G0 X163.6 Y140.33 F5400.0 Z0.2
G1 X163.599 Y140.229 E-12.26468000000002 F1200.0
G0 X163.599 Y140.229 F5400.0 Z0.2
G1 X163.59 Y139.909 E-12.25403000000002 F1200.0
G0 X163.59 Y139.909 F5400.0 Z0.2
G1 X163.508 Y139.244 E-12.23175000000002 F1200.0
G0 X163.508 Y139.244 F5400.0 Z0.2
G1 X163.356 Y138.73 E-12.21392000000002 F1200.0
G0 X163.356 Y138.73 F5400.0 Z0.2
G1 X163.128 Y138.244 E-12.19606000000002 F1200.0
G0 X163.128 Y138.244 F5400.0 Z0.2
G1 X162.831 Y137.798 E-12.17824000000002 F1200.0
G0 X162.831 Y137.798 F5400.0 Z0.2
G1 X162.471 Y137.4 E-12.160390000000021 F1200.0
G0 X162.471 Y137.4 F5400.0 Z0.2
G1 X162.056 Y137.061 E-12.14257000000002 F1200.0
G0 X162.056 Y137.061 F5400.0 Z0.2
G1 X161.595 Y136.787 E-12.12473000000002 F1200.0
G0 X161.595 Y136.787 F5400.0 Z0.2
G1 X161.098 Y136.584 E-12.106880000000022 F1200.0
G0 X161.098 Y136.584 F5400.0 Z0.2
G1 X160.577 Y136.458 E-12.089050000000022 F1200.0
G0 X160.577 Y136.458 F5400.0 Z0.2
G1 X160.043 Y136.41 E-12.071220000000022 F1200.0
G0 X160.043 Y136.41 F5400.0 Z0.2
G1 X159.345 Y136.4 E-12.048000000000023 F1200.0
G0 X159.345 Y136.4 F5400.0 Z0.2
G1 X140.33 Y136.4 E-11.415560000000022 F1200.0
G0 X139.582 Y136.838 F5400.0 Z0.2
G1 X139.919 Y136.81 E-11.404310000000024 F1200.0
G0 X139.582 Y136.838 F5400.0 Z0.2
G1 X139.088 Y136.944 E-11.387510000000024 F1200.0
G0 X139.088 Y136.944 F5400.0 Z0.2
G1 X138.617 Y137.128 E-11.370690000000025 F1200.0
G0 X138.617 Y137.128 F5400.0 Z0.2
G1 X138.18 Y137.383 E-11.353860000000024 F1200.0
G0 X138.18 Y137.383 F5400.0 Z0.2
G1 X137.789 Y137.704 E-11.337030000000023 F1200.0
G0 X137.789 Y137.704 F5400.0 Z0.2
G1 X137.454 Y138.082 E-11.320240000000023 F1200.0
G0 X137.454 Y138.082 F5400.0 Z0.2
G1 X137.183 Y138.509 E-11.303420000000022 F1200.0
G0 X137.183 Y138.509 F5400.0 Z0.2
G1 X136.982 Y138.973 E-11.286600000000023 F1200.0
G0 X136.982 Y138.973 F5400.0 Z0.2
G1 X136.856 Y139.462 E-11.269810000000023 F1200.0
;TYPE:WALL-OUTER

G0 X140.2 Y140.2 F5400.0 Z0.2
G1 X159.8 Y140.2 E-10.617910000000023 F1200.0
G0 X159.8 Y140.2 F5400.0 Z0.2
G1 X159.8 Y159.8 E-9.966010000000024 F1200.0
G0 X159.8 Y159.8 F5400.0 Z0.2
G1 X140.2 Y159.8 E-9.314110000000023 F1200.0
G0 X140.2 Y140.2 F5400.0 Z0.2
G1 X140.2 Y159.8 E-8.662210000000023 F1200.0
;TYPE:SKIN

G0 X140.99 Y159.01 F5400.0 Z0.2
G1 X159.01 Y159.01 E-8.062860000000025 F1200.0
G0 X158.829 Y158.829 F5400.0 Z0.2
G1 X141.169 Y141.169 E-7.2321800000000245 F1200.0
G0 X140.99 Y140.99 F5400.0 Z0.2
G1 X159.01 Y140.99 E-6.632830000000025 F1200.0
G0 X158.706 Y141.17 F5400.0 Z0.2
G1 X158.829 Y141.293 E-6.627040000000028 F1200.0
G0 X159.01 Y140.99 F5400.0 Z0.2
G1 X159.01 Y159.01 E-6.027690000000026 F1200.0
G0 X158.829 Y157.698 F5400.0 Z0.2
G1 X142.301 Y141.17 E-5.250260000000031 F1200.0
G0 X143.433 Y141.17 F5400.0 Z0.2
G1 X158.829 Y156.566 E-4.526080000000034 F1200.0
G0 X158.829 Y155.435 F5400.0 Z0.2
