;START_OF_HEADER
;HEADER_VERSION:0.1
;FLAVOR:Griffin
;GENERATOR.NAME:Cura_SteamEngine
;GENERATOR.VERSION:4.6.1
;GENERATOR.BUILD_DATE:2020-04-29
;TARGET_MACHINE.NAME:Ultimaker 3 Extended
;EXTRUDER_TRAIN.0.INITIAL_TEMPERATURE:205
;EXTRUDER_TRAIN.0.MATERIAL.VOLUME_USED:1268
;EXTRUDER_TRAIN.0.MATERIAL.GUID:506c9f0d-e3aa-4bd4-b2d2-23e2425b1aa9
;EXTRUDER_TRAIN.0.NOZZLE.DIAMETER:0.4
;EXTRUDER_TRAIN.0.NOZZLE.NAME:AA 0.4
;BUILD_PLATE.TYPE:glass
;BUILD_PLATE.INITIAL_TEMPERATURE:60
;PRINT.TIME:1919
;PRINT.GROUPS:1
;PRINT.SIZE.MIN.X:9
;PRINT.SIZE.MIN.Y:6
;PRINT.SIZE.MIN.Z:0.27
;PRINT.SIZE.MAX.X:127.277
;PRINT.SIZE.MAX.Y:128.933
;PRINT.SIZE.MAX.Z:14.37
;END_OF_HEADER
;Generated with Cura_SteamEngine 4.6.1
T0
M82 ;absolute extrusion mode

G92 E0
M109 S205
G0 F15000 X9 Y6 Z2
G280
G1 F1500 E-6.5
;LAYER_COUNT:142
;LAYER:0
M107
M204 S625
M205 X6 Y6
G1 F600 Z2.27
G0 F4285.7 X106.405 Y82.45 Z2.27
M204 S500
M205 X5 Y5
;TYPE:SKIRT
G1 F600 Z0.27
G1 F1500 E0
G1 F1200 X106.9 Y81.894 E0.01323
G1 X107.71 Y81.194 E0.03226
G1 X108.44 Y80.656 E0.04838
G1 X108.568 Y80.542 E0.05143
G1 X109.174 Y80.111 E0.06465
G1 X109.823 Y79.746 E0.07788
G1 X110.507 Y79.453 E0.09111
G1 X111.219 Y79.236 E0.10434
G1 X111.95 Y79.096 E0.11757
G1 X112.692 Y79.035 E0.13081
G1 X113.436 Y79.054 E0.14404
G1 X114.174 Y79.153 E0.15727
G1 X114.897 Y79.33 E0.17051
G1 X115.596 Y79.584 E0.18373
G1 X116.265 Y79.911 E0.19696
G1 X116.894 Y80.308 E0.21018
G1 X117.444 Y80.741 E0.22263
G1 X118.371 Y81.55 E0.2445
G1 X118.904 Y82.069 E0.25772
G1 X119.379 Y82.642 E0.27095
G1 X119.71 Y83.129 E0.28142
G1 X120.256 Y84.013 E0.29989
G1 X120.613 Y84.667 E0.31313
G1 X120.897 Y85.355 E0.32637
G1 X121.106 Y86.069 E0.33959
G1 X121.237 Y86.802 E0.35283
G1 X121.289 Y87.544 E0.36605
G1 X121.265 Y88.341 E0.38022
G1 X121.189 Y89.082 E0.39346
G1 X120.595 Y91.868 E0.4441
G1 X120.398 Y92.586 E0.45734
G1 X120.125 Y93.279 E0.47058
G1 X119.779 Y93.938 E0.48381
G1 X119.365 Y94.556 E0.49703
G1 X118.886 Y95.126 E0.51026
G1 X118.35 Y95.642 E0.52349
G1 X117.809 Y96.06 E0.53564
G1 X118.129 Y96.015 E0.54139
G1 X118.873 Y95.993 E0.55462
G1 X119.615 Y96.05 E0.56785
G1 X120.347 Y96.187 E0.58108
G1 X121.06 Y96.401 E0.59432
G1 X121.745 Y96.691 E0.60754
G1 X122.516 Y97.129 E0.6233
G1 X124.154 Y98.205 E0.65814
G1 X124.753 Y98.646 E0.67136
G1 X125.302 Y99.15 E0.68461
G1 X125.793 Y99.709 E0.69784
G1 X126.221 Y100.317 E0.71105
G1 X126.582 Y100.968 E0.72428
G1 X126.871 Y101.654 E0.73752
G1 X127.085 Y102.367 E0.75075
G1 X127.221 Y103.099 E0.76398
G1 X127.277 Y103.841 E0.77721
G1 X127.257 Y104.549 E0.7898
G1 X127.166 Y105.493 E0.80666
G1 X126.999 Y106.629 E0.82707
G1 X126.852 Y107.358 E0.84029
G1 X126.627 Y108.068 E0.85353
G1 X126.327 Y108.749 E0.86676
G1 X125.956 Y109.394 E0.87999
G1 X125.887 Y109.489 E0.88207
G1 X126.417 Y110.556 E0.90325
G1 X126.712 Y111.239 E0.91648
G1 X126.932 Y111.95 E0.92971
G1 X127.075 Y112.681 E0.94295
G1 X127.139 Y113.423 E0.95618
G1 X127.092 Y114.472 E0.97485
G1 X126.834 Y116.611 E1.01315
G1 X126.705 Y117.344 E1.02638
G1 X126.54 Y117.937 E1.03732
G1 X126.198 Y118.854 E1.05472
G1 X125.856 Y119.515 E1.06795
G1 X125.445 Y120.135 E1.08117
G1 X124.97 Y120.708 E1.0944
G1 X124.436 Y121.227 E1.10764
G1 X123.849 Y121.685 E1.12087
G1 X123.217 Y122.078 E1.1341
G1 X122.546 Y122.401 E1.14734
G1 X121.845 Y122.65 E1.16056
G1 X121.121 Y122.822 E1.17379
G1 X120.617 Y122.886 E1.18282
G1 X120.5 Y123.449 E1.19304
G1 X120.27 Y124.157 E1.20628
G1 X120.03 Y124.71 E1.21699
G1 X119.682 Y125.368 E1.23022
G1 X119.265 Y125.984 E1.24345
G1 X118.784 Y126.553 E1.25669
G1 X118.246 Y127.066 E1.26991
G1 X117.655 Y127.519 E1.28314
G1 X117.019 Y127.906 E1.29638
G1 X116.345 Y128.222 E1.30961
G1 X115.641 Y128.464 E1.32284
G1 X114.916 Y128.63 E1.33606
G1 X114.176 Y128.716 E1.34931
G1 X111.72 Y128.731 E1.39296
G1 X110.977 Y128.691 E1.40619
G1 X110.242 Y128.572 E1.41943
G1 X109.525 Y128.375 E1.43264
G1 X108.832 Y128.102 E1.44588
G1 X108.173 Y127.756 E1.45912
G1 X107.555 Y127.342 E1.47234
G1 X106.985 Y126.864 E1.48556
G1 X106.384 Y126.226 E1.50114
G1 X105.828 Y125.493 E1.5175
G1 X105.451 Y124.852 E1.53072
G1 X105.144 Y124.173 E1.54396
G1 X104.913 Y123.466 E1.55718
G1 X104.803 Y122.991 E1.56585
G1 X104.512 Y121.497 E1.59291
G1 X104.409 Y120.76 E1.60613
G1 X104.386 Y120.016 E1.61937
G1 X104.442 Y119.274 E1.63259
G1 X104.578 Y118.542 E1.64583
G1 X104.792 Y117.829 E1.65906
G1 X105.223 Y116.868 E1.67778
G1 X105.887 Y115.644 E1.70254
G1 X106.117 Y115.248 E1.71068
G1 X106.534 Y114.631 E1.72391
G1 X107.015 Y114.063 E1.73715
G1 X107.554 Y113.55 E1.75037
G1 X108.145 Y113.098 E1.7636
G1 X108.782 Y112.712 E1.77684
G1 X109.456 Y112.396 E1.79007
G1 X110.16 Y112.154 E1.8033
G1 X110.885 Y111.989 E1.81652
G1 X110.993 Y111.976 E1.81845
G1 X111.166 Y111.376 E1.82955
G1 X111.446 Y110.687 E1.84277
G1 X111.799 Y110.032 E1.856
G1 X112.22 Y109.418 E1.86924
G1 X112.705 Y108.853 E1.88247
G1 X112.736 Y108.824 E1.88323
G1 X112.251 Y108.154 E1.89793
G1 X111.847 Y107.528 E1.91117
G1 X111.514 Y106.863 E1.92439
G1 X111.253 Y106.166 E1.93762
G1 X111.069 Y105.445 E1.95085
G1 X110.963 Y104.708 E1.96409
G1 X110.937 Y103.964 E1.97732
G1 X110.991 Y103.222 E1.99054
G1 X111.124 Y102.489 E2.00379
G1 X111.335 Y101.776 E2.017
G1 X111.621 Y101.088 E2.03025
G1 X111.979 Y100.436 E2.04347
G1 X112.414 Y99.815 E2.05695
G1 X112.784 Y99.343 E2.06761
G1 X113.099 Y98.855 E2.07793
G1 X113.568 Y98.276 E2.09118
G1 X114.096 Y97.751 E2.10442
G1 X114.676 Y97.287 E2.11762
G1 X114.364 Y97.341 E2.12325
G1 X113.509 Y97.39 E2.13847
G1 X111.754 Y97.382 E2.16967
G1 X111.011 Y97.339 E2.1829
G1 X110.277 Y97.216 E2.19613
G1 X109.561 Y97.015 E2.20935
G1 X108.87 Y96.738 E2.22258
G1 X108.212 Y96.389 E2.23582
G1 X107.596 Y95.972 E2.24904
G1 X107.028 Y95.491 E2.26227
G1 X106.515 Y94.951 E2.27551
G1 X106.063 Y94.36 E2.28874
G1 X105.677 Y93.724 E2.30196
G1 X105.361 Y93.05 E2.3152
G1 X105.132 Y92.39 E2.32761
G1 X104.91 Y91.483 E2.34421
G1 X104.804 Y90.411 E2.36336
G1 X104.739 Y87.225 E2.42001
G1 X104.764 Y86.481 E2.43324
G1 X104.869 Y85.745 E2.44646
G1 X105.052 Y85.023 E2.4597
G1 X105.454 Y84.017 E2.47895
G1 X105.608 Y83.705 E2.48514
G1 X105.973 Y83.056 E2.49838
G1 X106.405 Y82.45 E2.5116
M204 S625
M205 X6 Y6
G0 F4285.7 X106.761 Y82.677
M204 S500
M205 X5 Y5
G1 F1200 X107.245 Y82.143 E2.52442
G1 X107.96 Y81.532 E2.54113
G1 X108.704 Y80.984 E2.55756
G1 X108.847 Y80.857 E2.56096
G1 X109.437 Y80.441 E2.57379
G1 X110.069 Y80.094 E2.58661
G1 X110.735 Y79.818 E2.59942
G1 X111.428 Y79.618 E2.61225
G1 X112.139 Y79.495 E2.62507
G1 X112.859 Y79.452 E2.63789
G1 X113.58 Y79.489 E2.65073
G1 X114.292 Y79.605 E2.66355
G1 X114.986 Y79.8 E2.67636
G1 X115.655 Y80.07 E2.68919
G1 X116.29 Y80.412 E2.70201
G1 X116.883 Y80.823 E2.71483
G1 X118.094 Y81.866 E2.74324
G1 X118.611 Y82.37 E2.75608
G1 X119.068 Y82.928 E2.7689
G1 X119.353 Y83.35 E2.77795
G1 X119.899 Y84.234 E2.79642
G1 X120.243 Y84.868 E2.80924
G1 X120.515 Y85.536 E2.82206
G1 X120.712 Y86.23 E2.83489
G1 X120.831 Y86.942 E2.84772
G1 X120.862 Y87.971 E2.86602
G1 X120.845 Y88.321 E2.87225
G1 X120.704 Y89.389 E2.8914
G1 X120.184 Y91.779 E2.93488
G1 X119.992 Y92.474 E2.94769
G1 X119.724 Y93.144 E2.96052
G1 X119.384 Y93.78 E2.97334
G1 X118.975 Y94.375 E2.98618
G1 X118.503 Y94.92 E2.99899
G1 X117.974 Y95.41 E3.01181
G1 X117.393 Y95.839 E3.02465
G1 X116.769 Y96.2 E3.03746
G1 X116.109 Y96.491 E3.05028
G1 X115.285 Y96.739 E3.06558
G1 X114.292 Y96.926 E3.08354
G1 X113.511 Y96.97 E3.09745
G1 X111.756 Y96.962 E3.12865
G1 X111.036 Y96.919 E3.14147
G1 X110.325 Y96.796 E3.15429
G1 X109.632 Y96.595 E3.16712
G1 X108.966 Y96.319 E3.17993
G1 X108.334 Y95.971 E3.19276
G1 X107.745 Y95.556 E3.20557
G1 X107.205 Y95.077 E3.2184
G1 X106.721 Y94.542 E3.23122
G1 X106.3 Y93.956 E3.24405
G1 X105.946 Y93.328 E3.25686
G1 X105.663 Y92.664 E3.26969
G1 X105.483 Y92.09 E3.28039
G1 X105.32 Y91.387 E3.29322
G1 X105.224 Y90.403 E3.31079
G1 X105.159 Y87.217 E3.36744
G1 X105.185 Y86.496 E3.38026
G1 X105.29 Y85.782 E3.39309
G1 X105.473 Y85.084 E3.40592
G1 X105.83 Y84.203 E3.42281
G1 X105.984 Y83.891 E3.429
G1 X106.339 Y83.262 E3.44184
G1 X106.761 Y82.677 E3.45466
M204 S625
M205 X6 Y6
G0 F4285.7 X107.116 Y82.906
M204 S500
M205 X5 Y5
G1 F1200 X107.59 Y82.393 E3.46708
G1 X108.209 Y81.87 E3.48148
G1 X108.975 Y81.306 E3.49839
G1 X109.126 Y81.172 E3.50198
G1 X109.698 Y80.774 E3.51437
G1 X110.313 Y80.443 E3.52678
G1 X110.961 Y80.185 E3.53918
G1 X111.634 Y80.002 E3.55158
G1 X112.324 Y79.898 E3.56398
G1 X113.021 Y79.873 E3.57638
G1 X113.717 Y79.929 E3.58879
G1 X114.402 Y80.063 E3.6012
G1 X115.066 Y80.275 E3.61359
G1 X115.702 Y80.562 E3.62599
G1 X116.302 Y80.919 E3.6384
G1 X116.891 Y81.374 E3.65163
G1 X117.818 Y82.183 E3.6735
G1 X118.317 Y82.671 E3.68591
G1 X118.756 Y83.213 E3.69831
G1 X119.541 Y84.455 E3.72443
G1 X119.873 Y85.068 E3.73682
G1 X120.133 Y85.716 E3.74923
G1 X120.317 Y86.389 E3.76163
G1 X120.423 Y87.079 E3.77404
G1 X120.443 Y87.95 E3.78953
G1 X120.426 Y88.3 E3.79576
G1 X120.294 Y89.3 E3.81369
G1 X119.774 Y91.69 E3.85717
G1 X119.587 Y92.362 E3.86957
G1 X119.324 Y93.008 E3.88197
G1 X118.989 Y93.62 E3.89437
G1 X118.586 Y94.19 E3.90678
G1 X118.121 Y94.71 E3.91918
G1 X117.599 Y95.173 E3.93158
G1 X117.028 Y95.574 E3.94398
G1 X116.414 Y95.906 E3.95639
G1 X115.767 Y96.166 E3.96879
G1 X115.191 Y96.329 E3.97943
G1 X114.221 Y96.512 E3.99697
G1 X113.513 Y96.55 E4.00958
G1 X111.758 Y96.542 E4.04077
G1 X111.062 Y96.499 E4.05317
G1 X110.375 Y96.376 E4.06558
G1 X109.707 Y96.176 E4.07797
G1 X109.066 Y95.901 E4.09037
G1 X108.46 Y95.554 E4.10278
G1 X107.899 Y95.14 E4.11518
G1 X107.388 Y94.664 E4.12759
G1 X106.935 Y94.134 E4.13998
G1 X106.546 Y93.555 E4.15238
G1 X106.225 Y92.935 E4.16479
G1 X105.939 Y92.155 E4.17956
G1 X105.729 Y91.293 E4.19533
G1 X105.644 Y90.394 E4.21139
G1 X105.579 Y87.208 E4.26803
G1 X105.605 Y86.511 E4.28043
G1 X105.71 Y85.821 E4.29284
G1 X105.894 Y85.148 E4.30524
G1 X106.207 Y84.389 E4.31983
G1 X106.361 Y84.077 E4.32602
G1 X106.705 Y83.47 E4.33842
G1 X107.116 Y82.906 E4.35083
M204 S625
M205 X6 Y6
G0 F4285.7 X107.471 Y83.136
M204 S500
M205 X5 Y5
G1 F1200 X107.933 Y82.646 E4.3628
G1 X108.458 Y82.208 E4.37495
G1 X109.242 Y81.63 E4.39227
G1 X109.404 Y81.488 E4.39609
G1 X109.959 Y81.107 E4.40806
G1 X110.555 Y80.794 E4.42003
G1 X111.184 Y80.554 E4.43199
G1 X111.837 Y80.39 E4.44396
G1 X112.504 Y80.305 E4.45592
G1 X113.178 Y80.299 E4.4679
G1 X113.847 Y80.374 E4.47986
G1 X114.502 Y80.527 E4.49182
G1 X115.135 Y80.757 E4.50379
G1 X115.736 Y81.06 E4.51576
G1 X116.297 Y81.432 E4.52772
G1 X117.542 Y82.499 E4.55687
G1 X118.022 Y82.971 E4.56884
G1 X118.443 Y83.497 E4.58081
G1 X119.184 Y84.675 E4.60555
G1 X119.503 Y85.268 E4.61752
G1 X119.75 Y85.895 E4.6295
G1 X119.92 Y86.546 E4.64146
G1 X120.013 Y87.213 E4.65343
G1 X120.023 Y87.93 E4.66618
G1 X120.006 Y88.28 E4.67241
G1 X119.883 Y89.21 E4.68908
G1 X119.363 Y91.6 E4.73256
G1 X119.181 Y92.249 E4.74454
G1 X118.924 Y92.871 E4.75651
G1 X118.595 Y93.458 E4.76847
G1 X118.198 Y94.002 E4.78044
G1 X117.74 Y94.495 E4.7924
G1 X117.226 Y94.93 E4.80437
G1 X116.665 Y95.301 E4.81633
G1 X116.063 Y95.604 E4.82831
G1 X115.43 Y95.833 E4.84027
G1 X114.815 Y95.985 E4.85153
G1 X114.151 Y96.097 E4.8635
G1 X113.515 Y96.13 E4.87482
G1 X111.76 Y96.122 E4.90602
G1 X111.088 Y96.079 E4.91799
G1 X110.426 Y95.957 E4.92996
G1 X109.784 Y95.757 E4.94191
G1 X109.169 Y95.482 E4.95388
G1 X108.591 Y95.136 E4.96586
G1 X108.059 Y94.725 E4.97781
G1 X107.578 Y94.253 E4.98979
G1 X107.158 Y93.727 E5.00175
G1 X106.802 Y93.156 E5.01372
G1 X106.517 Y92.546 E5.02568
G1 X106.342 Y92.037 E5.03525
G1 X106.14 Y91.199 E5.05057
G1 X106.064 Y90.386 E5.06509
G1 X105.999 Y87.2 E5.12174
G1 X106.025 Y86.527 E5.13371
G1 X106.131 Y85.862 E5.14568
G1 X106.315 Y85.215 E5.15763
G1 X106.584 Y84.574 E5.16999
G1 X106.738 Y84.262 E5.17618
G1 X107.071 Y83.677 E5.18814
G1 X107.471 Y83.136 E5.2001
M204 S625
M205 X6 Y6
G0 F4285.7 X107.825 Y83.368
M204 S500
M205 X5 Y5
G1 F1200 X108.275 Y82.902 E5.21162
G1 X108.707 Y82.546 E5.22157
G1 X109.509 Y81.955 E5.23928
G1 X109.681 Y81.804 E5.24335
G1 X110.218 Y81.441 E5.25487
G1 X110.795 Y81.147 E5.26638
G1 X111.404 Y80.926 E5.2779
G1 X112.035 Y80.782 E5.2894
G1 X112.679 Y80.716 E5.30091
G1 X113.327 Y80.73 E5.31243
G1 X113.968 Y80.824 E5.32395
G1 X114.592 Y80.997 E5.33546
G1 X115.191 Y81.245 E5.34698
G1 X115.754 Y81.564 E5.35848
G1 X116.339 Y82.006 E5.37152
G1 X117.266 Y82.815 E5.39339
G1 X117.727 Y83.271 E5.40492
G1 X118.281 Y84.012 E5.42136
G1 X118.827 Y84.896 E5.43983
G1 X119.132 Y85.467 E5.45134
G1 X119.366 Y86.072 E5.46287
G1 X119.522 Y86.7 E5.47437
G1 X119.601 Y87.343 E5.48589
G1 X119.604 Y87.91 E5.49597
G1 X119.587 Y88.26 E5.5022
G1 X119.473 Y89.121 E5.51763
G1 X118.953 Y91.511 E5.56111
G1 X118.776 Y92.134 E5.57263
G1 X118.525 Y92.731 E5.58414
G1 X118.201 Y93.292 E5.59565
G1 X117.811 Y93.809 E5.60717
G1 X117.36 Y94.275 E5.61869
G1 X116.855 Y94.681 E5.63021
G1 X116.305 Y95.021 E5.64171
G1 X115.716 Y95.292 E5.65323
G1 X115.002 Y95.511 E5.66651
G1 X114.081 Y95.682 E5.68316
G1 X113.517 Y95.71 E5.6932
G1 X111.762 Y95.702 E5.72439
G1 X111.116 Y95.659 E5.7359
G1 X110.48 Y95.537 E5.74741
G1 X109.863 Y95.337 E5.75894
G1 X109.276 Y95.063 E5.77046
G1 X108.728 Y94.719 E5.78196
G1 X108.225 Y94.31 E5.79348
G1 X107.777 Y93.842 E5.805
G1 X107.39 Y93.323 E5.81651
G1 X107.07 Y92.76 E5.82802
G1 X106.745 Y91.92 E5.84403
G1 X106.55 Y91.106 E5.85891
G1 X106.484 Y90.377 E5.87192
G1 X106.419 Y87.191 E5.92857
G1 X106.446 Y86.544 E5.94008
G1 X106.552 Y85.905 E5.95159
G1 X106.736 Y85.284 E5.96311
G1 X106.96 Y84.76 E5.97324
G1 X107.114 Y84.448 E5.97942
G1 X107.436 Y83.886 E5.99093
G1 X107.825 Y83.368 E6.00245
M204 S625
M205 X6 Y6
G0 F4285.7 X108.178 Y83.602
M204 S500
M205 X5 Y5
G1 F1200 X108.615 Y83.16 E6.0135
G1 X108.956 Y82.884 E6.0213
G1 X109.779 Y82.278 E6.03946
G1 X109.958 Y82.122 E6.04369
G1 X110.475 Y81.777 E6.05473
G1 X111.032 Y81.502 E6.06578
G1 X111.62 Y81.301 E6.07682
G1 X112.229 Y81.177 E6.08787
G1 X112.848 Y81.132 E6.0989
G1 X113.469 Y81.167 E6.10996
G1 X114.079 Y81.281 E6.12099
G1 X114.67 Y81.473 E6.13204
G1 X115.232 Y81.739 E6.14309
G1 X115.754 Y82.075 E6.15412
G1 X116.99 Y83.132 E6.18303
G1 X117.431 Y83.57 E6.19408
G1 X117.923 Y84.233 E6.20876
G1 X118.469 Y85.117 E6.22723
G1 X118.761 Y85.665 E6.23827
G1 X118.98 Y86.247 E6.24932
G1 X119.123 Y86.851 E6.26035
G1 X119.186 Y87.47 E6.27141
G1 X119.167 Y88.239 E6.28509
G1 X119.063 Y89.032 E6.2993
G1 X118.543 Y91.422 E6.34278
G1 X118.372 Y92.019 E6.35382
G1 X118.126 Y92.59 E6.36487
G1 X117.808 Y93.124 E6.37592
G1 X117.425 Y93.613 E6.38696
G1 X116.982 Y94.049 E6.39801
G1 X116.487 Y94.424 E6.40905
G1 X115.948 Y94.732 E6.42009
G1 X115.374 Y94.969 E6.43112
G1 X114.626 Y95.167 E6.44488
G1 X114.013 Y95.267 E6.45592
G1 X113.519 Y95.29 E6.46471
G1 X111.764 Y95.282 E6.49591
G1 X111.144 Y95.239 E6.50696
G1 X110.535 Y95.117 E6.518
G1 X109.946 Y94.918 E6.52905
G1 X109.388 Y94.645 E6.54009
G1 X108.87 Y94.302 E6.55113
G1 X108.4 Y93.896 E6.56217
G1 X107.986 Y93.433 E6.57321
G1 X107.635 Y92.921 E6.58425
G1 X107.352 Y92.367 E6.59531
G1 X107.149 Y91.802 E6.60598
G1 X106.961 Y91.014 E6.62038
G1 X106.904 Y90.369 E6.63189
G1 X106.839 Y87.183 E6.68854
G1 X106.866 Y86.562 E6.69959
G1 X106.973 Y85.95 E6.71063
G1 X107.157 Y85.357 E6.72167
G1 X107.491 Y84.634 E6.73582
G1 X107.801 Y84.096 E6.74686
G1 X108.178 Y83.602 E6.75791
M204 S625
M205 X6 Y6
G0 F4285.7 X108.53 Y83.838
M204 S500
M205 X5 Y5
G1 F1200 X108.954 Y83.422 E6.76847
G1 X110.049 Y82.6 E6.79281
G1 X110.234 Y82.44 E6.79715
G1 X110.731 Y82.115 E6.80771
G1 X111.267 Y81.86 E6.81826
G1 X111.832 Y81.68 E6.8288
G1 X112.417 Y81.577 E6.83936
G1 X113.01 Y81.554 E6.84991
