;START_OF_HEADER
;HEADER_VERSION:0.1
;FLAVOR:Griffin
;GENERATOR.NAME:Cura_SteamEngine
;GENERATOR.VERSION:4.4.1
;GENERATOR.BUILD_DATE:2019-12-23
;TARGET_MACHINE.NAME:Ultimaker 3 Extended
;EXTRUDER_TRAIN.0.INITIAL_TEMPERATURE:210
;EXTRUDER_TRAIN.0.MATERIAL.VOLUME_USED:3748
;EXTRUDER_TRAIN.0.MATERIAL.GUID:506c9f0d-e3aa-4bd4-b2d2-23e2425b1aa9
;EXTRUDER_TRAIN.0.NOZZLE.DIAMETER:0.4
;EXTRUDER_TRAIN.0.NOZZLE.NAME:AA 0.4
;BUILD_PLATE.TYPE:glass
;BUILD_PLATE.INITIAL_TEMPERATURE:60
;PRINT.TIME:1183
;PRINT.GROUPS:1
;PRINT.SIZE.MIN.X:9
;PRINT.SIZE.MIN.Y:6
;PRINT.SIZE.MIN.Z:0.27
;PRINT.SIZE.MAX.X:133.43
;PRINT.SIZE.MAX.Y:124.43
;PRINT.SIZE.MAX.Z:19.87
;END_OF_HEADER
;Generated with Cura_SteamEngine 4.4.1
T0
M82 ;absolute extrusion mode

G92 E0
M109 S210

G280
G1 F1500 E-6.5
;LAYER_COUNT:99
;LAYER:0
M107
M204 S625
M205 X6 Y6

M204 S500
M205 X5 Y5
;TYPE:SKIRT
G1 F1500 E0

G0 X101.44 Y92.765 F5400.0 Z0.27
G1 X101.977 Y92.25 E0.01323 F1200.0
G0 X101.44 Y92.765 F5400.0 Z0.27
G1 X100.961 Y93.335 E0.02645999999999963 F1200.0
G0 X100.961 Y93.335 F5400.0 Z0.27
G1 X100.546 Y93.953 E0.039689999999999705 F1200.0
G0 X100.546 Y93.953 F5400.0 Z0.27
G1 X100.2 Y94.612 E0.05291999999999978 F1200.0
G0 X100.2 Y94.612 F5400.0 Z0.27
G1 X99.927 Y95.304 E0.06614999999999985 F1200.0
G0 X99.927 Y95.304 F5400.0 Z0.27
G1 X99.729 Y96.022 E0.07938999999999999 F1200.0
G0 X99.729 Y96.022 F5400.0 Z0.27
G1 X99.61 Y96.757 E0.09261999999999962 F1200.0
G0 X99.61 Y96.757 F5400.0 Z0.27
G1 X99.57 Y97.5 E0.1058499999999997 F1200.0
G0 X99.57 Y97.5 F5400.0 Z0.27
G1 X99.57 Y117.5 E0.4613699999999997 F1200.0
G0 X99.57 Y117.5 F5400.0 Z0.27
G1 X99.585 Y117.96 E0.4695499999999998 F1200.0
G0 X99.585 Y117.96 F5400.0 Z0.27
G1 X99.674 Y118.699 E0.4827799999999999 F1200.0
G0 X99.674 Y118.699 F5400.0 Z0.27
G1 X99.842 Y119.424 E0.49600999999999973 F1200.0
G0 X99.842 Y119.424 F5400.0 Z0.27
G1 X100.087 Y120.127 E0.5092399999999998 F1200.0
G0 X100.087 Y120.127 F5400.0 Z0.27
G1 X100.406 Y120.8 E0.5224799999999997 F1200.0
G0 X100.406 Y120.8 F5400.0 Z0.27
G1 X100.795 Y121.434 E0.5357099999999998 F1200.0
G0 X100.795 Y121.434 F5400.0 Z0.27
G1 X101.25 Y122.023 E0.5489399999999999 F1200.0
G0 X101.25 Y122.023 F5400.0 Z0.27
G1 X101.765 Y122.56 E0.5621599999999997 F1200.0
G0 X101.765 Y122.56 F5400.0 Z0.27
G1 X102.335 Y123.039 E0.5753999999999998 F1200.0
G0 X102.335 Y123.039 F5400.0 Z0.27
G1 X102.953 Y123.454 E0.5886299999999999 F1200.0
G0 X102.953 Y123.454 F5400.0 Z0.27
G1 X103.612 Y123.8 E0.6018599999999997 F1200.0
G0 X103.612 Y123.8 F5400.0 Z0.27
G1 X104.304 Y124.073 E0.6150799999999997 F1200.0
G0 X104.304 Y124.073 F5400.0 Z0.27
G1 X105.022 Y124.271 E0.6283199999999997 F1200.0
G0 X105.022 Y124.271 F5400.0 Z0.27
G1 X105.757 Y124.39 E0.6415599999999998 F1200.0
G0 X105.757 Y124.39 F5400.0 Z0.27
G1 X106.5 Y124.43 E0.6547899999999999 F1200.0
G0 X106.5 Y124.43 F5400.0 Z0.27
G1 X126.5 Y124.43 E1.0103 F1200.0
G0 X126.5 Y124.43 F5400.0 Z0.27
G1 X126.96 Y124.415 E1.01849 F1200.0
G0 X126.96 Y124.415 F5400.0 Z0.27
G1 X127.699 Y124.326 E1.03172 F1200.0
G0 X127.699 Y124.326 F5400.0 Z0.27
G1 X128.424 Y124.158 E1.0449499999999998 F1200.0
G0 X128.424 Y124.158 F5400.0 Z0.27
G1 X129.127 Y123.913 E1.05818 F1200.0
G0 X129.127 Y123.913 F5400.0 Z0.27
G1 X129.8 Y123.594 E1.0714199999999998 F1200.0
G0 X129.8 Y123.594 F5400.0 Z0.27
G1 X130.434 Y123.205 E1.0846399999999998 F1200.0
G0 X130.434 Y123.205 F5400.0 Z0.27
G1 X131.023 Y122.75 E1.09787 F1200.0
G0 X131.023 Y122.75 F5400.0 Z0.27
G1 X131.56 Y122.235 E1.1111 F1200.0
G0 X131.56 Y122.235 F5400.0 Z0.27
G1 X132.039 Y121.665 E1.1243299999999998 F1200.0
G0 X132.039 Y121.665 F5400.0 Z0.27
G1 X132.454 Y121.047 E1.13757 F1200.0
G0 X132.454 Y121.047 F5400.0 Z0.27
G1 X132.8 Y120.388 E1.1507999999999998 F1200.0
G0 X132.8 Y120.388 F5400.0 Z0.27
G1 X133.073 Y119.696 E1.1640199999999998 F1200.0
G0 X133.073 Y119.696 F5400.0 Z0.27
G1 X133.271 Y118.978 E1.17726 F1200.0
G0 X133.271 Y118.978 F5400.0 Z0.27
G1 X133.39 Y118.243 E1.1904899999999998 F1200.0
G0 X133.39 Y118.243 F5400.0 Z0.27
G1 X133.43 Y117.5 E1.20372 F1200.0
G0 X133.43 Y117.5 F5400.0 Z0.27
G1 X133.43 Y97.5 E1.55924 F1200.0
G0 X133.43 Y97.5 F5400.0 Z0.27
G1 X133.415 Y97.04 E1.56742 F1200.0
G0 X133.415 Y97.04 F5400.0 Z0.27
G1 X133.326 Y96.301 E1.5806499999999999 F1200.0
G0 X133.326 Y96.301 F5400.0 Z0.27
G1 X133.158 Y95.576 E1.59388 F1200.0
G0 X133.158 Y95.576 F5400.0 Z0.27
G1 X132.913 Y94.873 E1.60712 F1200.0
G0 X132.913 Y94.873 F5400.0 Z0.27
G1 X132.594 Y94.2 E1.6203600000000002 F1200.0
G0 X132.594 Y94.2 F5400.0 Z0.27
G1 X132.205 Y93.566 E1.6335800000000003 F1200.0
G0 X132.205 Y93.566 F5400.0 Z0.27
G1 X131.75 Y92.977 E1.6468100000000003 F1200.0
G0 X131.75 Y92.977 F5400.0 Z0.27
G1 X131.235 Y92.44 E1.6600300000000003 F1200.0
G0 X131.235 Y92.44 F5400.0 Z0.27
G1 X130.665 Y91.961 E1.6732700000000005 F1200.0
G0 X130.665 Y91.961 F5400.0 Z0.27
G1 X130.047 Y91.546 E1.6865000000000006 F1200.0
G0 X130.047 Y91.546 F5400.0 Z0.27
G1 X129.388 Y91.2 E1.6997300000000006 F1200.0
G0 X129.388 Y91.2 F5400.0 Z0.27
G1 X128.696 Y90.927 E1.7129600000000007 F1200.0
G0 X128.696 Y90.927 F5400.0 Z0.27
G1 X127.978 Y90.729 E1.7262000000000008 F1200.0
G0 X127.978 Y90.729 F5400.0 Z0.27
G1 X127.243 Y90.61 E1.739430000000001 F1200.0
G0 X127.243 Y90.61 F5400.0 Z0.27
G1 X126.5 Y90.57 E1.752660000000001 F1200.0
G0 X126.5 Y90.57 F5400.0 Z0.27
G1 X106.5 Y90.57 E2.108180000000001 F1200.0
G0 X106.5 Y90.57 F5400.0 Z0.27
G1 X106.04 Y90.585 E2.1163600000000007 F1200.0
G0 X106.04 Y90.585 F5400.0 Z0.27
G1 X105.301 Y90.674 E2.1295900000000008 F1200.0
G0 X105.301 Y90.674 F5400.0 Z0.27
G1 X104.576 Y90.842 E2.142820000000001 F1200.0
G0 X104.576 Y90.842 F5400.0 Z0.27
G1 X103.873 Y91.087 E2.156050000000001 F1200.0
G0 X103.873 Y91.087 F5400.0 Z0.27
G1 X103.2 Y91.406 E2.169290000000001 F1200.0
G0 X103.2 Y91.406 F5400.0 Z0.27
G1 X102.566 Y91.795 E2.182510000000001 F1200.0
G0 X102.566 Y91.795 F5400.0 Z0.27
G1 X101.977 Y92.25 E2.195740000000001 F1200.0
M204 S625
M205 X6 Y6
M204 S500
M205 X5 Y5

G0 X101.854 Y92.94 F5400.0 Z0.27
G1 X101.378 Y93.482 E2.2085600000000007 F1200.0
G0 X101.378 Y93.482 F5400.0 Z0.27
G1 X100.965 Y94.073 E2.2213800000000012 F1200.0
G0 X100.965 Y94.073 F5400.0 Z0.27
G1 X100.62 Y94.707 E2.2342100000000005 F1200.0
G0 X100.62 Y94.707 F5400.0 Z0.27
G1 X100.347 Y95.374 E2.2470200000000013 F1200.0
G0 X100.347 Y95.374 F5400.0 Z0.27
G1 X100.149 Y96.068 E2.2598500000000006 F1200.0
G0 X100.149 Y96.068 F5400.0 Z0.27
G1 X100.03 Y96.78 E2.2726800000000007 F1200.0
G0 X100.03 Y96.78 F5400.0 Z0.27
G1 X99.99 Y97.5 E2.285500000000001 F1200.0
G0 X99.99 Y97.5 F5400.0 Z0.27
G1 X99.99 Y117.5 E2.641020000000001 F1200.0
G0 X99.99 Y117.5 F5400.0 Z0.27
G1 X100.045 Y118.341 E2.656000000000001 F1200.0
G0 X100.045 Y118.341 F5400.0 Z0.27
G1 X100.177 Y119.05 E2.668820000000001 F1200.0
G0 X100.177 Y119.05 F5400.0 Z0.27
G1 X100.387 Y119.74 E2.681640000000001 F1200.0
G0 X100.387 Y119.74 F5400.0 Z0.27
G1 X100.673 Y120.402 E2.6944600000000007 F1200.0
G0 X100.673 Y120.402 F5400.0 Z0.27
G1 X101.03 Y121.029 E2.707280000000001 F1200.0
G0 X101.03 Y121.029 F5400.0 Z0.27
G1 X101.454 Y121.613 E2.720110000000001 F1200.0
G0 X101.454 Y121.613 F5400.0 Z0.27
G1 X101.94 Y122.146 E2.732930000000001 F1200.0
G0 X101.94 Y122.146 F5400.0 Z0.27
G1 X102.482 Y122.622 E2.745760000000001 F1200.0
G0 X102.482 Y122.622 F5400.0 Z0.27
G1 X103.073 Y123.035 E2.758570000000001 F1200.0
G0 X103.073 Y123.035 F5400.0 Z0.27
G1 X103.707 Y123.38 E2.7714000000000008 F1200.0
G0 X103.707 Y123.38 F5400.0 Z0.27
G1 X104.374 Y123.653 E2.7842100000000007 F1200.0
G0 X104.374 Y123.653 F5400.0 Z0.27
G1 X105.068 Y123.851 E2.797040000000001 F1200.0
G0 X105.068 Y123.851 F5400.0 Z0.27
G1 X105.78 Y123.97 E2.809880000000001 F1200.0
G0 X105.78 Y123.97 F5400.0 Z0.27
G1 X106.5 Y124.01 E2.822690000000001 F1200.0
G0 X106.5 Y124.01 F5400.0 Z0.27
G1 X126.5 Y124.01 E3.178210000000001 F1200.0
G0 X126.5 Y124.01 F5400.0 Z0.27
G1 X127.341 Y123.955 E3.193200000000001 F1200.0
G0 X127.341 Y123.955 F5400.0 Z0.27
G1 X128.05 Y123.823 E3.206010000000001 F1200.0
G0 X128.05 Y123.823 F5400.0 Z0.27
G1 X128.74 Y123.613 E3.218840000000001 F1200.0
G0 X128.74 Y123.613 F5400.0 Z0.27
G1 X129.402 Y123.327 E3.231650000000001 F1200.0
G0 X129.402 Y123.327 F5400.0 Z0.27
G1 X130.029 Y122.97 E3.2444800000000007 F1200.0
G0 X130.029 Y122.97 F5400.0 Z0.27
G1 X130.613 Y122.546 E3.257310000000001 F1200.0
G0 X130.613 Y122.546 F5400.0 Z0.27
G1 X131.146 Y122.06 E3.270130000000001 F1200.0
G0 X131.146 Y122.06 F5400.0 Z0.27
G1 X131.622 Y121.518 E3.282950000000001 F1200.0
G0 X131.622 Y121.518 F5400.0 Z0.27
G1 X132.035 Y120.927 E3.295770000000001 F1200.0
G0 X132.035 Y120.927 F5400.0 Z0.27
G1 X132.38 Y120.293 E3.308600000000001 F1200.0
G0 X132.38 Y120.293 F5400.0 Z0.27
G1 X132.653 Y119.626 E3.321410000000001 F1200.0
G0 X132.653 Y119.626 F5400.0 Z0.27
G1 X132.851 Y118.932 E3.3342400000000008 F1200.0
G0 X132.851 Y118.932 F5400.0 Z0.27
G1 X132.97 Y118.22 E3.347070000000001 F1200.0
G0 X132.97 Y118.22 F5400.0 Z0.27
G1 X133.01 Y117.5 E3.359890000000001 F1200.0
G0 X133.01 Y117.5 F5400.0 Z0.27
G1 X133.01 Y97.5 E3.7154100000000008 F1200.0
G0 X133.01 Y97.5 F5400.0 Z0.27
G1 X132.955 Y96.659 E3.7303900000000008 F1200.0
G0 X132.955 Y96.659 F5400.0 Z0.27
G1 X132.823 Y95.95 E3.743210000000001 F1200.0
G0 X132.823 Y95.95 F5400.0 Z0.27
G1 X132.613 Y95.26 E3.756030000000001 F1200.0
G0 X132.613 Y95.26 F5400.0 Z0.27
G1 X132.327 Y94.598 E3.768850000000001 F1200.0
G0 X132.327 Y94.598 F5400.0 Z0.27
G1 X131.97 Y93.971 E3.781680000000001 F1200.0
G0 X131.97 Y93.971 F5400.0 Z0.27
G1 X131.546 Y93.387 E3.7945100000000007 F1200.0
G0 X131.546 Y93.387 F5400.0 Z0.27
G1 X131.06 Y92.854 E3.8073300000000008 F1200.0
G0 X131.06 Y92.854 F5400.0 Z0.27
G1 X130.518 Y92.378 E3.820150000000001 F1200.0
G0 X130.518 Y92.378 F5400.0 Z0.27
G1 X129.927 Y91.965 E3.832970000000001 F1200.0
G0 X129.927 Y91.965 F5400.0 Z0.27
G1 X129.293 Y91.62 E3.845800000000001 F1200.0
G0 X129.293 Y91.62 F5400.0 Z0.27
G1 X128.626 Y91.347 E3.858610000000001 F1200.0
G0 X128.626 Y91.347 F5400.0 Z0.27
G1 X127.932 Y91.149 E3.871440000000001 F1200.0
G0 X127.932 Y91.149 F5400.0 Z0.27
G1 X127.22 Y91.03 E3.8842700000000008 F1200.0
G0 X127.22 Y91.03 F5400.0 Z0.27
G1 X126.5 Y90.99 E3.897090000000001 F1200.0
G0 X126.5 Y90.99 F5400.0 Z0.27
G1 X106.5 Y90.99 E4.252610000000001 F1200.0
G0 X106.5 Y90.99 F5400.0 Z0.27
G1 X105.659 Y91.045 E4.26759 F1200.0
G0 X105.659 Y91.045 F5400.0 Z0.27
G1 X104.95 Y91.177 E4.28041 F1200.0
G0 X104.95 Y91.177 F5400.0 Z0.27
G1 X104.26 Y91.387 E4.293229999999999 F1200.0
G0 X104.26 Y91.387 F5400.0 Z0.27
G1 X103.598 Y91.673 E4.306049999999999 F1200.0
G0 X103.598 Y91.673 F5400.0 Z0.27
G1 X102.971 Y92.03 E4.318869999999999 F1200.0
G0 X102.971 Y92.03 F5400.0 Z0.27
G1 X102.387 Y92.454 E4.331699999999999 F1200.0
G0 X102.387 Y92.454 F5400.0 Z0.27
G1 X101.854 Y92.94 E4.344529999999999 F1200.0
M204 S625
M205 X6 Y6
M204 S500
M205 X5 Y5

G0 X102.268 Y93.121 F5400.0 Z0.27
G1 X101.795 Y93.634 E4.356939999999999 F1200.0
G0 X101.795 Y93.634 F5400.0 Z0.27
G1 X101.383 Y94.198 E4.369349999999999 F1200.0
G0 X101.383 Y94.198 F5400.0 Z0.27
G1 X101.039 Y94.804 E4.381739999999999 F1200.0
G0 X101.039 Y94.804 F5400.0 Z0.27
G1 X100.767 Y95.447 E4.394149999999999 F1200.0
G0 X100.767 Y95.447 F5400.0 Z0.27
G1 X100.569 Y96.116 E4.406549999999999 F1200.0
G0 X100.569 Y96.116 F5400.0 Z0.27
G1 X100.45 Y96.803 E4.418949999999999 F1200.0
G0 X100.45 Y96.803 F5400.0 Z0.27
G1 X100.41 Y97.5 E4.431359999999999 F1200.0
G0 X100.41 Y97.5 F5400.0 Z0.27
G1 X100.41 Y117.5 E4.786879999999999 F1200.0
G0 X100.41 Y117.5 F5400.0 Z0.27
G1 X100.43 Y117.99 E4.795589999999999 F1200.0
G0 X100.43 Y117.99 F5400.0 Z0.27
G1 X100.526 Y118.681 E4.807999999999999 F1200.0
G0 X100.526 Y118.681 F5400.0 Z0.27
G1 X100.7 Y119.357 E4.820399999999999 F1200.0
G0 X100.7 Y119.357 F5400.0 Z0.27
G1 X100.951 Y120.008 E4.832809999999999 F1200.0
G0 X100.951 Y120.008 F5400.0 Z0.27
G1 X101.274 Y120.627 E4.845219999999999 F1200.0
G0 X101.274 Y120.627 F5400.0 Z0.27
G1 X101.666 Y121.204 E4.857619999999999 F1200.0
G0 X101.666 Y121.204 F5400.0 Z0.27
G1 X102.121 Y121.732 E4.870009999999999 F1200.0
G0 X102.121 Y121.732 F5400.0 Z0.27
G1 X102.634 Y122.205 E4.882409999999999 F1200.0
G0 X102.634 Y122.205 F5400.0 Z0.27
G1 X103.198 Y122.617 E4.894829999999999 F1200.0
G0 X103.198 Y122.617 F5400.0 Z0.27
G1 X103.804 Y122.961 E4.907209999999999 F1200.0
G0 X103.804 Y122.961 F5400.0 Z0.27
G1 X104.447 Y123.233 E4.919619999999999 F1200.0
G0 X104.447 Y123.233 F5400.0 Z0.27
G1 X105.116 Y123.431 E4.932029999999999 F1200.0
G0 X105.116 Y123.431 F5400.0 Z0.27
G1 X105.803 Y123.55 E4.944419999999999 F1200.0
G0 X105.803 Y123.55 F5400.0 Z0.27
G1 X106.5 Y123.59 E4.956829999999999 F1200.0
G0 X106.5 Y123.59 F5400.0 Z0.27
G1 X126.5 Y123.59 E5.3123499999999995 F1200.0
G0 X126.5 Y123.59 F5400.0 Z0.27
G1 X126.99 Y123.57 E5.321069999999999 F1200.0
G0 X126.99 Y123.57 F5400.0 Z0.27
G1 X127.681 Y123.474 E5.333469999999999 F1200.0
G0 X127.681 Y123.474 F5400.0 Z0.27
G1 X128.357 Y123.3 E5.345879999999999 F1200.0
G0 X128.357 Y123.3 F5400.0 Z0.27
G1 X129.008 Y123.049 E5.358279999999999 F1200.0
G0 X129.008 Y123.049 F5400.0 Z0.27
G1 X129.627 Y122.726 E5.370689999999999 F1200.0
G0 X129.627 Y122.726 F5400.0 Z0.27
G1 X130.204 Y122.334 E5.383089999999999 F1200.0
G0 X130.204 Y122.334 F5400.0 Z0.27
G1 X130.732 Y121.879 E5.395479999999999 F1200.0
G0 X130.732 Y121.879 F5400.0 Z0.27
G1 X131.205 Y121.366 E5.40788 F1200.0
G0 X131.205 Y121.366 F5400.0 Z0.27
G1 X131.617 Y120.802 E5.420299999999999 F1200.0
G0 X131.617 Y120.802 F5400.0 Z0.27
G1 X131.961 Y120.196 E5.432689999999999 F1200.0
G0 X131.961 Y120.196 F5400.0 Z0.27
G1 X132.233 Y119.553 E5.445099999999999 F1200.0
G0 X132.233 Y119.553 F5400.0 Z0.27
G1 X132.431 Y118.884 E5.4575 F1200.0
G0 X132.431 Y118.884 F5400.0 Z0.27
G1 X132.55 Y118.197 E5.4698899999999995 F1200.0
G0 X132.55 Y118.197 F5400.0 Z0.27
G1 X132.59 Y117.5 E5.4822999999999995 F1200.0
G0 X132.59 Y117.5 F5400.0 Z0.27
G1 X132.59 Y97.5 E5.837819999999999 F1200.0
G0 X132.59 Y97.5 F5400.0 Z0.27
G1 X132.57 Y97.01 E5.846539999999999 F1200.0
G0 X132.57 Y97.01 F5400.0 Z0.27
G1 X132.474 Y96.319 E5.85894 F1200.0
G0 X132.474 Y96.319 F5400.0 Z0.27
G1 X132.3 Y95.643 E5.87135 F1200.0
G0 X132.3 Y95.643 F5400.0 Z0.27
G1 X132.049 Y94.992 E5.883749999999999 F1200.0
G0 X132.049 Y94.992 F5400.0 Z0.27
G1 X131.726 Y94.373 E5.896159999999999 F1200.0
G0 X131.726 Y94.373 F5400.0 Z0.27
G1 X131.334 Y93.796 E5.90856 F1200.0
G0 X131.334 Y93.796 F5400.0 Z0.27
G1 X130.879 Y93.268 E5.9209499999999995 F1200.0
G0 X130.879 Y93.268 F5400.0 Z0.27
G1 X130.366 Y92.795 E5.9333599999999995 F1200.0
G0 X130.366 Y92.795 F5400.0 Z0.27
G1 X129.802 Y92.383 E5.9457699999999996 F1200.0
G0 X129.802 Y92.383 F5400.0 Z0.27
G1 X129.196 Y92.039 E5.9581599999999995 F1200.0
G0 X129.196 Y92.039 F5400.0 Z0.27
G1 X128.553 Y91.767 E5.9705699999999995 F1200.0
G0 X128.553 Y91.767 F5400.0 Z0.27
G1 X127.884 Y91.569 E5.982969999999999 F1200.0
G0 X127.884 Y91.569 F5400.0 Z0.27
G1 X127.197 Y91.45 E5.995369999999999 F1200.0
G0 X127.197 Y91.45 F5400.0 Z0.27
G1 X126.5 Y91.41 E6.0077799999999995 F1200.0
G0 X126.5 Y91.41 F5400.0 Z0.27
G1 X106.5 Y91.41 E6.363299999999999 F1200.0
G0 X106.5 Y91.41 F5400.0 Z0.27
G1 X106.01 Y91.43 E6.3720099999999995 F1200.0
G0 X106.01 Y91.43 F5400.0 Z0.27
G1 X105.319 Y91.526 E6.384409999999999 F1200.0
G0 X105.319 Y91.526 F5400.0 Z0.27
G1 X104.643 Y91.7 E6.396819999999999 F1200.0
G0 X104.643 Y91.7 F5400.0 Z0.27
G1 X103.992 Y91.951 E6.409229999999999 F1200.0
G0 X103.992 Y91.951 F5400.0 Z0.27
G1 X103.373 Y92.274 E6.421639999999999 F1200.0
G0 X103.373 Y92.274 F5400.0 Z0.27
G1 X102.796 Y92.666 E6.4340399999999995 F1200.0
G0 X102.796 Y92.666 F5400.0 Z0.27
G1 X102.268 Y93.121 E6.446429999999999 F1200.0
M204 S625
M205 X6 Y6
M204 S500
M205 X5 Y5

G0 X102.21 Y93.792 F5400.0 Z0.27
G1 X101.801 Y94.327 E6.458399999999999 F1200.0
G0 X101.801 Y94.327 F5400.0 Z0.27
G1 X101.458 Y94.906 E6.470369999999999 F1200.0
G0 X101.458 Y94.906 F5400.0 Z0.27
G1 X101.186 Y95.522 E6.482339999999999 F1200.0
G0 X101.186 Y95.522 F5400.0 Z0.27
G1 X100.989 Y96.165 E6.4942899999999995 F1200.0
G0 X100.989 Y96.165 F5400.0 Z0.27
