;FLAVOR:Marlin
;TIME:1875
;Filament used: 1.30029m
;Layer height: 0.14
;MINX:-17.875
;MINY:-17.875
;MINZ:0.21
;MAXX:17.875
;MAXY:17.875
;MAXZ:19.95
;Generated with Cura_SteamEngine 4.3.0
M140 S65
M105
M190 S65
M104 S205
M105
M109 S205
M82 ;absolute extrusion mode
;Calibration part starts here 
;M92 X57.14 Y57.14 Z57.14 ; If running V37-V41 or V45, uncomment this line and delete the one below 
;M92 X114.28 Y114.28 Z114.28 ; If running V43 or V44, uncomment this line and delete the one above 
M666 X0 Y0 Z0 ; Add your endstop values here after calibration 
M665 L120.80 R61.70 ; Sets default Delta Radius (change when calibrating) 
M301 P45.00 I0.07 D1000 ; Hot end settings 
M304 P100 I0 D0 ; Bed heater settings 
M500 ; Save settings 
; Calibration part ends here 
 
G90 ; switch to absolute positioning 
G92 E0 ; reset extrusion distance 
G1 E20 F200 ; purge 20mm of filament to prime nozzle. 
G92 E0 ; reset extrusion distance 
G4 S5 ; Pause for 5 seconds to allow time for removing extruded filament 
G28 ; start from home position 
G1 E-6 F900 ; retract 6mm of filament before starting the bed leveling process 
G92 E0 ; reset extrusion distance 
G4 S5 ; pause for 5 seconds to allow time for removing extruded filament 
G29 P4 Z0.28 ; Auto-level ; ADJUST Z higher or lower to set first layer height. Start with 0.02 adjustments. 
G1 Z30 ; raise Z 30mm to prepare for priming the nozzle 
G1 E5 F200 ; extrude 5mm of filament to help prime the nozzle just prior to the start of the print 
G92 E0 ; reset extrusion distance 
G4 S5 ; pause for 5 seconds to allow time for cleaning the nozzle and build plate if needed 
G92 E0
G92 E0
G1 F3000 E-4
;LAYER_COUNT:142
;LAYER:0
M107
G0 F3600 X17.875 Y-10 Z0.21
;TYPE:SKIRT
G1 F3000 E0
G1 F1800 X17.875 Y10 E0.61115
G1 X17.835 Y10.792 E0.63539
G1 X17.716 Y11.577 E0.65965
G1 X17.518 Y12.345 E0.68389
G1 X17.243 Y13.09 E0.70815
G1 X16.896 Y13.803 E0.73238
G1 X16.478 Y14.478 E0.75664
G1 X15.995 Y15.107 E0.78088
G1 X15.45 Y15.684 E0.80513
G1 X14.851 Y16.204 E0.82937
G1 X14.202 Y16.66 E0.85361
G1 X13.51 Y17.049 E0.87787
G1 X12.783 Y17.367 E0.90211
G1 X12.027 Y17.61 E0.92638
G1 X11.251 Y17.775 E0.95062
G1 X10.463 Y17.861 E0.97485
G1 X10 Y17.875 E0.989
G1 X-10 Y17.875 E1.60016
G1 X-10.792 Y17.835 E1.62439
G1 X-11.577 Y17.716 E1.64865
G1 X-12.345 Y17.518 E1.67289
G1 X-13.09 Y17.243 E1.69715
G1 X-13.803 Y16.896 E1.72138
G1 X-14.478 Y16.478 E1.74564
G1 X-15.107 Y15.995 E1.76988
G1 X-15.684 Y15.45 E1.79413
G1 X-16.204 Y14.851 E1.81837
G1 X-16.66 Y14.202 E1.84261
G1 X-17.049 Y13.51 E1.86687
G1 X-17.367 Y12.783 E1.89111
G1 X-17.61 Y12.027 E1.91538
G1 X-17.775 Y11.251 E1.93962
G1 X-17.861 Y10.463 E1.96385
G1 X-17.875 Y10 E1.978
G1 X-17.875 Y-10 E2.58916
G1 X-17.835 Y-10.792 E2.61339
G1 X-17.716 Y-11.577 E2.63765
G1 X-17.518 Y-12.345 E2.66189
G1 X-17.243 Y-13.09 E2.68615
G1 X-16.896 Y-13.803 E2.71038
G1 X-16.478 Y-14.478 E2.73464
G1 X-15.995 Y-15.107 E2.75888
G1 X-15.45 Y-15.684 E2.78313
G1 X-14.851 Y-16.204 E2.80737
G1 X-14.202 Y-16.66 E2.83161
G1 X-13.51 Y-17.049 E2.85587
G1 X-12.783 Y-17.367 E2.88011
G1 X-12.027 Y-17.61 E2.90438
G1 X-11.251 Y-17.775 E2.92862
G1 X-10.463 Y-17.861 E2.95285
G1 X-10 Y-17.875 E2.967
G1 X10 Y-17.875 E3.57816
G1 X10.792 Y-17.835 E3.60239
G1 X11.577 Y-17.716 E3.62665
G1 X12.345 Y-17.518 E3.65089
G1 X13.09 Y-17.243 E3.67515
G1 X13.803 Y-16.896 E3.69938
G1 X14.478 Y-16.478 E3.72365
G1 X15.107 Y-15.995 E3.74788
G1 X15.684 Y-15.45 E3.77213
G1 X16.204 Y-14.851 E3.79637
G1 X16.66 Y-14.202 E3.82061
G1 X17.049 Y-13.51 E3.84487
G1 X17.367 Y-12.783 E3.86912
G1 X17.61 Y-12.027 E3.89338
G1 X17.775 Y-11.251 E3.91762
G1 X17.818 Y-10.865 E3.92949
G0 F1620 X17.861 Y-10.463
G0 X17.875 Y-10
G0 F3600 X17.525 Y-10
G1 F1800 X17.525 Y10 E4.54065
G1 X17.485 Y10.775 E4.56436
G1 X17.366 Y11.541 E4.58805
G1 X17.168 Y12.291 E4.61175
G1 X16.894 Y13.017 E4.63546
G1 X16.547 Y13.71 E4.65915
G1 X16.13 Y14.364 E4.68285
G1 X15.648 Y14.972 E4.70656
G1 X15.106 Y15.527 E4.73026
G1 X14.51 Y16.024 E4.75398
G1 X13.866 Y16.456 E4.77767
G1 X13.181 Y16.819 E4.80136
G1 X12.462 Y17.111 E4.82508
G1 X11.717 Y17.326 E4.84877
G1 X10.954 Y17.464 E4.87247
G1 X10 Y17.525 E4.90168
G1 X-10 Y17.525 E5.51283
G1 X-10.775 Y17.485 E5.53655
G1 X-11.541 Y17.366 E5.56023
G1 X-12.291 Y17.168 E5.58394
G1 X-13.017 Y16.894 E5.60765
G1 X-13.71 Y16.547 E5.63133
G1 X-14.364 Y16.13 E5.65503
G1 X-14.972 Y15.648 E5.67874
G1 X-15.527 Y15.106 E5.70245
G1 X-16.024 Y14.51 E5.72616
G1 X-16.456 Y13.866 E5.74986
G1 X-16.819 Y13.181 E5.77355
G1 X-17.111 Y12.462 E5.79726
G1 X-17.326 Y11.717 E5.82096
G1 X-17.464 Y10.954 E5.84465
G1 X-17.525 Y10 E5.87386
G1 X-17.525 Y-10 E6.48502
G1 X-17.485 Y-10.775 E6.50873
G1 X-17.366 Y-11.541 E6.53242
G1 X-17.168 Y-12.291 E6.55612
G1 X-16.894 Y-13.017 E6.57984
G1 X-16.547 Y-13.71 E6.60352
G1 X-16.13 Y-14.364 E6.62722
G1 X-15.648 Y-14.972 E6.65093
G1 X-15.106 Y-15.527 E6.67463
G1 X-14.51 Y-16.024 E6.69835
G1 X-13.866 Y-16.456 E6.72204
G1 X-13.181 Y-16.819 E6.74573
G1 X-12.462 Y-17.111 E6.76945
G1 X-11.717 Y-17.326 E6.79314
G1 X-10.954 Y-17.464 E6.81684
G1 X-10 Y-17.525 E6.84605
G1 X10 Y-17.525 E7.4572
G1 X10.775 Y-17.485 E7.48092
G1 X11.541 Y-17.366 E7.5046
G1 X12.291 Y-17.168 E7.52831
G1 X13.017 Y-16.894 E7.55202
G1 X13.71 Y-16.547 E7.5757
G1 X14.364 Y-16.13 E7.59941
G1 X14.972 Y-15.648 E7.62311
G1 X15.527 Y-15.106 E7.64682
G1 X16.024 Y-14.51 E7.67053
G1 X16.456 Y-13.866 E7.69423
G1 X16.819 Y-13.181 E7.71792
G1 X17.111 Y-12.462 E7.74163
G1 X17.326 Y-11.717 E7.76533
G1 X17.464 Y-10.954 E7.78902
G1 X17.47 Y-10.867 E7.79169
G0 F1620 X17.525 Y-10
G0 F3600 X17.175 Y-10
G1 F1800 X17.175 Y10 E8.40284
G1 X17.135 Y10.756 E8.42598
G1 X17.016 Y11.504 E8.44912
G1 X16.818 Y12.235 E8.47226
G1 X16.544 Y12.942 E8.49543
G1 X16.198 Y13.615 E8.51856
G1 X15.782 Y14.248 E8.5417
G1 X15.302 Y14.834 E8.56485
G1 X14.763 Y15.366 E8.58799
G1 X14.171 Y15.838 E8.61113
G1 X13.532 Y16.245 E8.63428
G1 X12.854 Y16.583 E8.65743
G1 X12.145 Y16.847 E8.68055
G1 X11.411 Y17.035 E8.7037
G1 X10.662 Y17.144 E8.72683
G1 X10 Y17.175 E8.74708
G1 X-10 Y17.175 E9.35824
G1 X-10.756 Y17.135 E9.38137
G1 X-11.504 Y17.016 E9.40452
G1 X-12.235 Y16.818 E9.42766
G1 X-12.942 Y16.544 E9.45083
G1 X-13.615 Y16.198 E9.47395
G1 X-14.248 Y15.782 E9.4971
G1 X-14.834 Y15.302 E9.52025
G1 X-15.366 Y14.763 E9.54339
G1 X-15.838 Y14.171 E9.56652
G1 X-16.245 Y13.532 E9.58968
G1 X-16.583 Y12.854 E9.61282
G1 X-16.847 Y12.145 E9.63594
G1 X-17.035 Y11.411 E9.6591
G1 X-17.144 Y10.662 E9.68223
G1 X-17.175 Y10 E9.70248
G1 X-17.175 Y-10 E10.31363
G1 X-17.135 Y-10.756 E10.33677
G1 X-17.016 Y-11.504 E10.35991
G1 X-16.818 Y-12.235 E10.38305
G1 X-16.544 Y-12.942 E10.40622
G1 X-16.198 Y-13.615 E10.42935
G1 X-15.782 Y-14.248 E10.45249
G1 X-15.302 Y-14.834 E10.47564
G1 X-14.763 Y-15.366 E10.49878
G1 X-14.171 Y-15.838 E10.52192
G1 X-13.532 Y-16.245 E10.54507
G1 X-12.854 Y-16.583 E10.56822
G1 X-12.145 Y-16.847 E10.59134
G1 X-11.411 Y-17.035 E10.61449
G1 X-10.662 Y-17.144 E10.63762
G1 X-10 Y-17.175 E10.65787
G1 X10 Y-17.175 E11.26903
G1 X10.756 Y-17.135 E11.29216
G1 X11.504 Y-17.016 E11.31531
G1 X12.235 Y-16.818 E11.33845
G1 X12.942 Y-16.544 E11.36162
G1 X13.615 Y-16.198 E11.38474
G1 X14.248 Y-15.782 E11.40789
G1 X14.834 Y-15.302 E11.43104
G1 X15.366 Y-14.763 E11.45418
G1 X15.838 Y-14.171 E11.47732
G1 X16.245 Y-13.532 E11.50047
G1 X16.583 Y-12.854 E11.52362
G1 X16.847 Y-12.145 E11.54673
G1 X17.035 Y-11.411 E11.56989
G1 X17.115 Y-10.866 E11.58672
G0 F1620 X17.144 Y-10.662
G0 X17.175 Y-10
G0 F3600 X16.825 Y-10
G1 F1800 X16.825 Y10 E12.19788
G1 X16.785 Y10.738 E12.22046
G1 X16.666 Y11.466 E12.243
G1 X16.468 Y12.178 E12.26558
G1 X16.195 Y12.864 E12.28815
G1 X15.849 Y13.517 E12.31073
G1 X15.435 Y14.129 E12.33331
G1 X14.957 Y14.692 E12.35587
G1 X14.421 Y15.2 E12.37844
G1 X13.833 Y15.647 E12.40101
G1 X13.2 Y16.028 E12.42359
G1 X12.53 Y16.339 E12.44616
G1 X11.83 Y16.575 E12.46873
G1 X11.109 Y16.734 E12.49129
G1 X10.374 Y16.815 E12.51389
G1 X10 Y16.825 E12.52532
G1 X-10 Y16.825 E13.13648
G1 X-10.738 Y16.785 E13.15906
G1 X-11.466 Y16.666 E13.1816
G1 X-12.178 Y16.468 E13.20419
G1 X-12.864 Y16.195 E13.22675
G1 X-13.517 Y15.849 E13.24933
G1 X-14.129 Y15.435 E13.27191
G1 X-14.692 Y14.957 E13.29448
G1 X-15.2 Y14.421 E13.31704
G1 X-15.647 Y13.833 E13.33961
G1 X-16.028 Y13.2 E13.36219
G1 X-16.339 Y12.53 E13.38476
G1 X-16.575 Y11.83 E13.40734
G1 X-16.734 Y11.109 E13.4299
G1 X-16.815 Y10.374 E13.45249
G1 X-16.825 Y10 E13.46393
G1 X-16.825 Y-10 E14.07508
G1 X-16.785 Y-10.738 E14.09767
G1 X-16.666 Y-11.466 E14.12021
G1 X-16.468 Y-12.178 E14.14279
G1 X-16.195 Y-12.864 E14.16535
G1 X-15.849 Y-13.517 E14.18793
G1 X-15.435 Y-14.129 E14.21051
G1 X-14.957 Y-14.692 E14.23308
G1 X-14.421 Y-15.2 E14.25565
G1 X-13.833 Y-15.647 E14.27822
G1 X-13.2 Y-16.028 E14.30079
G1 X-12.53 Y-16.339 E14.32337
G1 X-11.83 Y-16.575 E14.34594
G1 X-11.109 Y-16.734 E14.3685
G1 X-10.374 Y-16.815 E14.3911
G1 X-10 Y-16.825 E14.40253
G1 X10 Y-16.825 E15.01368
G1 X10.738 Y-16.785 E15.03627
G1 X11.466 Y-16.666 E15.05881
G1 X12.178 Y-16.468 E15.08139
G1 X12.864 Y-16.195 E15.10395
G1 X13.517 Y-15.849 E15.12654
G1 X14.129 Y-15.435 E15.14912
G1 X14.692 Y-14.957 E15.17168
G1 X15.2 Y-14.421 E15.19425
G1 X15.647 Y-13.833 E15.21682
G1 X16.028 Y-13.2 E15.2394
G1 X16.339 Y-12.53 E15.26197
G1 X16.575 Y-11.83 E15.28454
G1 X16.734 Y-11.109 E15.3071
G1 X16.761 Y-10.865 E15.31461
G0 F1620 X16.815 Y-10.374
G0 X16.825 Y-10
G0 F3600 X16.475 Y-10
G1 F1800 X16.475 Y10 E15.92576
G1 X16.435 Y10.718 E15.94774
G1 X16.316 Y11.428 E15.96973
G1 X16.118 Y12.12 E15.99173
G1 X15.845 Y12.785 E16.0137
G1 X15.5 Y13.417 E16.0357
G1 X15.087 Y14.006 E16.05768
G1 X14.611 Y14.545 E16.07965
G1 X14.079 Y15.029 E16.10163
G1 X13.496 Y15.45 E16.12361
G1 X12.869 Y15.804 E16.14561
G1 X12.208 Y16.087 E16.16758
G1 X11.519 Y16.294 E16.18956
G1 X10.811 Y16.424 E16.21156
G1 X10 Y16.475 E16.23639
G1 X-10 Y16.475 E16.84755
G1 X-10.718 Y16.435 E16.86952
G1 X-11.428 Y16.316 E16.89152
G1 X-12.12 Y16.118 E16.91352
G1 X-12.785 Y15.845 E16.93548
G1 X-13.417 Y15.5 E16.95748
G1 X-14.006 Y15.087 E16.97947
G1 X-14.545 Y14.611 E17.00144
G1 X-15.029 Y14.079 E17.02342
G1 X-15.45 Y13.496 E17.04539
G1 X-15.804 Y12.869 E17.0674
G1 X-16.087 Y12.208 E17.08937
G1 X-16.294 Y11.519 E17.11135
G1 X-16.424 Y10.811 E17.13335
G1 X-16.475 Y10 E17.15818
G1 X-16.475 Y-10 E17.76933
G1 X-16.435 Y-10.718 E17.79131
G1 X-16.316 Y-11.428 E17.81331
G1 X-16.118 Y-12.12 E17.8353
G1 X-15.845 Y-12.785 E17.85727
G1 X-15.5 Y-13.417 E17.87927
G1 X-15.087 Y-14.006 E17.90125
G1 X-14.611 Y-14.545 E17.92323
G1 X-14.079 Y-15.029 E17.94521
G1 X-13.496 Y-15.45 E17.96718
G1 X-12.869 Y-15.804 E17.98918
G1 X-12.208 Y-16.087 E18.01115
G1 X-11.519 Y-16.294 E18.03314
G1 X-10.811 Y-16.424 E18.05514
G1 X-10 Y-16.475 E18.07997
G1 X10 Y-16.475 E18.69112
G1 X10.718 Y-16.435 E18.7131
G1 X11.428 Y-16.316 E18.73509
G1 X12.12 Y-16.118 E18.75709
G1 X12.785 Y-15.845 E18.77906
G1 X13.417 Y-15.5 E18.80106
G1 X14.006 Y-15.087 E18.82304
G1 X14.545 Y-14.611 E18.84501
G1 X15.029 Y-14.079 E18.86699
G1 X15.45 Y-13.496 E18.88897
G1 X15.804 Y-12.869 E18.91097
G1 X16.087 Y-12.208 E18.93294
G1 X16.294 Y-11.519 E18.95493
G1 X16.414 Y-10.866 E18.97521
G0 F1620 X16.424 Y-10.811
G0 X16.475 Y-10
G0 F3600 X16.125 Y-10
G1 F1800 X16.125 Y10 E19.58637
G1 X16.085 Y10.699 E19.60776
G1 X15.966 Y11.388 E19.62913
G1 X15.768 Y12.059 E19.65051
G1 X15.496 Y12.704 E19.6719
G1 X15.152 Y13.313 E19.69327
G1 X14.74 Y13.879 E19.71466
G1 X14.267 Y14.394 E19.73603
G1 X13.738 Y14.852 E19.75741
G1 X13.16 Y15.247 E19.77881
G1 X12.541 Y15.573 E19.80018
G1 X11.889 Y15.827 E19.82157
G1 X11.212 Y16.004 E19.84295
G1 X10.519 Y16.103 E19.86434
G1 X10 Y16.125 E19.88022
G1 X-10 Y16.125 E20.49137
G1 X-10.699 Y16.085 E20.51276
G1 X-11.388 Y15.966 E20.53413
G1 X-12.059 Y15.768 E20.55551
G1 X-12.704 Y15.496 E20.5769
G1 X-13.313 Y15.152 E20.59827
G1 X-13.879 Y14.74 E20.61967
G1 X-14.394 Y14.267 E20.64103
G1 X-14.852 Y13.738 E20.66242
G1 X-15.247 Y13.16 E20.68381
G1 X-15.573 Y12.541 E20.70519
G1 X-15.827 Y11.889 E20.72657
G1 X-16.004 Y11.212 E20.74795
G1 X-16.103 Y10.519 E20.76934
G1 X-16.125 Y10 E20.78522
G1 X-16.125 Y-10 E21.39637
G1 X-16.085 Y-10.699 E21.41777
G1 X-15.966 Y-11.388 E21.43913
G1 X-15.768 Y-12.059 E21.46051
G1 X-15.496 Y-12.704 E21.4819
G1 X-15.152 Y-13.313 E21.50327
G1 X-14.74 Y-13.879 E21.52467
G1 X-14.267 Y-14.394 E21.54603
G1 X-13.738 Y-14.852 E21.56742
G1 X-13.16 Y-15.247 E21.58881
G1 X-12.541 Y-15.573 E21.61019
G1 X-11.889 Y-15.827 E21.63157
G1 X-11.212 Y-16.004 E21.65295
G1 X-10.519 Y-16.103 E21.67434
G1 X-10 Y-16.125 E21.69022
G1 X10 Y-16.125 E22.30137
G1 X10.699 Y-16.085 E22.32277
G1 X11.388 Y-15.966 E22.34413
G1 X12.059 Y-15.768 E22.36551
G1 X12.704 Y-15.496 E22.3869
G1 X13.313 Y-15.152 E22.40828
G1 X13.879 Y-14.74 E22.42967
G1 X14.394 Y-14.267 E22.45104
G1 X14.852 Y-13.738 E22.47242
G1 X15.247 Y-13.16 E22.49381
G1 X15.573 Y-12.541 E22.51519
G1 X15.827 Y-11.889 E22.53657
G1 X16.004 Y-11.212 E22.55795
G1 X16.054 Y-10.864 E22.5687
G0 F1620 X16.103 Y-10.519
G0 X16.125 Y-10
G0 F3600 X15.775 Y-10
G1 F1800 X15.775 Y10 E23.17985
G1 X15.735 Y10.678 E23.20061
G1 X15.616 Y11.347 E23.22137
G1 X15.419 Y11.997 E23.24212
G1 X15.147 Y12.62 E23.2629
G1 X14.803 Y13.206 E23.28366
G1 X14.393 Y13.748 E23.30443
G1 X13.923 Y14.238 E23.32518
G1 X13.398 Y14.669 E23.34593
G1 X12.826 Y15.036 E23.3667
G1 X12.215 Y15.333 E23.38746
G1 X11.573 Y15.557 E23.40824
G1 X10.91 Y15.703 E23.42898
G1 X10 Y15.775 E23.45688
G1 X-10 Y15.775 E24.06803
G1 X-10.678 Y15.735 E24.08879
G1 X-11.347 Y15.616 E24.10955
G1 X-11.997 Y15.419 E24.13031
G1 X-12.62 Y15.147 E24.15108
G1 X-13.206 Y14.803 E24.17184
G1 X-13.748 Y14.393 E24.19261
G1 X-14.238 Y13.923 E24.21336
G1 X-14.669 Y13.398 E24.23411
G1 X-15.036 Y12.826 E24.25488
G1 X-15.333 Y12.215 E24.27564
G1 X-15.557 Y11.573 E24.29642
G1 X-15.703 Y10.91 E24.31716
G1 X-15.775 Y10 E24.34506
G1 X-15.775 Y-10 E24.95621
G1 X-15.735 Y-10.678 E24.97697
G1 X-15.616 Y-11.347 E24.99773
G1 X-15.419 Y-11.997 E25.01849
G1 X-15.147 Y-12.62 E25.03926
G1 X-14.803 Y-13.206 E25.06002
G1 X-14.393 Y-13.748 E25.08079
G1 X-13.923 Y-14.238 E25.10154
G1 X-13.398 Y-14.669 E25.1223
G1 X-12.826 Y-15.036 E25.14306
G1 X-12.215 Y-15.333 E25.16382
G1 X-11.573 Y-15.557 E25.1846
G1 X-10.91 Y-15.703 E25.20535
G1 X-10 Y-15.775 E25.23324
G1 X10 Y-15.775 E25.8444
G1 X10.678 Y-15.735 E25.86515
G1 X11.347 Y-15.616 E25.88591
G1 X11.997 Y-15.419 E25.90667
G1 X12.62 Y-15.147 E25.92744
G1 X13.206 Y-14.803 E25.94821
G1 X13.748 Y-14.393 E25.96897
G1 X14.238 Y-13.923 E25.98972
G1 X14.669 Y-13.398 E26.01048
G1 X15.036 Y-12.826 E26.03124
G1 X15.333 Y-12.215 E26.052
G1 X15.557 Y-11.573 E26.07278
G1 X15.703 Y-10.91 E26.09353
G1 X15.707 Y-10.866 E26.09488
G0 F1620 X15.775 Y-10
G0 F3600 X15.425 Y-10
G1 F1800 X15.425 Y10 E26.70603
G1 X15.385 Y10.657 E26.72615
G1 X15.266 Y11.305 E26.74628
G1 X15.069 Y11.933 E26.76639
G1 X14.797 Y12.533 E26.78652
G1 X14.455 Y13.096 E26.80665
G1 X14.047 Y13.613 E26.82678
G1 X13.58 Y14.076 E26.84687
G1 X13.059 Y14.48 E26.86702
G1 X12.494 Y14.818 E26.88714
G1 X11.892 Y15.084 E26.90725
G1 X11.262 Y15.276 E26.92737
G1 X10.614 Y15.39 E26.94748
G1 X10 Y15.425 E26.96627
G1 X-10 Y15.425 E27.57743
G1 X-10.657 Y15.385 E27.59754
G1 X-11.305 Y15.266 E27.61767
G1 X-11.933 Y15.069 E27.63779
G1 X-12.533 Y14.797 E27.65792
G1 X-13.096 Y14.455 E27.67805
G1 X-13.613 Y14.047 E27.69817
G1 X-14.076 Y13.58 E27.71827
G1 X-14.48 Y13.059 E27.73841
G1 X-14.818 Y12.494 E27.75853
G1 X-15.084 Y11.892 E27.77864
G1 X-15.276 Y11.262 E27.79877
G1 X-15.39 Y10.614 E27.81887
G1 X-15.425 Y10 E27.83767
G1 X-15.425 Y-10 E28.44882
