;FLAVOR:Marlin
;TIME:2394
;Filament used: 1.58743m
;Layer height: 0.13125
;MINX:40.175
;MINY:40.174
;MINZ:0.306
;MAXX:69.825
;MAXY:69.825
;MAXZ:20.701
;Generated with Cura_SteamEngine 4.3.0
M140 S60
M105
M190 S60
M104 S205
M105
M109 S205
M82 ;absolute extrusion mode
G21;(metric values)
G90;(absolute positioning)
M82;(set extruder to absolute mode)
M107;(start with the fan off)
G28;(Home the printer)
G92 E0;(Reset the extruder to 0)
G0 Z5 E5 F500;(Move up and prime the nozzle)
G0 X-1 Z0;(Move outside the printable area)
G1 Y60 E8 F500;(Draw a priming/wiping line to the rear)
G1 X-1;(Move a little closer to the print area)
G1 Y10 E16 F500;(draw more priming/wiping)
G1 E15 F250;(Small retract)
G92 E0;(Zero the extruder)
G92 E0
G92 E0
G1 F2400 E-4.5
;LAYER_COUNT:151
;LAYER:-6
M107
G0 F7200 X41.779 Y41.727 Z0.306
;TYPE:SUPPORT-INTERFACE
G1 F2400 E0
G1 F1125 X41.981 Y41.54 E0.02802
G1 X42.211 Y41.352 E0.05825
G1 X42.439 Y41.188 E0.08683
G1 X42.698 Y41.026 E0.11793
G1 X42.937 Y40.898 E0.14552
G1 X43.212 Y40.771 E0.17635
G1 X43.473 Y40.669 E0.20487
G1 X43.776 Y40.574 E0.23719
G1 X43.997 Y40.52 E0.26034
G1 X44.353 Y40.46 E0.29708
G1 X44.907 Y40.41 E0.353
G1 X45.129 Y40.4 E0.37631
G1 X65.05 Y40.404 E2.40379
G1 X65.427 Y40.428 E2.44224
G1 X65.725 Y40.465 E2.4728
G1 X66.009 Y40.52 E2.50224
G1 X66.3 Y40.596 E2.53285
G1 X66.558 Y40.68 E2.56047
G1 X66.837 Y40.791 E2.59103
G1 X67.095 Y40.913 E2.62008
G1 X67.353 Y41.056 E2.6501
G1 X67.592 Y41.208 E2.67892
G1 X67.839 Y41.39 E2.71015
G1 X68.04 Y41.559 E2.73688
G1 X68.273 Y41.779 E2.76949
G1 X68.46 Y41.981 E2.79751
G1 X68.648 Y42.211 E2.82774
G1 X68.812 Y42.439 E2.85633
G1 X68.974 Y42.698 E2.88742
G1 X69.102 Y42.937 E2.91501
G1 X69.229 Y43.212 E2.94584
G1 X69.331 Y43.473 E2.97436
G1 X69.426 Y43.776 E3.00668
G1 X69.48 Y43.997 E3.02983
G1 X69.54 Y44.353 E3.06658
G1 X69.59 Y44.907 E3.12319
G1 X69.6 Y45.129 E3.14581
G1 X69.596 Y65.05 E5.17329
G1 X69.572 Y65.427 E5.21173
G1 X69.535 Y65.725 E5.24229
G1 X69.48 Y66.009 E5.27174
G1 X69.404 Y66.3 E5.30235
G1 X69.32 Y66.558 E5.32996
G1 X69.209 Y66.837 E5.36052
G1 X69.087 Y67.095 E5.38957
G1 X68.944 Y67.353 E5.41959
G1 X68.792 Y67.592 E5.44842
G1 X68.619 Y67.827 E5.47812
G1 X68.438 Y68.044 E5.50688
G1 X68.224 Y68.27 E5.53855
G1 X68.019 Y68.46 E5.567
G1 X67.789 Y68.648 E5.59723
G1 X67.561 Y68.812 E5.62582
G1 X67.302 Y68.974 E5.65691
G1 X67.063 Y69.102 E5.6845
G1 X66.788 Y69.229 E5.71533
G1 X66.527 Y69.331 E5.74385
G1 X66.224 Y69.426 E5.77617
G1 X66.003 Y69.48 E5.79932
G1 X65.647 Y69.54 E5.83607
G1 X65.093 Y69.59 E5.89268
G1 X64.871 Y69.6 E5.9153
G1 X45.076 Y69.6 E7.92995
G1 X44.573 Y69.572 E7.98123
G1 X44.275 Y69.535 E8.01179
G1 X43.991 Y69.48 E8.04123
G1 X43.7 Y69.404 E8.07184
G1 X43.44 Y69.319 E8.09968
G1 X43.163 Y69.209 E8.13001
G1 X42.904 Y69.086 E8.1592
G1 X42.647 Y68.944 E8.18908
G1 X42.408 Y68.792 E8.21791
G1 X42.161 Y68.61 E8.24913
G1 X41.96 Y68.441 E8.27586
G1 X41.727 Y68.221 E8.30847
G1 X41.54 Y68.019 E8.33649
G1 X41.348 Y67.784 E8.36737
G1 X41.188 Y67.561 E8.39531
G1 X41.026 Y67.302 E8.4264
G1 X40.898 Y67.063 E8.45399
G1 X40.771 Y66.788 E8.48482
G1 X40.669 Y66.527 E8.51334
G1 X40.574 Y66.224 E8.54566
G1 X40.518 Y65.995 E8.56965
G1 X40.46 Y65.647 E8.60556
G1 X40.41 Y65.093 E8.66217
G1 X40.4 Y64.871 E8.68479
G1 X40.404 Y44.95 E10.71227
G1 X40.428 Y44.573 E10.75072
G1 X40.465 Y44.275 E10.78128
G1 X40.52 Y43.991 E10.81072
G1 X40.596 Y43.7 E10.84133
G1 X40.68 Y43.442 E10.86895
G1 X40.791 Y43.163 E10.89951
G1 X40.913 Y42.905 E10.92855
G1 X41.059 Y42.642 E10.95917
G1 X41.208 Y42.408 E10.9874
G1 X41.39 Y42.161 E11.01863
G1 X41.559 Y41.96 E11.04535
G1 X41.6 Y41.917 E11.0514
G0 F1012.5 X41.779 Y41.727
G0 F7200 X41.6 Y41.916
G1 F1125 X41.6 Y68.083 E13.71457
G0 F7200 X43.2 Y69.223
G1 F1125 X43.2 Y40.776 E16.6098
G0 F7200 X44.8 Y40.419
G1 F1125 X44.8 Y69.584 E19.57809
G0 F7200 X46.4 Y69.6
G1 F1125 X46.4 Y40.401 E22.54985
G0 F7200 X48 Y40.401
G1 F1125 X48 Y69.6 E25.52161
G0 F7200 X49.6 Y69.6
G1 F1125 X49.6 Y40.401 E28.49337
G0 F7200 X51.2 Y40.402
G1 F1125 X51.2 Y69.6 E31.46502
G0 F7200 X52.8 Y69.6
G1 F1125 X52.8 Y40.402 E34.43668
G0 F7200 X54.4 Y40.402
G1 F1125 X54.4 Y69.6 E37.40834
G0 F7200 X56 Y69.6
G1 F1125 X56 Y40.403 E40.37989
G0 F7200 X57.6 Y40.403
G1 F1125 X57.6 Y69.6 E43.35144
G0 F7200 X59.2 Y69.6
G1 F1125 X59.2 Y40.403 E46.323
G0 F7200 X60.8 Y40.404
G1 F1125 X60.8 Y69.6 E49.29445
G0 F7200 X62.4 Y69.6
G1 F1125 X62.4 Y40.404 E52.2659
G0 F7200 X64 Y40.404
G1 F1125 X64 Y69.6 E55.23736
G0 F7200 X65.6 Y69.545
G1 F1125 X65.6 Y40.45 E58.19853
G0 F7200 X67.2 Y40.972
G1 F1125 X67.2 Y69.029 E61.05406
G0 F7200 X68.8 Y67.58
M104 S200
G1 F1125 X68.8 Y42.423 E63.61444
G0 F600 X68.8 Y42.423 Z0.525
G0 F7200 X69.528 Y43.99
;TIME_ELAPSED:61.697813
;LAYER:-5
M140 S60
;TYPE:SUPPORT
G1 F1125 X69.47 Y43.751 E63.63011
G1 X69.377 Y43.455 E63.64989
G1 X69.28 Y43.204 E63.66704
G1 X69.141 Y42.905 E63.68805
G1 X69.017 Y42.676 E63.70465
G1 X68.85 Y42.407 E63.72483
G1 X68.691 Y42.185 E63.74223
G1 X68.499 Y41.951 E63.76153
G1 X68.29 Y41.725 E63.78114
G1 X68.089 Y41.536 E63.79873
G1 X67.865 Y41.347 E63.81741
G1 X67.62 Y41.167 E63.83678
G1 X67.375 Y41.011 E63.8553
G1 X67.124 Y40.873 E63.87355
G1 X66.843 Y40.738 E63.89342
G1 X66.596 Y40.64 E63.91036
G1 X66.311 Y40.548 E63.92945
G1 X66.014 Y40.469 E63.94903
G1 X65.905 Y40.449 E63.9561
G1 X69.545 Y44.089 E64.28419
G1 X69.587 Y44.336 E64.30015
G1 X69.639 Y44.904 E64.33651
G1 X69.649 Y45.126 E64.35067
G1 X69.649 Y45.466 E64.37234
G1 X64.536 Y40.353 E64.8332
G1 X63.264 Y40.353 E64.91427
G1 X69.649 Y46.739 E65.48982
G1 X69.649 Y48.011 E65.57089
G1 X61.991 Y40.353 E66.26114
G1 X60.717 Y40.353 E66.34234
G1 X69.648 Y49.283 E67.14729
G1 X69.648 Y50.556 E67.22842
G1 X59.445 Y40.353 E68.14806
G1 X58.172 Y40.353 E68.2292
G1 X69.647 Y51.828 E69.26349
G1 X69.647 Y53.101 E69.34463
G1 X56.898 Y40.352 E70.49375
G1 X55.625 Y40.352 E70.57489
G1 X69.647 Y54.374 E71.83875
G1 X69.647 Y55.646 E71.91982
G1 X54.353 Y40.352 E73.29834
G1 X53.079 Y40.351 E73.37954
G1 X69.647 Y56.919 E74.87289
G1 X69.647 Y58.192 E74.95402
G1 X51.806 Y40.351 E76.56211
G1 X50.534 Y40.351 E76.64318
G1 X69.646 Y59.464 E78.36588
G1 X69.646 Y60.736 E78.44695
G1 X49.261 Y40.351 E80.28434
G1 X47.987 Y40.351 E80.36554
G1 X69.645 Y62.009 E82.31767
G1 X69.645 Y63.281 E82.39874
G1 X46.715 Y40.351 E84.46553
G1 X45.442 Y40.351 E84.54666
G1 X69.645 Y64.554 E86.72819
G1 X69.645 Y65.051 E86.75986
G1 X69.621 Y65.434 E86.78432
G1 X69.584 Y65.722 E86.80283
G1 X69.578 Y65.76 E86.80528
G1 X44.246 Y40.428 E89.08857
G1 X43.989 Y40.47 E89.10517
G1 X43.751 Y40.528 E89.12078
G1 X43.455 Y40.622 E89.14057
G1 X43.248 Y40.702 E89.15472
G1 X69.297 Y66.751 E91.50263
G1 X69.26 Y66.843 E91.50895
G1 X69.126 Y67.124 E91.52879
G1 X68.986 Y67.375 E91.54711
G1 X68.855 Y67.583 E91.56278
G1 X42.416 Y41.143 E93.94589
G1 X42.407 Y41.148 E93.94655
G1 X42.185 Y41.308 E93.96399
G1 X41.951 Y41.5 E93.98328
G1 X41.725 Y41.708 E94.00285
G1 X41.717 Y41.717 E94.00362
G1 X68.282 Y68.282 E96.39804
G1 X68.273 Y68.29 E96.39881
G1 X68.048 Y68.499 E96.41838
G1 X67.815 Y68.69 E96.43759
G1 X67.591 Y68.85 E96.45513
G1 X67.582 Y68.855 E96.45579
G1 X41.143 Y42.415 E98.8389
G1 X41.015 Y42.617 E98.85414
G1 X40.872 Y42.874 E98.87289
G1 X40.738 Y43.155 E98.89273
G1 X40.701 Y43.247 E98.89905
G1 X66.751 Y69.297 E101.24705
G1 X66.544 Y69.377 E101.2612
G1 X66.247 Y69.47 E101.28103
G1 X66.009 Y69.528 E101.29664
G1 X65.753 Y69.571 E101.31319
G1 X40.42 Y44.238 E103.59657
G1 X40.413 Y44.276 E103.59903
G1 X40.377 Y44.563 E103.61746
G1 X40.353 Y44.947 E103.64199
G1 X40.353 Y45.444 E103.67366
G1 X64.557 Y69.648 E105.85528
G1 X63.284 Y69.648 E105.93641
G1 X40.353 Y46.717 E108.00329
G1 X40.353 Y47.989 E108.08436
G1 X62.011 Y69.648 E110.03654
G1 X60.738 Y69.647 E110.11767
G1 X40.352 Y49.262 E111.95511
G1 X40.352 Y50.534 E112.03618
G1 X59.465 Y69.647 E113.75892
G1 X58.192 Y69.647 E113.84005
G1 X40.351 Y51.806 E115.44814
G1 X40.351 Y53.079 E115.52928
G1 X56.919 Y69.647 E117.02263
G1 X55.646 Y69.647 E117.10376
G1 X40.351 Y54.352 E118.48237
G1 X40.351 Y55.624 E118.56344
G1 X54.373 Y69.647 E119.82735
G1 X53.1 Y69.647 E119.90849
G1 X40.351 Y56.897 E121.05766
G1 X40.351 Y58.17 E121.13879
G1 X51.827 Y69.646 E122.17317
G1 X50.554 Y69.646 E122.25431
G1 X40.35 Y59.442 E123.17404
G1 X40.35 Y60.715 E123.25518
G1 X49.281 Y69.646 E124.06017
G1 X48.008 Y69.645 E124.1413
G1 X40.349 Y61.987 E124.8316
G1 X40.349 Y63.259 E124.91267
G1 X46.735 Y69.645 E125.48827
G1 X45.462 Y69.645 E125.5694
G1 X40.349 Y64.532 E126.03026
G1 X40.349 Y64.872 E126.05193
G1 X40.358 Y65.077 E126.06501
G1 X40.411 Y65.658 E126.10219
G1 X40.453 Y65.909 E126.11841
G1 X44.094 Y69.55 E126.44659
G1 X43.984 Y69.529 E126.45373
G1 X43.688 Y69.451 E126.47324
G1 X43.402 Y69.357 E126.49242
G1 X43.155 Y69.26 E126.50934
G1 X42.875 Y69.126 E126.52912
G1 X42.623 Y68.987 E126.54746
G1 X42.379 Y68.831 E126.56592
G1 X42.133 Y68.651 E126.58535
G1 X41.91 Y68.463 E126.60394
G1 X41.708 Y68.273 E126.62161
G1 X41.5 Y68.047 E126.64119
G1 X41.307 Y67.812 E126.66057
G1 X41.148 Y67.591 E126.67792
G1 X40.981 Y67.322 E126.6981
G1 X40.857 Y67.09 E126.71487
G1 X40.718 Y66.794 E126.73571
G1 X40.621 Y66.542 E126.75292
G1 X40.528 Y66.247 E126.77263
G1 X40.469 Y66.006 E126.78845
G0 F600 X40.469 Y66.006 Z0.656
G0 F7200 X41.797 Y68.598
;TIME_ELAPSED:114.967036
;LAYER:-4
;TYPE:SUPPORT-INTERFACE
G1 F1500 X41.452 Y68.25 E126.79779
G1 X68.549 Y68.25 E127.31432
G1 X68.61 Y68.19 E127.31595
G1 X68.835 Y67.9 E127.32295
G1 X41.163 Y67.9 E127.85044
G1 X41.004 Y67.691 E127.85544
G1 X40.921 Y67.55 E127.85856
G1 X69.077 Y67.55 E128.39528
G1 X69.284 Y67.204 E128.40296
G1 X69.285 Y67.2 E128.40304
G1 X40.716 Y67.2 E128.94763
G1 X40.698 Y67.168 E128.94833
G1 X40.561 Y66.85 E128.95493
G1 X69.438 Y66.85 E129.50539
G1 X69.53 Y66.641 E129.50974
G1 X69.571 Y66.5 E129.51254
G1 X40.426 Y66.5 E130.06811
G1 X40.327 Y66.15 E130.07504
G1 X69.673 Y66.15 E130.63444
G1 X69.701 Y66.054 E130.63635
G1 X69.74 Y65.8 E130.64125
G1 X40.269 Y65.8 E131.20303
G1 X40.226 Y65.45 E131.20975
G1 X69.795 Y65.45 E131.7734
G1 X69.796 Y65.444 E131.77352
G1 X69.815 Y65.1 E131.78009
G1 X40.183 Y65.1 E132.34494
G1 X40.183 Y64.75 E132.35161
G1 X69.825 Y64.75 E132.91665
G1 X69.825 Y64.4 E132.92332
G1 X40.183 Y64.4 E133.48837
G1 X40.183 Y64.05 E133.49504
G1 X69.825 Y64.05 E134.06008
G1 X69.825 Y63.7 E134.06675
G1 X40.183 Y63.7 E134.63179
G1 X40.183 Y63.35 E134.63846
G1 X69.825 Y63.35 E135.20351
G1 X69.825 Y63 E135.21018
G1 X40.182 Y63 E135.77524
G1 X40.182 Y62.65 E135.78191
G1 X69.824 Y62.65 E136.34695
G1 X69.824 Y62.3 E136.35363
G1 X40.182 Y62.3 E136.91867
G1 X40.182 Y61.95 E136.92534
G1 X69.824 Y61.95 E137.49038
G1 X69.824 Y61.6 E137.49705
G1 X40.182 Y61.6 E138.0621
G1 X40.182 Y61.25 E138.06877
G1 X69.824 Y61.25 E138.63381
G1 X69.823 Y60.9 E138.64048
G1 X40.181 Y60.9 E139.20552
G1 X40.181 Y60.55 E139.2122
G1 X69.823 Y60.55 E139.77724
G1 X69.823 Y60.2 E139.78391
G1 X40.181 Y60.2 E140.34895
G1 X40.181 Y59.85 E140.35562
G1 X69.823 Y59.85 E140.92067
G1 X69.823 Y59.5 E140.92734
G1 X40.181 Y59.5 E141.49238
G1 X40.182 Y59.15 E141.49905
G1 X69.823 Y59.15 E142.06407
G1 X69.822 Y58.8 E142.07075
G1 X40.181 Y58.8 E142.63577
G1 X40.181 Y58.45 E142.64244
G1 X69.822 Y58.45 E143.20746
G1 X69.822 Y58.1 E143.21414
G1 X40.181 Y58.1 E143.77916
G1 X40.181 Y57.75 E143.78583
G1 X69.822 Y57.75 E144.35085
G1 X69.822 Y57.4 E144.35753
G1 X40.181 Y57.4 E144.92255
G1 X40.18 Y57.05 E144.92922
G1 X69.822 Y57.05 E145.49426
G1 X69.821 Y56.7 E145.50093
G1 X40.18 Y56.7 E146.06596
G1 X40.18 Y56.35 E146.07263
G1 X69.821 Y56.35 E146.63765
G1 X69.821 Y56 E146.64432
G1 X40.18 Y56 E147.20935
G1 X40.18 Y55.65 E147.21602
G1 X69.821 Y55.65 E147.78104
G1 X69.821 Y55.3 E147.78771
G1 X40.18 Y55.3 E148.35274
G1 X40.179 Y54.95 E148.35941
G1 X69.821 Y54.95 E148.92445
G1 X69.82 Y54.6 E148.93112
G1 X40.179 Y54.6 E149.49615
G1 X40.179 Y54.25 E149.50282
G1 X69.82 Y54.25 E150.06784
G1 X69.82 Y53.9 E150.07451
G1 X40.179 Y53.9 E150.63954
G1 X40.179 Y53.55 E150.64621
G1 X69.82 Y53.55 E151.21123
G1 X69.82 Y53.2 E151.2179
G1 X40.179 Y53.2 E151.78293
G1 X40.178 Y52.85 E151.7896
G1 X69.819 Y52.85 E152.35462
G1 X69.819 Y52.5 E152.36129
G1 X40.178 Y52.5 E152.92632
G1 X40.178 Y52.15 E152.93299
G1 X69.819 Y52.15 E153.49801
G1 X69.819 Y51.8 E153.50468
G1 X40.178 Y51.8 E154.06971
G1 X40.178 Y51.45 E154.07638
G1 X69.819 Y51.45 E154.6414
G1 X69.819 Y51.1 E154.64807
G1 X40.178 Y51.1 E155.21309
G1 X40.177 Y50.75 E155.21977
G1 X69.818 Y50.75 E155.78479
G1 X69.818 Y50.4 E155.79146
G1 X40.177 Y50.4 E156.35648
G1 X40.177 Y50.05 E156.36316
G1 X69.818 Y50.05 E156.92818
G1 X69.818 Y49.7 E156.93485
G1 X40.177 Y49.7 E157.49987
G1 X40.177 Y49.35 E157.50655
G1 X69.818 Y49.35 E158.07157
G1 X69.818 Y49 E158.07824
G1 X40.176 Y49 E158.64328
G1 X40.176 Y48.65 E158.64996
G1 X69.817 Y48.65 E159.21498
G1 X69.817 Y48.3 E159.22165
G1 X40.176 Y48.3 E159.78667
G1 X40.176 Y47.95 E159.79334
G1 X69.817 Y47.95 E160.35837
G1 X69.817 Y47.6 E160.36504
G1 X40.176 Y47.6 E160.93006
G1 X40.176 Y47.25 E160.93673
G1 X69.817 Y47.25 E161.50176
G1 X69.817 Y46.9 E161.50843
G1 X40.175 Y46.9 E162.07347
G1 X40.175 Y46.55 E162.08014
G1 X69.816 Y46.55 E162.64517
G1 X69.816 Y46.2 E162.65184
G1 X40.175 Y46.2 E163.21686
G1 X40.175 Y45.85 E163.22353
G1 X69.816 Y45.85 E163.78856
G1 X69.816 Y45.5 E163.79523
G1 X40.175 Y45.5 E164.36025
G1 X40.175 Y45.15 E164.36692
G1 X69.816 Y45.15 E164.93195
G1 X69.815 Y44.896 E164.93679
G1 X69.804 Y44.8 E164.93863
G1 X40.191 Y44.8 E165.50312
G1 X40.204 Y44.555 E165.5078
G1 X40.221 Y44.45 E165.50982
G1 X69.761 Y44.45 E166.07292
G1 X69.718 Y44.1 E166.07964
G1 X40.276 Y44.1 E166.64087
G1 X40.301 Y43.937 E166.64402
G1 X40.356 Y43.75 E166.64773
G1 X69.644 Y43.75 E167.20603
G1 X69.545 Y43.4 E167.21296
G1 X40.459 Y43.4 E167.7674
G1 X40.47 Y43.359 E167.76821
G1 X40.606 Y43.05 E167.77465
G1 X69.395 Y43.05 E168.32343
G1 X69.301 Y42.831 E168.32797
G1 X69.225 Y42.7 E168.33086
G1 X40.774 Y42.7 E168.8732
G1 X40.983 Y42.35 E168.88097
G1 X69.02 Y42.35 E169.41542
G1 X68.995 Y42.308 E169.41635
G1 X68.759 Y42 E169.42375
G1 X41.244 Y42 E169.94824
G1 X41.402 Y41.798 E169.95313
G1 X41.552 Y41.65 E169.95715
G1 X68.45 Y41.65 E170.46988
G1 X68.202 Y41.401 E170.47658
G1 X68.074 Y41.3 E170.47969
G1 X41.925 Y41.3 E170.97815
G1 X42.309 Y41.005 E170.98738
G1 X42.404 Y40.95 E170.98947
G1 X67.598 Y40.95 E171.46972
G1 X67.207 Y40.717 E171.4784
G1 X66.94 Y40.6 E171.48396
G1 X43.064 Y40.6 E171.93909
G1 X43.4 Y40.456 E171.94606
G1 X43.948 Y40.301 E171.95691
G1 X44.366 Y40.25 E171.96494
G1 X65.744 Y40.25 E172.37245
G0 F7200 X65.45 Y40.204
G1 F1500 X64.931 Y40.174 E172.38236
G1 X44.897 Y40.185 E172.76425
G1 X44.366 Y40.25 E172.77445
G0 F7200 X41.799 Y68.6
G1 F1500 X68.197 Y68.6 E173.27766
G1 X68.167 Y68.63 E173.27846
G1 X67.749 Y68.95 E173.2885
G1 X42.244 Y68.95 E173.77468
G1 X42.274 Y68.973 E173.7754
G1 X42.792 Y69.282 E173.7869
G1 X42.833 Y69.3 E173.78775
G1 X67.129 Y69.3 E174.25089
G1 X66.6 Y69.544 E174.26199
G1 X66.225 Y69.65 E174.26942
G1 X43.768 Y69.65 E174.6975
G0 F7200 X43.936 Y69.699
G1 F1500 X44.549 Y69.795 E174.70933
G1 X45.068 Y69.825 E174.71924
G1 X65.102 Y69.815 E175.10113
G1 X66.052 Y69.699 E175.11937
G1 X66.225 Y69.65 E175.1228
G0 F7200 X41.799 Y68.6
G1 F1500 X41.797 Y68.598 E175.12286
G0 F600 X41.797 Y68.598 Z1.182
G0 F7200 X45.875 Y64.125
;TIME_ELAPSED:218.626813
;LAYER:0
M106 S255
;TYPE:WALL-INNER
;MESH:Sizzling Kup-Amur.stl
G1 F1800 X45.875 Y45.875 E175.82128
G1 X64.125 Y45.875 E176.51971
G1 X64.125 Y64.125 E177.21814
G1 X46.569 Y64.125 E177.89
G0 F1620 X45.875 Y64.125
G0 F4320 X45.525 Y64.475
