;FLAVOR:Marlin
;TIME:2394
;Filament used: 1.58743m
;Layer height: 0.13125
;MINX:40.175
;MINY:40.174
;MINZ:0.306
;MAXX:69.825
;MAXY:69.825
;MAXZ:20.701
;Generated with Cura_SteamEngine 4.3.0
M140 S60
M105
M190 S60
M104 S205
M105
M109 S205
M82 ;absolute extrusion mode
G21;(metric values)
G90;(absolute positioning)
M82;(set extruder to absolute mode)
M107;(start with the fan off)
G28;(Home the printer)
G92 E0;(Reset the extruder to 0)
G0 X-1 Y-1 F500.0 Z5.0
G0 X-1.0 Y-1 F500 Z0.0
G1 X-1 Y60.0 E8.0 F500.0
G1 X-1.0 Y-1 E-1 F500
G1 X-1 Y10.0 E16.0 F500.0
G1 X-1 Y-1 E15.0 F250.0
G92 E0
G92 E0
G1 X-1 Y-1 E-4.5 F2400.0
;LAYER:-6
M107
G0 X41.779 Y41.727 F7200.0 Z0.306
G0 X41.779 Y41.727 F1012.5
G1 X-1 Y-1 E0.0 F2400.0
G0 X43.2 Y69.223 F1012.5
G1 X43.2 Y40.776 E16.6098 F1125.0
G0 X44.8 Y40.419 F1012.5
G1 X44.8 Y69.584 E19.57809 F1125.0
G0 X46.4 Y69.6 F1012.5
G1 X46.4 Y40.401 E22.54985 F1125.0
G0 X48.0 Y40.401 F1012.5
G1 X48.0 Y69.6 E25.52161 F1125.0
G0 X49.6 Y69.6 F1012.5
G1 X49.6 Y40.401 E28.49337 F1125.0
G0 X51.2 Y40.402 F1012.5
G1 X51.2 Y69.6 E31.46502 F1125.0
G0 X52.8 Y69.6 F1012.5
G1 X52.8 Y40.402 E34.43668 F1125.0
G0 X54.4 Y40.402 F1012.5
G1 X54.4 Y69.6 E37.40834 F1125.0
G0 X56.0 Y69.6 F1012.5
G1 X56.0 Y40.403 E40.37989 F1125.0
G0 X57.6 Y40.403 F1012.5
G1 X57.6 Y69.6 E43.35144 F1125.0
G0 X59.2 Y69.6 F1012.5
G1 X59.2 Y40.403 E46.323 F1125.0
G0 X60.8 Y40.404 F1012.5
G1 X60.8 Y69.6 E49.29445 F1125.0
G0 X62.4 Y69.6 F1012.5
G1 X62.4 Y40.404 E52.2659 F1125.0
G0 X64.0 Y40.404 F1012.5
G1 X64.0 Y69.6 E55.23736 F1125.0
G0 X65.6 Y69.545 F1012.5
G1 X65.6 Y40.45 E58.19853 F1125.0
G0 X65.647 Y69.54 F1012.5
G1 X66.003 Y69.48 E5.83607 F1125
G0 X66.527 Y69.331 F1012.5
G1 X66.788 Y69.229 E5.74385 F1125
G1 X67.063 Y69.102 E5.71533 F1125
G0 X67.561 Y68.812 F1012.5
G1 X67.789 Y68.648 E5.62582 F1125
G1 X68.019 Y68.46 E5.59723 F1125
G0 X68.438 Y68.044 F1012.5
G1 X68.619 Y67.827 E5.50688 F1125
G1 X68.792 Y67.592 E5.47812 F1125
G0 X69.087 Y67.095 F1012.5
G1 X69.209 Y66.837 E5.38957 F1125
G1 X69.32 Y66.558 E5.36052 F1125
G0 X69.48 Y66.009 F1012.5
G1 X69.535 Y65.725 E5.27174 F1125
G1 X69.572 Y65.427 E5.24229 F1125
G0 X67.2 Y40.972 F1012.5
G1 X67.2 Y69.029 E61.05406 F1125.0
G0 X66.3 Y40.596 F1012.5
G1 X66.009 Y40.52 E2.53285 F1125
G0 X65.725 Y40.465 F1012.5
G1 X65.427 Y40.428 E2.4728 F1125
G0 X66.558 Y40.68 F1012.5
G1 X66.837 Y40.791 E2.59103 F1125
G0 X67.095 Y40.913 F1012.5
G1 X67.353 Y41.056 E2.6501 F1125
G0 X68.04 Y41.559 F1012.5
G1 X67.839 Y41.39 E2.73688 F1125
G0 X69.331 Y43.473 F1012.5
G1 X69.426 Y43.776 E3.00668 F1125
G0 X69.48 Y43.997 F1012.5
G1 X69.54 Y44.353 E3.06658 F1125
G0 X69.229 Y43.212 F1012.5
G1 X69.102 Y42.937 E2.94584 F1125
G0 X68.974 Y42.698 F1012.5
G1 X68.812 Y42.439 E2.88742 F1125
G0 X68.648 Y42.211 F1012.5
G1 X68.46 Y41.981 E2.82774 F1125
G0 X68.273 Y41.779 F1012.5
G1 X68.04 Y41.559 E2.76949 F1125
G0 X67.839 Y41.39 F1012.5
G1 X67.592 Y41.208 E2.71015 F1125
G0 X68.648 Y42.211 F1012.5
G1 X68.812 Y42.439 E2.85633 F1125
G0 X69.229 Y43.212 F1012.5
G1 X69.331 Y43.473 E2.97436 F1125
G0 X69.54 Y44.353 F1012.5
G1 X69.59 Y44.907 E3.12319 F1125
G0 X69.596 Y65.05 F1012.5
G1 X69.572 Y65.427 E5.21173 F1125
G0 X69.404 Y66.3 F1012.5
G1 X69.32 Y66.558 E5.32996 F1125
G0 X68.944 Y67.353 F1012.5
G1 X68.792 Y67.592 E5.44842 F1125
G0 X68.224 Y68.27 F1012.5
G1 X68.019 Y68.46 E5.567 F1125
G0 X67.302 Y68.974 F1012.5
G1 X67.063 Y69.102 E5.6845 F1125
G0 X66.224 Y69.426 F1012.5
G1 X66.003 Y69.48 E5.79932 F1125
G0 X65.093 Y69.59 F1012.5
G1 X64.871 Y69.6 E5.9153 F1125
G0 X45.076 Y69.6 F1012.5
G1 X44.573 Y69.572 E7.98123 F1125
G0 X44.275 Y69.535 F1012.5
G1 X44.573 Y69.572 E8.01179 F1125
G0 X43.991 Y69.48 F1012.5
G1 X43.7 Y69.404 E8.07184 F1125
G0 X42.904 Y69.086 F1012.5
G1 X42.647 Y68.944 E8.18908 F1125
G0 X41.96 Y68.441 F1012.5
G1 X41.727 Y68.221 E8.30847 F1125
G0 X41.188 Y67.561 F1012.5
G1 X41.026 Y67.302 E8.4264 F1125
G0 X40.669 Y66.527 F1012.5
G1 X40.574 Y66.224 E8.54566 F1125
G0 X40.46 Y65.647 F1012.5
G1 X40.518 Y65.995 E8.60556 F1125
G0 X40.41 Y65.093 F1012.5
G1 X40.4 Y64.871 E8.68479 F1125
G0 X40.404 Y44.95 F1012.5
G1 X40.428 Y44.573 E10.75072 F1125
G0 X40.596 Y43.7 F1012.5
G1 X40.68 Y43.442 E10.86895 F1125
G0 X41.059 Y42.642 F1012.5
G1 X41.208 Y42.408 E10.9874 F1125
G0 X41.6 Y68.083 F1012.5
G1 X41.6 Y41.916 E13.71457 F1125.0
G0 X41.026 Y67.302 F1012.5
G1 X40.898 Y67.063 E8.45399 F1125
G0 X40.574 Y66.224 F1012.5
G1 X40.518 Y65.995 E8.56965 F1125
G0 X40.41 Y65.093 F1012.5
G1 X40.46 Y65.647 E8.66217 F1125
G0 X40.404 Y44.95 F1012.5
G1 X40.4 Y64.871 E10.71227 F1125
G0 X40.596 Y43.7 F1012.5
G1 X40.52 Y43.991 E10.84133 F1125
G0 X41.059 Y42.642 F1012.5
G1 X40.913 Y42.905 E10.95917 F1125
G0 X41.6 Y41.917 F1012.5
G1 X41.559 Y41.96 E11.0514 F1125
G1 X41.39 Y42.161 E11.04535 F1125
G1 X41.208 Y42.408 E11.01863 F1125
G0 X40.913 Y42.905 F1012.5
G1 X40.791 Y43.163 E10.92855 F1125
G1 X40.68 Y43.442 E10.89951 F1125
G0 X40.52 Y43.991 F1012.5
G1 X40.465 Y44.275 E10.81072 F1125
G1 X40.428 Y44.573 E10.78128 F1125
G0 X42.698 Y41.026 F1012.5
G1 X42.937 Y40.898 E0.14552 F1125
G0 X43.776 Y40.574 F1012.5
G1 X43.997 Y40.52 E0.26034 F1125
G0 X44.907 Y40.41 F1012.5
G1 X45.129 Y40.4 E0.37631 F1125
G0 X65.05 Y40.404 F1012.5
G1 X65.427 Y40.428 E2.44224 F1125
G0 X66.3 Y40.596 F1012.5
G1 X66.558 Y40.68 E2.56047 F1125
G0 X67.353 Y41.056 F1012.5
G1 X67.592 Y41.208 E2.67892 F1125
G0 X68.273 Y41.779 F1012.5
G1 X68.46 Y41.981 E2.79751 F1125
G0 X68.974 Y42.698 F1012.5
G1 X69.102 Y42.937 E2.91501 F1125
G0 X69.426 Y43.776 F1012.5
G1 X69.48 Y43.997 E3.02983 F1125
G0 X69.59 Y44.907 F1012.5
G1 X69.6 Y45.129 E3.14581 F1125
G0 X69.596 Y65.05 F1012.5
G1 X69.6 Y45.129 E5.17329 F1125
G0 X69.404 Y66.3 F1012.5
G1 X69.48 Y66.009 E5.30235 F1125
G0 X68.944 Y67.353 F1012.5
G1 X69.087 Y67.095 E5.41959 F1125
G0 X68.224 Y68.27 F1012.5
G1 X68.438 Y68.044 E5.53855 F1125
G0 X67.302 Y68.974 F1012.5
G1 X67.561 Y68.812 E5.65691 F1125
G0 X66.224 Y69.426 F1012.5
G1 X66.527 Y69.331 E5.77617 F1125
G0 X65.093 Y69.59 F1012.5
G1 X65.647 Y69.54 E5.89268 F1125
G0 X45.076 Y69.6 F1012.5
G1 X64.871 Y69.6 E7.92995 F1125
G0 X43.991 Y69.48 F1012.5
G1 X44.275 Y69.535 E8.04123 F1125
G0 X42.904 Y69.086 F1012.5
G1 X43.163 Y69.209 E8.1592 F1125
G0 X41.96 Y68.441 F1012.5
G1 X42.161 Y68.61 E8.27586 F1125
G0 X41.188 Y67.561 F1012.5
G1 X41.348 Y67.784 E8.39531 F1125
G0 X40.669 Y66.527 F1012.5
G1 X40.771 Y66.788 E8.51334 F1125
G0 X40.898 Y67.063 F1012.5
G1 X40.771 Y66.788 E8.48482 F1125
G0 X41.348 Y67.784 F1012.5
G1 X41.54 Y68.019 E8.36737 F1125
G1 X41.727 Y68.221 E8.33649 F1125
G0 X42.161 Y68.61 F1012.5
G1 X42.408 Y68.792 E8.24913 F1125
G1 X42.647 Y68.944 E8.21791 F1125
G0 X43.163 Y69.209 F1012.5
G1 X43.44 Y69.319 E8.13001 F1125
G1 X43.7 Y69.404 E8.09968 F1125
G0 X44.353 Y40.46 F1012.5
G1 X43.997 Y40.52 E0.29708 F1125
G0 X43.473 Y40.669 F1012.5
G1 X43.212 Y40.771 E0.20487 F1125
G1 X42.937 Y40.898 E0.17635 F1125
G0 X42.439 Y41.188 F1012.5
G1 X42.211 Y41.352 E0.08683 F1125
G1 X41.981 Y41.54 E0.05825 F1125
G1 X-1 Y-1 E0.02802 F1125.0
G0 X42.698 Y41.026 F1012.5
G1 X42.439 Y41.188 E0.11793 F1125
G0 X43.776 Y40.574 F1012.5
G1 X43.473 Y40.669 E0.23719 F1125
G0 X44.907 Y40.41 F1012.5
G1 X44.353 Y40.46 E0.3537 F1125
G0 X65.05 Y40.404 F1012.5
G1 X45.129 Y40.4 E2.40379 F1125
G0 X66.009 Y40.52 F1012.5
G1 X65.725 Y40.465 E2.50224 F1125
G0 X67.095 Y40.913 F1012.5
G1 X66.837 Y40.791 E2.62008 F1125
G1 X68.8 Y42.423 E63.61444 F1125.0
G0 X68.8 Y42.423 F600.0 Z0.525
G0 X69.528 Y43.99 F7200.0
;LAYER:-5
M140 S60
;TYPE:SUPPORT
G0 X69.528 Y43.99 F0
G1 X69.47 Y43.751 E63.63011 F1125.0
G0 X69.649 Y45.126 F0
G1 X69.649 Y45.466 E64.37234 F1125
G1 X64.536 Y40.353 E64.8332 F1125
G0 X69.649 Y45.126 F0
G1 X69.639 Y44.904 E64.35067 F1125
G1 X69.587 Y44.336 E64.33651 F1125
G1 X69.545 Y44.089 E64.30015 F1125
G1 X65.905 Y40.449 E64.28419 F1125
G0 X69.28 Y43.204 F0
G1 X69.141 Y42.905 E63.68805 F1125
G0 X68.691 Y42.185 F0
G1 X68.499 Y41.951 E63.76153 F1125
G0 X69.017 Y42.676 F0
G1 X69.141 Y42.905 E63.70465 F1125
G0 X69.28 Y43.204 F0
G1 X69.377 Y43.455 E63.66704 F1125
G1 X69.47 Y43.751 E63.64989 F1125
G0 X69.017 Y42.676 F0
G1 X68.85 Y42.407 E63.72483 F1125
G1 X68.691 Y42.185 E63.74223 F1125
G0 X68.499 Y41.951 F0
G1 X68.29 Y41.725 E63.78114 F1125
G0 X67.865 Y41.347 F0
G1 X67.62 Y41.167 E63.83678 F1125
G0 X68.29 Y41.725 F0
G1 X68.089 Y41.536 E63.79873 F1125
G1 X67.865 Y41.347 E63.81741 F1125
G0 X67.62 Y41.167 F0
G1 X67.375 Y41.011 E63.8553 F1125
G1 X67.124 Y40.873 E63.87355 F1125
G1 X66.843 Y40.738 E63.89342 F1125
G0 X66.596 Y40.64 F0
G1 X66.311 Y40.548 E63.92945 F1125
G1 X66.014 Y40.469 E63.94903 F1125
G0 X66.843 Y40.738 F0
G1 X66.596 Y40.64 E63.91036 F1125
G0 X65.905 Y40.449 F0
G1 X66.014 Y40.469 E63.9561 F1125
G0 X63.264 Y40.353 F0
G1 X69.649 Y46.739 E65.48982 F1125
G0 X63.264 Y40.353 F0
G1 X64.536 Y40.353 E64.91427 F1125
G0 X69.649 Y46.739 F0
G1 X69.649 Y48.011 E65.57089 F1125
G1 X61.991 Y40.353 E66.26114 F1125
G1 X60.717 Y40.353 E66.34234 F1125
G1 X69.648 Y49.283 E67.14729 F1125
G1 X69.648 Y50.556 E67.22842 F1125
G1 X59.445 Y40.353 E68.14806 F1125
G1 X58.172 Y40.353 E68.2292 F1125
G1 X69.647 Y51.828 E69.26349 F1125
G1 X69.647 Y53.101 E69.34463 F1125
G1 X56.898 Y40.352 E70.49375 F1125
G1 X55.625 Y40.352 E70.57489 F1125
G1 X69.647 Y54.374 E71.83875 F1125
G1 X69.647 Y55.646 E71.91982 F1125
G1 X54.353 Y40.352 E73.29834 F1125
G1 X53.079 Y40.351 E73.37954 F1125
G1 X69.647 Y56.919 E74.87289 F1125
G1 X69.647 Y58.192 E74.95402 F1125
G1 X51.806 Y40.351 E76.56211 F1125
G1 X50.534 Y40.351 E76.64318 F1125
G1 X69.646 Y59.464 E78.36588 F1125
G1 X69.646 Y60.736 E78.44695 F1125
G1 X49.261 Y40.351 E80.28434 F1125
G1 X47.987 Y40.351 E80.36554 F1125
G1 X69.645 Y62.009 E82.31767 F1125
G1 X69.645 Y63.281 E82.39874 F1125
G1 X46.715 Y40.351 E84.46553 F1125
G1 X45.442 Y40.351 E84.54666 F1125
G1 X69.645 Y64.554 E86.72819 F1125
G0 X43.455 Y40.622 F0
G1 X43.751 Y40.528 E89.14057 F1125
G1 X43.989 Y40.47 E89.12078 F1125
G0 X40.701 Y43.247 F0
G1 X66.751 Y69.297 E101.24705 F1125
G0 X40.701 Y43.247 F0
G1 X40.738 Y43.155 E98.89905 F1125
G1 X40.872 Y42.874 E98.89273 F1125
G1 X41.015 Y42.617 E98.87289 F1125
G0 X41.143 Y42.415 F0
G1 X67.582 Y68.855 E98.8389 F1125
G0 X41.717 Y41.717 F0
G1 X68.282 Y68.282 E96.39804 F1125
G0 X41.717 Y41.717 F0
G1 X41.725 Y41.708 E94.00362 F1125
G1 X41.951 Y41.5 E94.00285 F1125
G0 X42.185 Y41.308 F0
G1 X42.407 Y41.148 E93.96399 F1125
G1 X42.416 Y41.143 E93.94655 F1125
G1 X68.855 Y67.583 E93.94589 F1125
G0 X43.248 Y40.702 F0
G1 X43.455 Y40.622 E89.15472 F1125
G0 X69.297 Y66.751 F0
G1 X69.26 Y66.843 E91.50895 F1125
G0 X68.855 Y67.583 F0
G1 X68.986 Y67.375 E91.56278 F1125
G0 X68.048 Y68.499 F0
G1 X67.815 Y68.69 E96.43759 F1125
G0 X67.582 Y68.855 F0
G1 X67.591 Y68.85 E96.45579 F1125
G0 X66.544 Y69.377 F0
G1 X66.247 Y69.47 E101.28103 F1125
G0 X65.753 Y69.571 F0
G1 X66.009 Y69.528 E101.31319 F1125
G1 X66.247 Y69.47 E101.29664 F1125
G0 X67.591 Y68.85 F0
G1 X67.815 Y68.69 E96.45513 F1125
G0 X68.048 Y68.499 F0
G1 X68.273 Y68.29 E96.41838 F1125
G0 X68.986 Y67.375 F0
G1 X69.126 Y67.124 E91.54711 F1125
G1 X69.26 Y66.843 E91.52879 F1125
G0 X69.578 Y65.76 F0
G1 X44.246 Y40.428 E89.08857 F1125
G0 X69.584 Y65.722 F0
G1 X69.621 Y65.434 E86.80283 F1125
G1 X69.645 Y65.051 E86.78432 F1125
G0 X69.645 Y64.554 F0
G1 X69.645 Y65.051 E86.75986 F1125
G0 X69.584 Y65.722 F0
G1 X69.578 Y65.76 E86.80528 F1125
G0 X44.246 Y40.428 F0
G1 X43.989 Y40.47 E89.10517 F1125
G0 X43.248 Y40.702 F0
G1 X69.297 Y66.751 E91.50263 F1125
G0 X42.185 Y41.308 F0
G1 X41.951 Y41.5 E93.98328 F1125
G0 X68.282 Y68.282 F0
G1 X68.273 Y68.29 E96.39881 F1125
G0 X41.143 Y42.415 F0
G1 X41.015 Y42.617 E98.85414 F1125
G0 X66.751 Y69.297 F0
G1 X66.544 Y69.377 E101.2612 F1125
G0 X65.753 Y69.571 F0
G1 X40.42 Y44.238 E103.59657 F1125
G1 X40.413 Y44.276 E103.59903 F1125
G0 X40.353 Y45.444 F0
G1 X40.353 Y44.947 E103.67366 F1125
G1 X40.377 Y44.563 E103.64199 F1125
G1 X40.413 Y44.276 E103.61746 F1125
G0 X40.353 Y45.444 F0
G1 X64.557 Y69.648 E105.85528 F1125
G1 X63.284 Y69.648 E105.93641 F1125
G1 X40.353 Y46.717 E108.00329 F1125
G1 X40.353 Y47.989 E108.08436 F1125
G1 X62.011 Y69.648 E110.03654 F1125
G1 X60.738 Y69.647 E110.11767 F1125
G1 X40.352 Y49.262 E111.95511 F1125
G1 X40.352 Y50.534 E112.03618 F1125
G1 X59.465 Y69.647 E113.75892 F1125
G1 X58.192 Y69.647 E113.84005 F1125
G1 X40.351 Y51.806 E115.44814 F1125
G1 X40.351 Y53.079 E115.52928 F1125
G1 X56.919 Y69.647 E117.02263 F1125
G1 X55.646 Y69.647 E117.10376 F1125
G1 X40.351 Y54.352 E118.48237 F1125
G1 X40.351 Y55.624 E118.56344 F1125
G1 X54.373 Y69.647 E119.82735 F1125
G1 X53.1 Y69.647 E119.90849 F1125
G1 X40.351 Y56.897 E121.05766 F1125
G1 X40.351 Y58.17 E121.13879 F1125
G1 X51.827 Y69.646 E122.17317 F1125
G1 X50.554 Y69.646 E122.25431 F1125
G1 X40.35 Y59.442 E123.17404 F1125
G1 X40.35 Y60.715 E123.25518 F1125
G1 X49.281 Y69.646 E124.06017 F1125
G1 X48.008 Y69.645 E124.1413 F1125
G1 X40.349 Y61.987 E124.8316 F1125
G1 X40.349 Y63.259 E124.91267 F1125
G1 X46.735 Y69.645 E125.48827 F1125
G1 X45.462 Y69.645 E125.5694 F1125
G1 X40.349 Y64.532 E126.03026 F1125
G1 X40.349 Y64.872 E126.05193 F1125
G0 X40.411 Y65.658 F0
G1 X40.358 Y65.077 E126.10219 F1125
G0 X44.094 Y69.55 F0
G1 X43.984 Y69.529 E126.45373 F1125
G1 X43.688 Y69.451 E126.47324 F1125
G1 X43.402 Y69.357 E126.49242 F1125
G1 X43.155 Y69.26 E126.50934 F1125
G1 X42.875 Y69.126 E126.52912 F1125
G1 X42.623 Y68.987 E126.54746 F1125
G1 X42.379 Y68.831 E126.56592 F1125
G1 X42.133 Y68.651 E126.58535 F1125
G1 X41.91 Y68.463 E126.60394 F1125
G1 X41.708 Y68.273 E126.62161 F1125
G1 X41.5 Y68.047 E126.64119 F1125
G1 X41.307 Y67.812 E126.66057 F1125
G1 X41.148 Y67.591 E126.67792 F1125
G1 X40.981 Y67.322 E126.6981 F1125
G1 X40.857 Y67.09 E126.71487 F1125
G1 X40.718 Y66.794 E126.73571 F1125
G1 X40.621 Y66.542 E126.75292 F1125
G1 X40.528 Y66.247 E126.77263 F1125
G1 X40.469 Y66.006 E126.78845 F1125
G1 X40.411 Y65.658 E126.11841 F1125
G0 X40.358 Y65.077 F0
G1 X40.349 Y64.872 E126.06501 F1125
G0 X40.453 Y65.909 F0
G1 X44.094 Y69.55 E126.44659 F1125
G0 X40.469 Y66.006 F600.0 Z0.656
G0 X41.797 Y68.598 F7200.0
;LAYER:-4
;TYPE:SUPPORT-INTERFACE
G0 X41.797 Y68.598 F7200.0
G1 X41.452 Y68.25 E126.79779 F1500.0
G0 X42.792 Y69.282 F7200.0
G1 X42.833 Y69.3 E173.78775 F1500
G0 X67.129 Y69.3 F7200.0
G1 X66.6 Y69.544 E174.26199 F1500
G0 X67.749 Y68.95 F7200.0
G1 X42.244 Y68.95 E173.77468 F1500
G1 X42.274 Y68.973 E173.7754 F1500
G0 X41.799 Y68.6 F7200.0
G1 X68.197 Y68.6 E173.27766 F1500.0
G1 X68.167 Y68.63 E173.27846 F1500
G0 X69.077 Y67.55 F7200.0
G1 X69.284 Y67.204 E128.40296 F1500
G0 X69.53 Y66.641 F7200.0
G1 X69.571 Y66.5 E129.51254 F1500
G0 X40.269 Y65.8 F7200.0
G1 X40.226 Y65.45 E131.20975 F1500
G0 X40.183 Y64.75 F7200.0
G1 X69.825 Y64.75 E132.91665 F1500
G0 X69.825 Y64.05 F7200.0
G1 X69.825 Y63.7 E134.06675 F1500
G0 X69.825 Y63.0 F7200.0
G1 X40.182 Y63.0 E135.77524 F1500
G0 X40.182 Y62.3 F7200.0
G1 X40.182 Y61.95 E136.92534 F1500
G0 X40.182 Y61.25 F7200.0
G1 X69.824 Y61.25 E138.63381 F1500
G0 X69.823 Y60.55 F7200.0
G1 X69.823 Y60.2 E139.78391 F1500
G0 X69.823 Y59.5 F7200.0
G1 X40.181 Y59.5 E141.49238 F1500
G0 X40.181 Y58.8 F7200.0
G1 X40.181 Y58.45 E142.64244 F1500
G0 X40.181 Y57.75 F7200.0
G1 X69.822 Y57.75 E144.35085 F1500
G0 X69.822 Y57.05 F7200.0
G1 X69.821 Y56.7 E145.50093 F1500
G0 X69.821 Y56.0 F7200.0
G1 X40.18 Y56.0 E147.20935 F1500
G0 X40.18 Y55.3 F7200.0
G1 X40.179 Y54.95 E148.35941 F1500
G0 X40.179 Y54.25 F7200.0
G1 X69.82 Y54.25 E150.06784 F1500
G0 X69.82 Y53.55 F7200.0
G1 X69.82 Y53.2 E151.2179 F1500
G0 X69.819 Y52.5 F7200.0
G1 X40.178 Y52.5 E152.92632 F1500
G0 X40.178 Y51.8 F7200.0
G1 X40.178 Y51.45 E154.07638 F1500
G0 X40.177 Y50.75 F7200.0
G1 X69.818 Y50.75 E155.78479 F1500
G0 X69.818 Y50.05 F7200.0
G1 X69.818 Y49.7 E156.93485 F1500
G0 X69.818 Y49.0 F7200.0
G1 X40.176 Y49.0 E158.64328 F1500
G0 X40.176 Y48.3 F7200.0
G1 X40.176 Y47.95 E159.79334 F1500
G0 X40.176 Y47.25 F7200.0
G1 X69.817 Y47.25 E161.50176 F1500
G0 X69.816 Y46.55 F7200.0
G1 X69.816 Y46.2 E162.65184 F1500
G0 X69.816 Y45.5 F7200.0
G1 X40.175 Y45.5 E164.36025 F1500
G0 X40.191 Y44.8 F7200.0
G1 X40.204 Y44.555 E165.5078 F1500
G0 X40.221 Y44.45 F7200.0
